; generated by PrusaSlicer 2.5.2+win64 on 2023-07-24 at 07:56:33 UTC


;
;
; 

; external perimeters extrusion width = 0.60mm
; perimeters extrusion width = 0.60mm
; infill extrusion width = 0.60mm
; solid infill extrusion width = 0.60mm
; top infill extrusion width = 0.60mm
; first layer extrusion width = 0.60mm

M73 P0 R30
M73 Q0 S30
M201 X1000 Y1000 Z200 E5000 ; sets maximum accelerations, mm/sec^2
M203 X200 Y200 Z12 E120 ; sets maximum feedrates, mm / sec
M204 P1250 R1250 T1250 ; sets acceleration (P, T) and retract acceleration (R), mm/sec^2
M205 X8.00 Y8.00 Z0.40 E4.50 ; sets the jerk limits, mm/sec
M205 S0 T0 ; sets the minimum extruding and travel feed rate, mm/sec
M107
;TYPE:Custom
M862.3 P "MK3S" ; printer model check
M862.1 P0.4 ; nozzle diameter check
M115 U3.12.2 ; tell printer latest fw version
G90 ; use absolute coordinates
M83 ; extruder relative mode
M104 S240 ; set extruder temp
M140 S50 ; set bed temp
M190 S50 ; wait for bed temp
M109 S240 ; wait for extruder temp
G28 W ; home all without mesh bed level
G80 ; mesh bed leveling

G1 Z0.2 F720
G1 Y-3 F1000 ; go outside print area
G92 E0
G1 X60 E9 F1000 ; intro line
G1 X100 E12.5 F1000 ; intro line

G92 E0
M221 S95

; Don't change E values below. Excessive value can damage the printer.
M907 E430 ; set extruder motor current
G21 ; set units to millimeters
G90 ; use absolute coordinates
M83 ; use relative distances for extrusion
M900 K0 ; Filament gcode
M107
;LAYER_CHANGE
;Z:0.2
;HEIGHT:0.2
;BEFORE_LAYER_CHANGE
G92 E0.0
;0.2


G1 E-1 F2400
G1 Z.2 F720
;AFTER_LAYER_CHANGE
;0.2
G1 X89.093 Y88.653 F4200
G1 E1 F1500
M204 S300
;TYPE:Skirt/Brim
;WIDTH:0.6
M73 P0 R29
M73 Q0 S29
G1 F1200
G1 X108.653 Y69.093 E1.40951
G1 X110.083 Y68.221 E.08535
G1 X111.169 Y68.051 E.05597
G1 X138.831 Y68.051 E1.40951
G1 X140.459 Y68.445 E.08535
G1 X141.347 Y69.093 E.05597
G1 X160.907 Y88.653 E1.40951
G1 X161.779 Y90.083 E.08535
G1 X161.949 Y91.169 E.05597
G1 X161.949 Y118.831 E1.40951
G1 X161.555 Y120.459 E.08535
G1 X160.907 Y121.347 E.05597
G1 X141.347 Y140.907 E1.40951
G1 X139.917 Y141.779 E.08535
G1 X138.831 Y141.949 E.05597
G1 X111.169 Y141.949 E1.40951
G1 X109.541 Y141.555 E.08535
G1 X108.653 Y140.907 E.05597
G1 X89.093 Y121.347 E1.40951
G1 X88.221 Y119.917 E.08535
M73 P1 R29
M73 Q1 S29
G1 X88.051 Y118.831 E.05597
G1 X88.051 Y91.169 E1.40951
G1 X88.445 Y89.541 E.08535
G1 X89.058 Y88.702 E.05291
; printing object OV-PAM_standard_1F.stl id:0 copy 0
G1 E-1 F2400
G1 X157.988 Y118.543 F4200
G1 E1 F1500
;TYPE:External perimeter
;WIDTH:0.874574
G1 F901.818
G1 X157.976 Y118.659 E.00886
G1 X157.875 Y118.783 E.01216
G1 X138.783 Y137.875 E2.05382
G1 X138.659 Y137.976 E.01216
G1 X138.5 Y137.992 E.01216
G1 X111.5 Y137.992 E2.05382
G1 X111.341 Y137.976 E.01216
G1 X111.217 Y137.875 E.01216
G1 X92.125 Y118.783 E2.05382
G1 X92.024 Y118.659 E.01216
G1 X92.008 Y118.5 E.01216
G1 X92.008 Y91.5 E2.05382
G1 X92.024 Y91.341 E.01216
G1 X92.125 Y91.217 E.01216
G1 X111.217 Y72.125 E2.05382
G1 X111.341 Y72.024 E.01216
G1 X111.5 Y72.008 E.01216
G1 X138.5 Y72.008 E2.05382
G1 X138.659 Y72.024 E.01216
G1 X138.783 Y72.125 E.01216
G1 X157.875 Y91.217 E2.05382
G1 X157.976 Y91.341 E.01216
G1 X157.992 Y91.5 E.01216
G1 X157.992 Y118.483 E2.05256
G1 X158.084 Y118.608 F4200
; stop printing object OV-PAM_standard_1F.stl id:0 copy 0
;LAYER_CHANGE
;Z:0.4
;HEIGHT:0.2
;BEFORE_LAYER_CHANGE
G92 E0.0
;0.4


G1 E-1 F2400
G1 Z.4 F720
;AFTER_LAYER_CHANGE
;0.4
G1 X161.809 Y119.408 F4200
G1 E1 F1500
;TYPE:Skirt/Brim
;WIDTH:0.6
M73 P2 R29
M73 Q2 S29
G1 F1346.307
G1 X161.555 Y120.459 E.05511
G1 X160.907 Y121.347 E.05597
G1 X141.347 Y140.907 E1.40951
G1 X139.917 Y141.779 E.08535
G1 X138.831 Y141.949 E.05597
G1 X111.169 Y141.949 E1.40951
G1 X109.541 Y141.555 E.08535
G1 X108.653 Y140.907 E.05597
G1 X89.093 Y121.347 E1.40951
G1 X88.221 Y119.917 E.08535
G1 X88.051 Y118.831 E.05597
G1 X88.051 Y91.169 E1.40951
G1 X88.445 Y89.541 E.08535
G1 X89.093 Y88.653 E.05597
G1 X108.653 Y69.093 E1.40951
G1 X110.083 Y68.221 E.08535
G1 X111.169 Y68.051 E.05597
G1 X138.831 Y68.051 E1.40951
G1 X140.459 Y68.445 E.08535
G1 X141.347 Y69.093 E.05597
G1 X160.907 Y88.653 E1.40951
G1 X161.779 Y90.083 E.08535
G1 X161.949 Y91.169 E.05597
G1 X161.949 Y118.831 E1.40951
G1 X161.823 Y119.35 E.02719
; printing object OV-PAM_standard_1F.stl id:0 copy 0
G1 E-1 F2400
G1 X158.188 Y118.573 F4200
G1 X158.19 Y118.545
G1 X157.989 Y118.529
G1 E1 F1500
;TYPE:External perimeter
;WIDTH:0.874574
G1 F901.818
G1 X157.976 Y118.659 E.00995
G1 X157.875 Y118.783 E.01216
G1 X138.783 Y137.875 E2.05382
G1 X138.659 Y137.976 E.01216
G1 X138.5 Y137.992 E.01216
G1 X111.5 Y137.992 E2.05382
G1 X111.341 Y137.976 E.01216
G1 X111.217 Y137.875 E.01216
G1 X92.125 Y118.783 E2.05382
G1 X92.024 Y118.659 E.01216
G1 X92.008 Y118.5 E.01216
G1 X92.008 Y91.5 E2.05382
G1 X92.024 Y91.341 E.01216
M73 P3 R29
M73 Q3 S29
G1 X92.125 Y91.217 E.01216
G1 X111.217 Y72.125 E2.05382
G1 X111.341 Y72.024 E.01216
G1 X111.5 Y72.008 E.01216
G1 X138.5 Y72.008 E2.05382
G1 X138.659 Y72.024 E.01216
G1 X138.783 Y72.125 E.01216
G1 X157.875 Y91.217 E2.05382
G1 X157.976 Y91.341 E.01216
G1 X157.992 Y91.5 E.01216
G1 X157.992 Y118.469 E2.05148
G1 X158.098 Y118.602 F4200
; stop printing object OV-PAM_standard_1F.stl id:0 copy 0
;LAYER_CHANGE
;Z:0.6
;HEIGHT:0.2
;BEFORE_LAYER_CHANGE
G92 E0.0
;0.6


G1 E-1 F2400
G1 Z.6 F720
;AFTER_LAYER_CHANGE
;0.6
G1 X161.812 Y119.395 F4200
G1 E1 F1500
;TYPE:Skirt/Brim
;WIDTH:0.6
G1 F1346.307
G1 X161.555 Y120.459 E.05581
G1 X160.907 Y121.347 E.05597
G1 X141.347 Y140.907 E1.40951
G1 X139.917 Y141.779 E.08535
G1 X138.831 Y141.949 E.05597
G1 X111.169 Y141.949 E1.40951
G1 X109.541 Y141.555 E.08535
G1 X108.653 Y140.907 E.05597
G1 X89.093 Y121.347 E1.40951
G1 X88.221 Y119.917 E.08535
G1 X88.051 Y118.831 E.05597
G1 X88.051 Y91.169 E1.40951
G1 X88.445 Y89.541 E.08535
M73 P3 R28
M73 Q3 S28
G1 X89.093 Y88.653 E.05597
G1 X108.653 Y69.093 E1.40951
G1 X110.083 Y68.221 E.08535
G1 X111.169 Y68.051 E.05597
G1 X138.831 Y68.051 E1.40951
G1 X140.459 Y68.445 E.08535
G1 X141.347 Y69.093 E.05597
G1 X160.907 Y88.653 E1.40951
G1 X161.779 Y90.083 E.08535
G1 X161.949 Y91.169 E.05597
G1 X161.949 Y118.831 E1.40951
G1 X161.827 Y119.336 E.02648
; printing object OV-PAM_standard_1F.stl id:0 copy 0
M73 P4 R28
M73 Q4 S28
G1 E-1 F2400
G1 X158.189 Y118.557 F4200
G1 X158.192 Y118.529
G1 X157.991 Y118.513
G1 E1 F1500
;TYPE:External perimeter
;WIDTH:0.874574
G1 F901.818
G1 X157.976 Y118.659 E.01119
G1 X157.875 Y118.783 E.01216
G1 X138.783 Y137.875 E2.05382
G1 X138.659 Y137.976 E.01216
G1 X138.5 Y137.992 E.01216
G1 X111.5 Y137.992 E2.05382
G1 X111.341 Y137.976 E.01216
G1 X111.217 Y137.875 E.01216
G1 X92.125 Y118.783 E2.05382
G1 X92.024 Y118.659 E.01216
G1 X92.008 Y118.5 E.01216
G1 X92.008 Y91.5 E2.05382
G1 X92.024 Y91.341 E.01216
G1 X92.125 Y91.217 E.01216
G1 X111.217 Y72.125 E2.05382
G1 X111.341 Y72.024 E.01216
G1 X111.5 Y72.008 E.01216
G1 X138.5 Y72.008 E2.05382
G1 X138.659 Y72.024 E.01216
G1 X138.783 Y72.125 E.01216
G1 X157.875 Y91.217 E2.05382
G1 X157.976 Y91.341 E.01216
G1 X157.992 Y91.5 E.01216
G1 X157.992 Y118.453 E2.05024
G1 X158.113 Y118.595 F4200
; stop printing object OV-PAM_standard_1F.stl id:0 copy 0
;LAYER_CHANGE
;Z:0.8
;HEIGHT:0.2
;BEFORE_LAYER_CHANGE
G92 E0.0
;0.8


G1 E-1 F2400
G1 Z.8 F720
;AFTER_LAYER_CHANGE
;0.8
; printing object OV-PAM_standard_1F.stl id:0 copy 0
G1 X157.992 Y118.492 F4200
G1 E1 F1500
G1 F901.818
G1 X157.976 Y118.659 E.01274
G1 X157.875 Y118.783 E.01216
G1 X138.783 Y137.875 E2.05382
G1 X138.659 Y137.976 E.01216
G1 X138.5 Y137.992 E.01216
G1 X111.5 Y137.992 E2.05382
G1 X111.341 Y137.976 E.01216
M73 P5 R28
M73 Q5 S28
G1 X111.217 Y137.875 E.01216
G1 X92.125 Y118.783 E2.05382
G1 X92.024 Y118.659 E.01216
G1 X92.008 Y118.5 E.01216
G1 X92.008 Y91.5 E2.05382
G1 X92.024 Y91.341 E.01216
G1 X92.125 Y91.217 E.01216
G1 X111.217 Y72.125 E2.05382
G1 X111.341 Y72.024 E.01216
G1 X111.5 Y72.008 E.01216
G1 X138.5 Y72.008 E2.05382
G1 X138.659 Y72.024 E.01216
G1 X138.783 Y72.125 E.01216
G1 X157.875 Y91.217 E2.05382
G1 X157.976 Y91.341 E.01216
G1 X157.992 Y91.5 E.01216
G1 X157.992 Y118.432 E2.04868
G1 X158.131 Y118.585 F4200
; stop printing object OV-PAM_standard_1F.stl id:0 copy 0
;LAYER_CHANGE
;Z:1
;HEIGHT:0.2
;BEFORE_LAYER_CHANGE
G92 E0.0
;1


G1 E-1 F2400
G1 Z1 F720
;AFTER_LAYER_CHANGE
;1
; printing object OV-PAM_standard_1F.stl id:0 copy 0
G1 X157.992 Y118.467 F4200
G1 E1 F1500
G1 F901.818
G1 X157.976 Y118.659 E.01464
G1 X157.875 Y118.783 E.01216
G1 X138.783 Y137.875 E2.05382
G1 X138.659 Y137.976 E.01216
G1 X138.5 Y137.992 E.01216
G1 X111.5 Y137.992 E2.05382
G1 X111.341 Y137.976 E.01216
G1 X111.217 Y137.875 E.01216
G1 X92.125 Y118.783 E2.05382
G1 X92.024 Y118.659 E.01216
M73 P6 R28
M73 Q6 S28
G1 X92.008 Y118.5 E.01216
G1 X92.008 Y91.5 E2.05382
G1 X92.024 Y91.341 E.01216
G1 X92.125 Y91.217 E.01216
G1 X111.217 Y72.125 E2.05382
G1 X111.341 Y72.024 E.01216
G1 X111.5 Y72.008 E.01216
G1 X138.5 Y72.008 E2.05382
G1 X138.659 Y72.024 E.01216
G1 X138.783 Y72.125 E.01216
G1 X157.875 Y91.217 E2.05382
G1 X157.976 Y91.341 E.01216
G1 X157.992 Y91.5 E.01216
G1 X157.992 Y118.407 E2.04677
G1 X158.153 Y118.573 F4200
; stop printing object OV-PAM_standard_1F.stl id:0 copy 0
;LAYER_CHANGE
;Z:1.2
;HEIGHT:0.2
;BEFORE_LAYER_CHANGE
G92 E0.0
;1.2


G1 E-1 F2400
G1 Z1.2 F720
;AFTER_LAYER_CHANGE
;1.2
; printing object OV-PAM_standard_1F.stl id:0 copy 0
G1 X157.974 Y118.432 F4200
G1 E1 F1500
;WIDTH:0.911047
G1 F863.93
G1 X157.958 Y118.652 E.0175
G1 X157.852 Y118.781 E.01325
G1 X138.781 Y137.852 E2.14159
G1 X138.652 Y137.958 E.01325
G1 X138.485 Y137.974 E.01325
G1 X111.515 Y137.974 E2.14159
G1 X111.348 Y137.958 E.01325
G1 X111.219 Y137.852 E.01325
G1 X92.148 Y118.781 E2.14159
G1 X92.042 Y118.652 E.01325
G1 X92.026 Y118.485 E.01325
G1 X92.026 Y91.515 E2.14159
G1 X92.042 Y91.348 E.01325
G1 X92.148 Y91.219 E.01325
G1 X111.219 Y72.148 E2.14159
G1 X111.348 Y72.042 E.01325
M73 P7 R27
M73 Q7 S27
G1 X111.515 Y72.026 E.01325
G1 X138.485 Y72.026 E2.14159
G1 X138.652 Y72.042 E.01325
G1 X138.781 Y72.148 E.01325
G1 X157.852 Y91.219 E2.14159
G1 X157.958 Y91.348 E.01325
G1 X157.974 Y91.515 E.01325
G1 X157.974 Y118.372 E2.13256
G1 X158.159 Y118.551 F4200
; stop printing object OV-PAM_standard_1F.stl id:0 copy 0
;LAYER_CHANGE
;Z:1.4
;HEIGHT:0.2
;BEFORE_LAYER_CHANGE
G92 E0.0
;1.4


G1 E-1 F2400
G1 Z1.4 F720
;AFTER_LAYER_CHANGE
;1.4
; printing object OV-PAM_standard_1F.stl id:0 copy 0
G1 X157.788 Y118.376 F4200
G1 E1 F1500
;WIDTH:0.763152
G1 F1041.331
G1 X157.774 Y118.575 E.01318
G1 X157.686 Y118.683 E.00912
G1 X138.683 Y137.686 E1.77044
G1 X138.575 Y137.774 E.00912
G1 X138.438 Y137.788 E.00912
G1 X111.562 Y137.788 E1.77044
G1 X111.425 Y137.774 E.00912
G1 X111.317 Y137.686 E.00912
G1 X92.314 Y118.683 E1.77044
G1 X92.226 Y118.575 E.00912
G1 X92.212 Y118.438 E.00912
G1 X92.212 Y91.562 E1.77044
G1 X92.226 Y91.425 E.00912
G1 X92.314 Y91.317 E.00912
G1 X111.317 Y72.314 E1.77044
G1 X111.425 Y72.226 E.00912
G1 X111.562 Y72.212 E.00912
G1 X138.438 Y72.212 E1.77044
G1 X138.575 Y72.226 E.00912
G1 X138.683 Y72.314 E.00912
G1 X157.686 Y91.317 E1.77044
G1 X157.774 Y91.425 E.00912
G1 X157.788 Y91.562 E.00912
G1 X157.788 Y118.316 E1.76242
G1 X157.956 Y118.484 F4200
; stop printing object OV-PAM_standard_1F.stl id:0 copy 0
;LAYER_CHANGE
;Z:1.6
;HEIGHT:0.2
;BEFORE_LAYER_CHANGE
G92 E0.0
;1.6


M73 P8 R27
M73 Q8 S27
G1 E-1 F2400
G1 Z1.6 F720
;AFTER_LAYER_CHANGE
;1.6
; printing object OV-PAM_standard_1F.stl id:0 copy 0
G1 X157.672 Y118.317 F4200
G1 E1 F1500
;WIDTH:0.763973
G1 F1040.146
G1 X157.66 Y118.526 E.0138
G1 X157.571 Y118.635 E.00927
G1 X138.53 Y137.658 E1.77513
G1 X138.39 Y137.672 E.00927
G1 X111.474 Y137.66 E1.77513
G1 X111.365 Y137.571 E.00927
G1 X92.342 Y118.53 E1.77513
G1 X92.328 Y118.39 E.00927
G1 X92.34 Y91.474 E1.77513
G1 X92.429 Y91.365 E.00927
G1 X111.47 Y72.342 E1.77513
G1 X111.61 Y72.328 E.00927
G1 X138.526 Y72.34 E1.77513
G1 X138.635 Y72.429 E.00927
G1 X157.658 Y91.47 E1.77513
G1 X157.672 Y91.61 E.00927
G1 X157.672 Y118.257 E1.75739
G1 X157.487 Y118.414 F4200
; stop printing object OV-PAM_standard_1F.stl id:0 copy 0
;LAYER_CHANGE
;Z:1.8
;HEIGHT:0.2
;BEFORE_LAYER_CHANGE
G92 E0.0
;1.8


G1 E-1 F2400
G1 Z1.8 F720
;AFTER_LAYER_CHANGE
;1.8
; printing object OV-PAM_standard_1F.stl id:0 copy 0
G1 X157.557 Y118.162 F4200
G1 E1 F1500
;WIDTH:0.777064
G1 F1021.598
G1 X157.56 Y118.453 E.01949
G1 X157.455 Y118.587 E.01145
G1 X138.511 Y137.536 E1.79923
G1 X138.342 Y137.557 E.01145
G1 X111.547 Y137.56 E1.79923
G1 X111.413 Y137.455 E.01145
G1 X92.464 Y118.511 E1.79923
G1 X92.443 Y118.342 E.01145
M73 P9 R27
M73 Q9 S27
G1 X92.44 Y91.547 E1.79923
G1 X92.545 Y91.413 E.01145
G1 X111.489 Y72.464 E1.79923
G1 X111.658 Y72.443 E.01145
G1 X138.453 Y72.44 E1.79923
G1 X138.587 Y72.545 E.01145
G1 X157.536 Y91.489 E1.79923
G1 X157.557 Y91.658 E.01145
G1 X157.557 Y118.102 E1.77571
G1 X157.307 Y118.31 F4200
; stop printing object OV-PAM_standard_1F.stl id:0 copy 0
;LAYER_CHANGE
;Z:2
;HEIGHT:0.2
;BEFORE_LAYER_CHANGE
G92 E0.0
;2


G1 E-1 F2400
G1 Z2 F720
;AFTER_LAYER_CHANGE
;2
; printing object OV-PAM_standard_1F.stl id:0 copy 0
G1 X157.445 Y118.188 F4200
G1 E1 F1500
;WIDTH:0.735742
G1 F1082.529
G1 X157.456 Y118.294 E.00675
;WIDTH:0.804516
G1 F984.775
G1 X157.47 Y118.36 E.00472
;WIDTH:0.804517
G1 X157.34 Y118.539 E.01539
;WIDTH:0.735741
G1 F1082.532
G1 X138.641 Y137.238 E1.67579
G1 X138.55 Y137.35 E.00914
;WIDTH:0.804516
G1 F984.774
G1 X138.512 Y137.407 E.00472
G1 X138.294 Y137.441 E.01539
;WIDTH:0.735742
G1 F1082.529
G1 X111.849 Y137.441 E1.67579
G1 X111.706 Y137.456 E.00914
;WIDTH:0.804516
G1 F984.775
G1 X111.64 Y137.47 E.00472
G1 X111.461 Y137.34 E.01539
;WIDTH:0.735741
G1 F1082.532
G1 X92.762 Y118.641 E1.67579
G1 X92.65 Y118.55 E.00914
;WIDTH:0.804516
G1 F984.774
G1 X92.593 Y118.512 E.00472
G1 X92.559 Y118.294 E.01539
;WIDTH:0.735742
G1 F1082.529
G1 X92.559 Y91.849 E1.67579
G1 X92.544 Y91.706 E.00914
;WIDTH:0.804516
G1 F984.775
G1 X92.53 Y91.64 E.00472
G1 X92.66 Y91.461 E.01539
;WIDTH:0.735741
G1 F1082.532
G1 X111.359 Y72.762 E1.67579
G1 X111.45 Y72.65 E.00914
;WIDTH:0.804516
G1 F984.774
G1 X111.488 Y72.593 E.00472
G1 X111.706 Y72.559 E.01539
;WIDTH:0.735742
G1 F1082.529
G1 X138.151 Y72.559 E1.67579
G1 X138.294 Y72.544 E.00914
;WIDTH:0.804516
G1 F984.775
G1 X138.36 Y72.53 E.00472
G1 X138.539 Y72.66 E.01539
;WIDTH:0.735741
G1 F1082.532
G1 X157.238 Y91.359 E1.67579
G1 X157.35 Y91.45 E.00914
;WIDTH:0.804516
M73 P10 R27
M73 Q10 S27
G1 F984.774
G1 X157.407 Y91.488 E.00472
G1 X157.441 Y91.706 E.01539
;WIDTH:0.735742
G1 F1082.529
G1 X157.441 Y118.128 E1.67437
; stop printing object OV-PAM_standard_1F.stl id:0 copy 0
;LAYER_CHANGE
;Z:2.2
;HEIGHT:0.2
;BEFORE_LAYER_CHANGE
G92 E0.0
;2.2


G1 E-1 F2400
G1 Z2.2 F720
;AFTER_LAYER_CHANGE
;2.2
; printing object OV-PAM_standard_1F.stl id:0 copy 0
G1 X157.326 Y117.982 F4200
G1 E1 F1500
;WIDTH:0.77259
G1 F1027.862
G1 X157.36 Y118.158 E.01191
;WIDTH:0.8382
G1 F943.064
G1 X157.381 Y118.256 E.00736
;WIDTH:0.846285
G1 F933.573
G1 X157.277 Y118.413 E.01382
;WIDTH:0.772589
G1 F1027.864
G1 X157.224 Y118.491 E.00628
G1 X138.68 Y137.036 E1.75032
G1 X138.578 Y137.186 E.01207
;WIDTH:0.838201
G1 F943.064
G1 X138.523 Y137.271 E.00736
G1 X138.339 Y137.307 E.01369
;WIDTH:0.77259
G1 F1027.862
G1 X138.246 Y137.326 E.00628
G1 X112.02 Y137.326 E1.75033
G1 X111.842 Y137.36 E.01207
;WIDTH:0.8382
G1 F943.064
G1 X111.744 Y137.381 E.00736
G1 X111.587 Y137.277 E.01369
;WIDTH:0.772589
G1 F1027.864
G1 X111.509 Y137.224 E.00628
G1 X92.964 Y118.68 E1.75032
G1 X92.814 Y118.578 E.01207
;WIDTH:0.838201
M73 P10 R26
M73 Q10 S26
G1 F943.064
G1 X92.729 Y118.523 E.00736
G1 X92.693 Y118.339 E.01369
;WIDTH:0.77259
G1 F1027.862
G1 X92.674 Y118.246 E.00628
G1 X92.674 Y92.02 E1.75033
G1 X92.64 Y91.842 E.01207
;WIDTH:0.8382
G1 F943.064
G1 X92.619 Y91.744 E.00736
G1 X92.723 Y91.587 E.01369
;WIDTH:0.772589
G1 F1027.864
G1 X92.776 Y91.509 E.00628
G1 X111.32 Y72.964 E1.75032
G1 X111.422 Y72.814 E.01207
;WIDTH:0.838201
G1 F943.064
G1 X111.477 Y72.729 E.00736
G1 X111.661 Y72.693 E.01369
;WIDTH:0.77259
G1 F1027.862
G1 X111.754 Y72.674 E.00628
G1 X137.98 Y72.674 E1.75033
