; generated by PrusaSlicer 2.5.2+win64 on 2023-10-26 at 05:57:18 UTC


;
;
; 

; external perimeters extrusion width = 0.50mm
; perimeters extrusion width = 0.50mm
; infill extrusion width = 0.50mm
; solid infill extrusion width = 0.50mm
; top infill extrusion width = 0.50mm
; first layer extrusion width = 0.50mm

M73 P0 R24
M73 Q0 S24
M201 X1000 Y1000 Z200 E5000 ; sets maximum accelerations, mm/sec^2
M203 X200 Y200 Z12 E120 ; sets maximum feedrates, mm / sec
M204 P1250 R1250 T1250 ; sets acceleration (P, T) and retract acceleration (R), mm/sec^2
M205 X8.00 Y8.00 Z0.40 E4.50 ; sets the jerk limits, mm/sec
M205 S0 T0 ; sets the minimum extruding and travel feed rate, mm/sec
M107
;TYPE:Custom
M862.3 P "MK3S" ; printer model check
M862.1 P0.4 ; nozzle diameter check
M115 U3.12.2 ; tell printer latest fw version
G90 ; use absolute coordinates
M83 ; extruder relative mode
M104 S240 ; set extruder temp
M140 S60 ; set bed temp
M190 S60 ; wait for bed temp
M109 S240 ; wait for extruder temp
G28 W ; home all without mesh bed level
G80 ; mesh bed leveling

G1 Z0.2 F720
G1 Y-3 F1000 ; go outside print area
G92 E0
G1 X60 E9 F1000 ; intro line
G1 X100 E12.5 F1000 ; intro line

G92 E0
M221 S95

; Don't change E values below. Excessive value can damage the printer.
M907 E430 ; set extruder motor current
G21 ; set units to millimeters
G90 ; use absolute coordinates
M83 ; use relative distances for extrusion
M900 K0 ; Filament gcode
M107
;LAYER_CHANGE
;Z:0.2
;HEIGHT:0.2
;BEFORE_LAYER_CHANGE
G92 E0.0
;0.2


G1 E-1 F2400
G1 Z.2 F720
;AFTER_LAYER_CHANGE
;0.2
G1 X89.164 Y88.724 F4200
G1 E1 F1500
M204 S300
;TYPE:Skirt/Brim
;WIDTH:0.5
G1 F1200
G1 X108.724 Y69.164 E1.1565
G1 X110.136 Y68.309 E.06902
G1 X111.169 Y68.151 E.04365
G1 X138.831 Y68.151 E1.1565
G1 X140.435 Y68.545 E.06902
G1 X141.276 Y69.164 E.04365
G1 X160.836 Y88.724 E1.1565
G1 X161.691 Y90.136 E.06902
G1 X161.849 Y91.169 E.04365
G1 X161.849 Y118.831 E1.1565
G1 X161.455 Y120.435 E.06902
G1 X160.836 Y121.276 E.04365
G1 X141.276 Y140.836 E1.1565
G1 X139.864 Y141.691 E.06902
M73 P1 R24
M73 Q1 S24
G1 X138.831 Y141.849 E.04365
G1 X111.169 Y141.849 E1.1565
G1 X109.565 Y141.455 E.06902
G1 X108.724 Y140.836 E.04365
G1 X89.164 Y121.276 E1.1565
G1 X88.309 Y119.864 E.06902
G1 X88.151 Y118.831 E.04365
G1 X88.151 Y91.169 E1.1565
G1 X88.545 Y89.565 E.06902
G1 X89.128 Y88.772 E.04114
; printing object OV-PAM_q_4.75mm_1F.stl id:0 copy 0
G1 E-1 F2400
G1 X157.939 Y91.211 F4200
G1 E1 F1500
;TYPE:External perimeter
;WIDTH:0.770616
G1 F1030.65
G1 X158.028 Y91.319 E.00931
G1 X158.042 Y91.459 E.00931
G1 X158.042 Y118.541 E1.80261
G1 X158.028 Y118.681 E.00931
G1 X157.939 Y118.789 E.00931
G1 X138.789 Y137.939 E1.80261
G1 X138.681 Y138.028 E.00931
G1 X138.541 Y138.042 E.00931
G1 X111.459 Y138.042 E1.80261
G1 X111.319 Y138.028 E.00931
M73 P1 R23
M73 Q1 S23
G1 X111.211 Y137.939 E.00931
G1 X92.061 Y118.789 E1.80261
G1 X91.972 Y118.681 E.00931
G1 X91.958 Y118.541 E.00931
G1 X91.958 Y91.459 E1.80261
G1 X91.972 Y91.319 E.00931
G1 X92.061 Y91.211 E.00931
G1 X111.211 Y72.061 E1.80261
G1 X111.319 Y71.972 E.00931
M73 P2 R23
M73 Q2 S23
G1 X111.459 Y71.958 E.00931
G1 X138.541 Y71.958 E1.80261
G1 X138.681 Y71.972 E.00931
G1 X138.789 Y72.061 E.00931
G1 X157.897 Y91.169 E1.79861
G1 X158.077 Y91.184 F4200
; stop printing object OV-PAM_q_4.75mm_1F.stl id:0 copy 0
;LAYER_CHANGE
;Z:0.4
;HEIGHT:0.2
;BEFORE_LAYER_CHANGE
G92 E0.0
;0.4


G1 E-1 F2400
G1 Z.4 F720
;AFTER_LAYER_CHANGE
;0.4
G1 X157.811 Y91.254 F4200
G1 X157.816 Y91.259
G1 X161.131 Y89.211
G1 E1 F1500
;TYPE:Skirt/Brim
;WIDTH:0.5
G1 F1200
G1 X161.691 Y90.136 E.04522
G1 X161.849 Y91.169 E.04365
G1 X161.849 Y118.831 E1.1565
G1 X161.455 Y120.435 E.06902
G1 X160.836 Y121.276 E.04365
G1 X141.276 Y140.836 E1.1565
G1 X139.864 Y141.691 E.06902
G1 X138.831 Y141.849 E.04365
G1 X111.169 Y141.849 E1.1565
G1 X109.565 Y141.455 E.06902
G1 X108.724 Y140.836 E.04365
G1 X89.164 Y121.276 E1.1565
G1 X88.309 Y119.864 E.06902
G1 X88.151 Y118.831 E.04365
G1 X88.151 Y91.169 E1.1565
G1 X88.545 Y89.565 E.06902
G1 X89.164 Y88.724 E.04365
G1 X108.724 Y69.164 E1.1565
G1 X110.136 Y68.309 E.06902
G1 X111.169 Y68.151 E.04365
G1 X138.831 Y68.151 E1.1565
G1 X140.435 Y68.545 E.06902
M73 P3 R23
M73 Q3 S23
G1 X141.276 Y69.164 E.04365
G1 X160.836 Y88.724 E1.1565
G1 X161.1 Y89.16 E.02129
; printing object OV-PAM_q_4.75mm_1F.stl id:0 copy 0
G1 E-1 F2400
G1 X158.092 Y91.134 F4200
G1 X158.065 Y91.102
G1 X157.938 Y91.209
G1 E1 F1500
;TYPE:External perimeter
;WIDTH:0.770616
G1 F1030.65
G1 X158.028 Y91.319 E.00947
G1 X158.042 Y91.459 E.00931
G1 X158.042 Y118.541 E1.80261
G1 X158.028 Y118.681 E.00931
G1 X157.939 Y118.789 E.00931
G1 X138.789 Y137.939 E1.80261
G1 X138.681 Y138.028 E.00931
G1 X138.541 Y138.042 E.00931
G1 X111.459 Y138.042 E1.80261
G1 X111.319 Y138.028 E.00931
G1 X111.211 Y137.939 E.00931
G1 X92.061 Y118.789 E1.80261
G1 X91.972 Y118.681 E.00931
G1 X91.958 Y118.541 E.00931
G1 X91.958 Y91.459 E1.80261
G1 X91.972 Y91.319 E.00931
G1 X92.061 Y91.211 E.00931
G1 X111.211 Y72.061 E1.80261
G1 X111.319 Y71.972 E.00931
G1 X111.459 Y71.958 E.00931
G1 X138.541 Y71.958 E1.80261
G1 X138.681 Y71.972 E.00931
G1 X138.789 Y72.061 E.00931
G1 X157.895 Y91.167 E1.79846
G1 X158.077 Y91.182 F4200
; stop printing object OV-PAM_q_4.75mm_1F.stl id:0 copy 0
;LAYER_CHANGE
;Z:0.6
;HEIGHT:0.2
;BEFORE_LAYER_CHANGE
G92 E0.0
;0.6


M73 P4 R23
M73 Q4 S23
G1 E-1 F2400
G1 Z.6 F720
;AFTER_LAYER_CHANGE
;0.6
G1 X157.809 Y91.253 F4200
G1 X157.814 Y91.258
G1 X161.13 Y89.209
G1 E1 F1500
;TYPE:Skirt/Brim
;WIDTH:0.5
G1 F1200
G1 X161.691 Y90.136 E.04532
G1 X161.849 Y91.169 E.04365
G1 X161.849 Y118.831 E1.1565
G1 X161.455 Y120.435 E.06902
G1 X160.836 Y121.276 E.04365
G1 X141.276 Y140.836 E1.1565
G1 X139.864 Y141.691 E.06902
G1 X138.831 Y141.849 E.04365
G1 X111.169 Y141.849 E1.1565
G1 X109.565 Y141.455 E.06902
G1 X108.724 Y140.836 E.04365
G1 X89.164 Y121.276 E1.1565
G1 X88.309 Y119.864 E.06902
G1 X88.151 Y118.831 E.04365
G1 X88.151 Y91.169 E1.1565
G1 X88.545 Y89.565 E.06902
G1 X89.164 Y88.724 E.04365
G1 X108.724 Y69.164 E1.1565
G1 X110.136 Y68.309 E.06902
G1 X111.169 Y68.151 E.04365
G1 X138.831 Y68.151 E1.1565
G1 X140.435 Y68.545 E.06902
G1 X141.276 Y69.164 E.04365
G1 X160.836 Y88.724 E1.1565
G1 X161.099 Y89.158 E.02119
; printing object OV-PAM_q_4.75mm_1F.stl id:0 copy 0
G1 E-1 F2400
G1 X158.088 Y91.13 F4200
G1 X158.061 Y91.098
G1 X157.934 Y91.205
G1 E1 F1500
;TYPE:External perimeter
;WIDTH:0.770616
G1 F1030.65
G1 X158.028 Y91.319 E.00985
G1 X158.042 Y91.459 E.00931
G1 X158.042 Y118.541 E1.80261
G1 X158.028 Y118.681 E.00931
M73 P5 R23
M73 Q5 S23
G1 X157.939 Y118.789 E.00931
G1 X138.789 Y137.939 E1.80261
G1 X138.681 Y138.028 E.00931
G1 X138.541 Y138.042 E.00931
G1 X111.459 Y138.042 E1.80261
G1 X111.319 Y138.028 E.00931
G1 X111.211 Y137.939 E.00931
G1 X92.061 Y118.789 E1.80261
G1 X91.972 Y118.681 E.00931
G1 X91.958 Y118.541 E.00931
G1 X91.958 Y91.459 E1.80261
G1 X91.972 Y91.319 E.00931
G1 X92.061 Y91.211 E.00931
G1 X111.211 Y72.061 E1.80261
G1 X111.319 Y71.972 E.00931
G1 X111.459 Y71.958 E.00931
G1 X138.541 Y71.958 E1.80261
G1 X138.681 Y71.972 E.00931
G1 X138.789 Y72.061 E.00931
G1 X157.891 Y91.163 E1.79807
G1 X158.079 Y91.176 F4200
; stop printing object OV-PAM_q_4.75mm_1F.stl id:0 copy 0
;LAYER_CHANGE
;Z:0.8
;HEIGHT:0.2
;BEFORE_LAYER_CHANGE
G92 E0.0
;0.8


G1 E-1 F2400
G1 Z.8 F720
;AFTER_LAYER_CHANGE
;0.8
; printing object OV-PAM_q_4.75mm_1F.stl id:0 copy 0
G1 X157.929 Y91.201 F4200
G1 E1 F1500
G1 F1030.65
G1 X158.028 Y91.319 E.01029
G1 X158.042 Y91.459 E.00931
G1 X158.042 Y118.541 E1.80261
G1 X158.028 Y118.681 E.00931
M73 P5 R22
M73 Q5 S22
G1 X157.939 Y118.789 E.00931
G1 X138.789 Y137.939 E1.80261
G1 X138.681 Y138.028 E.00931
M73 P6 R22
M73 Q6 S22
G1 X138.541 Y138.042 E.00931
G1 X111.459 Y138.042 E1.80261
G1 X111.319 Y138.028 E.00931
G1 X111.211 Y137.939 E.00931
G1 X92.061 Y118.789 E1.80261
G1 X91.972 Y118.681 E.00931
G1 X91.958 Y118.541 E.00931
G1 X91.958 Y91.459 E1.80261
G1 X91.972 Y91.319 E.00931
G1 X92.061 Y91.211 E.00931
G1 X111.211 Y72.061 E1.80261
G1 X111.319 Y71.972 E.00931
G1 X111.459 Y71.958 E.00931
G1 X138.541 Y71.958 E1.80261
G1 X138.681 Y71.972 E.00931
G1 X138.789 Y72.061 E.00931
G1 X157.886 Y91.158 E1.79763
G1 X158.08 Y91.17 F4200
; stop printing object OV-PAM_q_4.75mm_1F.stl id:0 copy 0
;LAYER_CHANGE
;Z:1
;HEIGHT:0.2
;BEFORE_LAYER_CHANGE
G92 E0.0
;1


G1 E-1 F2400
G1 Z1 F720
;AFTER_LAYER_CHANGE
;1
; printing object OV-PAM_q_4.75mm_1F.stl id:0 copy 0
G1 X157.924 Y91.195 F4200
G1 E1 F1500
G1 F1030.65
G1 X158.028 Y91.319 E.0108
G1 X158.042 Y91.459 E.00931
G1 X158.042 Y118.541 E1.80261
G1 X158.028 Y118.681 E.00931
G1 X157.939 Y118.789 E.00931
G1 X138.789 Y137.939 E1.80261
G1 X138.681 Y138.028 E.00931
G1 X138.541 Y138.042 E.00931
G1 X111.459 Y138.042 E1.80261
G1 X111.319 Y138.028 E.00931
M73 P7 R22
M73 Q7 S22
G1 X111.211 Y137.939 E.00931
G1 X92.061 Y118.789 E1.80261
G1 X91.972 Y118.681 E.00931
G1 X91.958 Y118.541 E.00931
G1 X91.958 Y91.459 E1.80261
G1 X91.972 Y91.319 E.00931
G1 X92.061 Y91.211 E.00931
G1 X111.211 Y72.061 E1.80261
G1 X111.319 Y71.972 E.00931
G1 X111.459 Y71.958 E.00931
G1 X138.541 Y71.958 E1.80261
G1 X138.681 Y71.972 E.00931
G1 X138.789 Y72.061 E.00931
G1 X157.881 Y91.153 E1.79712
G1 X158.082 Y91.162 F4200
; stop printing object OV-PAM_q_4.75mm_1F.stl id:0 copy 0
;LAYER_CHANGE
;Z:1.2
;HEIGHT:0.2
;BEFORE_LAYER_CHANGE
G92 E0.0
;1.2


G1 E-1 F2400
G1 Z1.2 F720
;AFTER_LAYER_CHANGE
;1.2
; printing object OV-PAM_q_4.75mm_1F.stl id:0 copy 0
G1 X157.907 Y91.193 F4200
G1 E1 F1500
;WIDTH:0.791009
G1 F1002.555
G1 X158.018 Y91.324 E.0117
G1 X158.032 Y91.467 E.00984
G1 X158.032 Y118.533 E1.85201
G1 X158.018 Y118.676 E.00984
G1 X157.927 Y118.788 E.00984
G1 X138.788 Y137.927 E1.85201
G1 X138.676 Y138.018 E.00984
G1 X138.533 Y138.032 E.00984
G1 X111.467 Y138.032 E1.85201
G1 X111.324 Y138.018 E.00984
G1 X111.212 Y137.927 E.00984
G1 X92.073 Y118.788 E1.85201
G1 X91.982 Y118.676 E.00984
M73 P8 R22
M73 Q8 S22
G1 X91.968 Y118.533 E.00984
G1 X91.968 Y91.467 E1.85201
G1 X91.982 Y91.324 E.00984
G1 X92.073 Y91.212 E.00984
G1 X111.212 Y72.073 E1.85201
G1 X111.324 Y71.982 E.00984
G1 X111.467 Y71.968 E.00984
G1 X138.533 Y71.968 E1.85201
G1 X138.676 Y71.982 E.00984
G1 X138.788 Y72.073 E.00984
G1 X157.865 Y91.151 E1.84604
G1 X158.075 Y91.158 F4200
; stop printing object OV-PAM_q_4.75mm_1F.stl id:0 copy 0
;LAYER_CHANGE
;Z:1.4
;HEIGHT:0.2
;BEFORE_LAYER_CHANGE
G92 E0.0
;1.4


G1 E-1 F2400
G1 Z1.4 F720
;AFTER_LAYER_CHANGE
;1.4
; printing object OV-PAM_q_4.75mm_1F.stl id:0 copy 0
G1 X157.75 Y91.3 F4200
G1 E1 F1500
;WIDTH:0.643115
G1 F1200
G1 X157.834 Y91.4 E.00716
G1 X157.845 Y91.515 E.00634
G1 X157.834 Y118.6 E1.48693
G1 X138.6 Y137.834 E1.49323
G1 X111.4 Y137.834 E1.49323
G1 X92.166 Y118.6 E1.49323
G1 X92.166 Y91.4 E1.49323
G1 X111.4 Y72.166 E1.49323
G1 X138.6 Y72.166 E1.49323
M73 P9 R22
M73 Q9 S22
G1 X157.708 Y91.257 E1.48281
G1 X157.873 Y91.257 F4200
; stop printing object OV-PAM_q_4.75mm_1F.stl id:0 copy 0
;LAYER_CHANGE
;Z:1.6
;HEIGHT:0.2
;BEFORE_LAYER_CHANGE
G92 E0.0
;1.6


G1 E-1 F2400
G1 Z1.6 F720
;AFTER_LAYER_CHANGE
;1.6
; printing object OV-PAM_q_4.75mm_1F.stl id:0 copy 0
G1 X157.642 Y91.355 F4200
G1 E1 F1500
G1 F1200
G1 X157.719 Y91.448 E.00657
G1 X157.73 Y91.562 E.00634
G1 X157.719 Y118.552 E1.48168
G1 X138.552 Y137.719 E1.48798
G1 X111.448 Y137.719 E1.48798
G1 X92.281 Y118.552 E1.48798
G1 X92.281 Y91.448 E1.48798
G1 X111.448 Y72.281 E1.48798
G1 X138.552 Y72.281 E1.48798
G1 X157.6 Y91.313 E1.47815
G1 X157.756 Y91.316 F4200
; stop printing object OV-PAM_q_4.75mm_1F.stl id:0 copy 0
;LAYER_CHANGE
;Z:1.8
;HEIGHT:0.2
;BEFORE_LAYER_CHANGE
G92 E0.0
;1.8


M73 P10 R21
M73 Q10 S21
G1 E-1 F2400
G1 Z1.8 F720
;AFTER_LAYER_CHANGE
;1.8
; printing object OV-PAM_q_4.75mm_1F.stl id:0 copy 0
G1 X157.533 Y91.41 F4200
G1 E1 F1500
;WIDTH:0.643115
G1 F1200
G1 X157.603 Y91.495 E.00605
G1 X157.615 Y91.61 E.00634
G1 X157.603 Y118.505 E1.47643
G1 X138.505 Y137.603 E1.48273
G1 X111.495 Y137.603 E1.48273
G1 X92.397 Y118.505 E1.48273
G1 X92.397 Y91.495 E1.48273
G1 X111.495 Y72.397 E1.48273
G1 X138.505 Y72.397 E1.48273
G1 X157.491 Y91.367 E1.47342
G1 X157.638 Y91.375 F4200
; stop printing object OV-PAM_q_4.75mm_1F.stl id:0 copy 0
;LAYER_CHANGE
;Z:2
;HEIGHT:0.2
;BEFORE_LAYER_CHANGE
G92 E0.0
;2


G1 E-1 F2400
G1 Z2 F720
;AFTER_LAYER_CHANGE
;2
; printing object OV-PAM_q_4.75mm_1F.stl id:0 copy 0
G1 X157.422 Y91.463 F4200
G1 E1 F1500
;WIDTH:0.643114
G1 F1200
G1 X157.488 Y91.543 E.00569
G1 X157.499 Y91.658 E.00634
G1 X157.488 Y118.457 E1.47117
G1 X138.457 Y137.488 E1.47748
G1 X111.543 Y137.488 E1.47748
G1 X92.512 Y118.457 E1.47748
M73 P11 R21
M73 Q11 S21
G1 X92.512 Y91.543 E1.47748
G1 X111.543 Y72.512 E1.47748
G1 X138.457 Y72.512 E1.47748
G1 X157.38 Y91.42 E1.46853
G1 X157.402 Y91.565 F4200
; stop printing object OV-PAM_q_4.75mm_1F.stl id:0 copy 0
;LAYER_CHANGE
;Z:2.2
;HEIGHT:0.2
;BEFORE_LAYER_CHANGE
G92 E0.0
;2.2


G1 E-1 F2400
G1 Z2.2 F720
;AFTER_LAYER_CHANGE
;2.2
; printing object OV-PAM_q_4.75mm_1F.stl id:0 copy 0
G1 X157.31 Y91.515 F4200
G1 E1 F1500
;WIDTH:0.643342
G1 F1200
G1 X157.372 Y91.59 E.00536
G1 X157.384 Y91.706 E.00637
G1 X157.372 Y118.409 E1.46645
G1 X138.41 Y137.372 E1.47279
G1 X111.591 Y137.372 E1.47279
G1 X92.628 Y118.41 E1.47279
G1 X92.628 Y91.591 E1.47279
G1 X111.59 Y72.628 E1.47279
M73 P12 R21
M73 Q12 S21
G1 X138.409 Y72.628 E1.47279
G1 X157.269 Y91.472 E1.46416
G1 X157.291 Y91.611 F4200
; stop printing object OV-PAM_q_4.75mm_1F.stl id:0 copy 0
;LAYER_CHANGE
;Z:2.4
;HEIGHT:0.2
;BEFORE_LAYER_CHANGE
G92 E0.0
;2.4


G1 E-1 F2400
G1 Z2.4 F720
;AFTER_LAYER_CHANGE
;2.4
; printing object OV-PAM_q_4.75mm_1F.stl id:0 copy 0
G1 X157.198 Y91.566 F4200
G1 E1 F1500
;WIDTH:0.644855
G1 F1200
G1 X157.256 Y91.635 E.00495
G1 X157.268 Y91.754 E.00659
G1 X157.259 Y118.358 E1.4647
G1 X138.365 Y137.256 E1.47126
G1 X111.642 Y137.259 E1.47126
G1 X92.744 Y118.365 E1.47126
G1 X92.741 Y91.642 E1.47126
G1 X111.635 Y72.744 E1.47126
G1 X138.358 Y72.741 E1.47126
G1 X157.156 Y91.522 E1.46303
G1 X157.181 Y91.654 F4200
; stop printing object OV-PAM_q_4.75mm_1F.stl id:0 copy 0
;LAYER_CHANGE
;Z:2.6
;HEIGHT:0.2
;BEFORE_LAYER_CHANGE
G92 E0.0
;2.6


M73 P13 R21
M73 Q13 S21
G1 E-1 F2400
G1 Z2.6 F720
;AFTER_LAYER_CHANGE
;2.6
; printing object OV-PAM_q_4.75mm_1F.stl id:0 copy 0
G1 X157.085 Y91.615 F4200
G1 E1 F1500
;WIDTH:0.647594
G1 F1200
G1 X157.139 Y91.676 E.00449
G1 X157.153 Y91.802 E.00699
G1 X157.147 Y118.304 E1.46577
G1 X157.068 Y118.403 E.00699
G1 X138.324 Y137.139 E1.46577
G1 X138.198 Y137.153 E.00699
G1 X111.696 Y137.147 E1.46577
G1 X111.597 Y137.068 E.00699
G1 X92.861 Y118.324 E1.46577
G1 X92.847 Y118.198 E.00699
G1 X92.853 Y91.696 E1.46577
G1 X92.932 Y91.597 E.00699
G1 X111.676 Y72.861 E1.46577
G1 X111.802 Y72.847 E.00699
G1 X138.304 Y72.853 E1.46577
G1 X138.403 Y72.932 E.00699
G1 X157.043 Y91.572 E1.45797
G1 X157.061 Y91.693 F4200
; stop printing object OV-PAM_q_4.75mm_1F.stl id:0 copy 0
;LAYER_CHANGE
;Z:2.8
;HEIGHT:0.2
;BEFORE_LAYER_CHANGE
G92 E0.0
;2.8


G1 E-1 F2400
G1 Z2.8 F720
;AFTER_LAYER_CHANGE
;2.8
; printing object OV-PAM_q_4.75mm_1F.stl id:0 copy 0
G1 X156.971 Y91.663 F4200
G1 E1 F1500
;WIDTH:0.651465
G1 F1200
G1 X157.022 Y91.715 E.00405
G1 X157.037 Y91.849 E.00752
G1 X157.036 Y118.249 E1.46942
G1 X156.953 Y118.355 E.00752
G1 X138.285 Y137.022 E1.46942
G1 X138.151 Y137.037 E.00752
G1 X111.751 Y137.036 E1.46942
G1 X111.645 Y136.953 E.00752
M73 P14 R20
M73 Q14 S20
G1 X92.978 Y118.285 E1.46942
G1 X92.963 Y118.151 E.00752
G1 X92.964 Y91.751 E1.46942
G1 X93.047 Y91.645 E.00752
G1 X111.715 Y72.978 E1.46942
G1 X111.849 Y72.963 E.00752
G1 X138.249 Y72.964 E1.46942
G1 X138.355 Y73.047 E.00752
G1 X156.928 Y91.621 E1.46203
G1 X156.951 Y91.733 F4200
; stop printing object OV-PAM_q_4.75mm_1F.stl id:0 copy 0
;LAYER_CHANGE
;Z:3
;HEIGHT:0.2
;BEFORE_LAYER_CHANGE
G92 E0.0
;3


G1 E-1 F2400
G1 Z3 F720
;AFTER_LAYER_CHANGE
;3
; printing object OV-PAM_q_4.75mm_1F.stl id:0 copy 0
G1 X156.846 Y91.7 F4200
G1 E1 F1500
;WIDTH:0.656443
G1 F1200
G1 X156.904 Y91.753 E.0044
G1 X156.922 Y91.897 E.00817
G1 X156.927 Y118.192 E1.47556
G1 X156.837 Y118.307 E.00817
