; generated by PrusaSlicer 2.5.2+win64 on 2023-10-26 at 05:57:34 UTC


;
;
; 

; external perimeters extrusion width = 0.50mm
; perimeters extrusion width = 0.50mm
; infill extrusion width = 0.50mm
; solid infill extrusion width = 0.50mm
; top infill extrusion width = 0.50mm
; first layer extrusion width = 0.50mm

M73 P0 R25
M73 Q0 S25
M201 X1000 Y1000 Z200 E5000 ; sets maximum accelerations, mm/sec^2
M203 X200 Y200 Z12 E120 ; sets maximum feedrates, mm / sec
M204 P1250 R1250 T1250 ; sets acceleration (P, T) and retract acceleration (R), mm/sec^2
M205 X8.00 Y8.00 Z0.40 E4.50 ; sets the jerk limits, mm/sec
M205 S0 T0 ; sets the minimum extruding and travel feed rate, mm/sec
M107
;TYPE:Custom
M862.3 P "MK3S" ; printer model check
M862.1 P0.4 ; nozzle diameter check
M115 U3.12.2 ; tell printer latest fw version
G90 ; use absolute coordinates
M83 ; extruder relative mode
M104 S240 ; set extruder temp
M140 S60 ; set bed temp
M190 S60 ; wait for bed temp
M109 S240 ; wait for extruder temp
G28 W ; home all without mesh bed level
G80 ; mesh bed leveling

G1 Z0.2 F720
G1 Y-3 F1000 ; go outside print area
G92 E0
G1 X60 E9 F1000 ; intro line
G1 X100 E12.5 F1000 ; intro line

G92 E0
M221 S95

; Don't change E values below. Excessive value can damage the printer.
M907 E430 ; set extruder motor current
G21 ; set units to millimeters
G90 ; use absolute coordinates
M83 ; use relative distances for extrusion
M900 K0 ; Filament gcode
M107
;LAYER_CHANGE
;Z:0.2
;HEIGHT:0.2
;BEFORE_LAYER_CHANGE
G92 E0.0
;0.2


G1 E-1 F2400
G1 Z.2 F720
;AFTER_LAYER_CHANGE
;0.2
G1 X89.164 Y88.724 F4200
G1 E1 F1500
M204 S300
;TYPE:Skirt/Brim
;WIDTH:0.5
G1 F1200
G1 X108.724 Y69.164 E1.1565
G1 X110.136 Y68.309 E.06902
G1 X111.169 Y68.151 E.04365
G1 X138.831 Y68.151 E1.1565
G1 X140.435 Y68.545 E.06902
G1 X141.276 Y69.164 E.04365
G1 X160.836 Y88.724 E1.1565
G1 X161.691 Y90.136 E.06902
M73 P0 R24
M73 Q0 S24
G1 X161.849 Y91.169 E.04365
G1 X161.849 Y118.831 E1.1565
G1 X161.455 Y120.435 E.06902
G1 X160.836 Y121.276 E.04365
G1 X141.276 Y140.836 E1.1565
G1 X139.864 Y141.691 E.06902
M73 P1 R24
M73 Q1 S24
G1 X138.831 Y141.849 E.04365
G1 X111.169 Y141.849 E1.1565
G1 X109.565 Y141.455 E.06902
G1 X108.724 Y140.836 E.04365
G1 X89.164 Y121.276 E1.1565
G1 X88.309 Y119.864 E.06902
G1 X88.151 Y118.831 E.04365
G1 X88.151 Y91.169 E1.1565
G1 X88.545 Y89.565 E.06902
G1 X89.128 Y88.772 E.04114
; printing object OV-PAM_q_6.5mm_1F.stl id:0 copy 0
G1 E-1 F2400
G1 X157.971 Y91.25 F4200
G1 E1 F1500
;TYPE:External perimeter
;WIDTH:0.770616
G1 F1030.65
G1 X158.028 Y91.319 E.00595
G1 X158.042 Y91.459 E.00931
G1 X158.042 Y118.541 E1.80261
G1 X158.028 Y118.681 E.00931
G1 X157.939 Y118.789 E.00931
G1 X138.789 Y137.939 E1.80261
G1 X138.681 Y138.028 E.00931
G1 X138.541 Y138.042 E.00931
G1 X111.459 Y138.042 E1.80261
G1 X111.319 Y138.028 E.00931
G1 X111.211 Y137.939 E.00931
G1 X92.061 Y118.789 E1.80261
G1 X91.972 Y118.681 E.00931
G1 X91.958 Y118.541 E.00931
G1 X91.958 Y91.459 E1.80261
G1 X91.972 Y91.319 E.00931
G1 X92.061 Y91.211 E.00931
G1 X111.211 Y72.061 E1.80261
G1 X111.319 Y71.972 E.00931
M73 P2 R24
M73 Q2 S24
G1 X111.459 Y71.958 E.00931
G1 X138.541 Y71.958 E1.80261
G1 X138.681 Y71.972 E.00931
G1 X138.789 Y72.061 E.00931
G1 X157.933 Y91.204 E1.80198
G1 X158.059 Y91.233 F4200
; stop printing object OV-PAM_q_6.5mm_1F.stl id:0 copy 0
;LAYER_CHANGE
;Z:0.4
;HEIGHT:0.2
;BEFORE_LAYER_CHANGE
G92 E0.0
;0.4


G1 E-1 F2400
G1 Z.4 F720
;AFTER_LAYER_CHANGE
;0.4
G1 X161.157 Y89.253 F4200
G1 E1 F1500
;TYPE:Skirt/Brim
;WIDTH:0.5
G1 F1200
G1 X161.691 Y90.136 E.04317
G1 X161.849 Y91.169 E.04365
G1 X161.849 Y118.831 E1.1565
G1 X161.455 Y120.435 E.06902
G1 X160.836 Y121.276 E.04365
G1 X141.276 Y140.836 E1.1565
G1 X139.864 Y141.691 E.06902
G1 X138.831 Y141.849 E.04365
G1 X111.169 Y141.849 E1.1565
G1 X109.565 Y141.455 E.06902
G1 X108.724 Y140.836 E.04365
G1 X89.164 Y121.276 E1.1565
G1 X88.309 Y119.864 E.06902
G1 X88.151 Y118.831 E.04365
G1 X88.151 Y91.169 E1.1565
G1 X88.545 Y89.565 E.06902
G1 X89.164 Y88.724 E.04365
G1 X108.724 Y69.164 E1.1565
G1 X110.136 Y68.309 E.06902
G1 X111.169 Y68.151 E.04365
G1 X138.831 Y68.151 E1.1565
G1 X140.435 Y68.545 E.06902
G1 X141.276 Y69.164 E.04365
G1 X160.836 Y88.724 E1.1565
G1 X161.125 Y89.202 E.02334
; printing object OV-PAM_q_6.5mm_1F.stl id:0 copy 0
M73 P3 R24
M73 Q3 S24
G1 E-1 F2400
G1 X158.116 Y91.162 F4200
G1 X158.091 Y91.133
G1 X157.963 Y91.24
G1 E1 F1500
;TYPE:External perimeter
;WIDTH:0.770616
G1 F1030.65
G1 X158.028 Y91.319 E.00679
G1 X158.042 Y91.459 E.00931
G1 X158.042 Y118.541 E1.80261
G1 X158.028 Y118.681 E.00931
G1 X157.939 Y118.789 E.00931
G1 X138.789 Y137.939 E1.80261
G1 X138.681 Y138.028 E.00931
G1 X138.541 Y138.042 E.00931
G1 X111.459 Y138.042 E1.80261
G1 X111.319 Y138.028 E.00931
G1 X111.211 Y137.939 E.00931
G1 X92.061 Y118.789 E1.80261
G1 X91.972 Y118.681 E.00931
G1 X91.958 Y118.541 E.00931
G1 X91.958 Y91.459 E1.80261
G1 X91.972 Y91.319 E.00931
G1 X92.061 Y91.211 E.00931
G1 X111.211 Y72.061 E1.80261
G1 X111.319 Y71.972 E.00931
G1 X111.459 Y71.958 E.00931
G1 X138.541 Y71.958 E1.80261
G1 X138.681 Y71.972 E.00931
G1 X138.789 Y72.061 E.00931
G1 X157.924 Y91.195 E1.80114
G1 X158.063 Y91.221 F4200
; stop printing object OV-PAM_q_6.5mm_1F.stl id:0 copy 0
;LAYER_CHANGE
;Z:0.6
;HEIGHT:0.2
;BEFORE_LAYER_CHANGE
G92 E0.0
;0.6


G1 E-1 F2400
G1 Z.6 F720
;AFTER_LAYER_CHANGE
;0.6
G1 X161.15 Y89.243 F4200
G1 E1 F1500
;TYPE:Skirt/Brim
;WIDTH:0.5
G1 F1200
G1 X161.691 Y90.136 E.04368
G1 X161.849 Y91.169 E.04365
G1 X161.849 Y118.831 E1.1565
G1 X161.455 Y120.435 E.06902
M73 P4 R24
M73 Q4 S24
G1 X160.836 Y121.276 E.04365
G1 X141.276 Y140.836 E1.1565
G1 X139.864 Y141.691 E.06902
G1 X138.831 Y141.849 E.04365
G1 X111.169 Y141.849 E1.1565
G1 X109.565 Y141.455 E.06902
G1 X108.724 Y140.836 E.04365
G1 X89.164 Y121.276 E1.1565
G1 X88.309 Y119.864 E.06902
G1 X88.151 Y118.831 E.04365
G1 X88.151 Y91.169 E1.1565
G1 X88.545 Y89.565 E.06902
G1 X89.164 Y88.724 E.04365
G1 X108.724 Y69.164 E1.1565
G1 X110.136 Y68.309 E.06902
G1 X111.169 Y68.151 E.04365
G1 X138.831 Y68.151 E1.1565
G1 X140.435 Y68.545 E.06902
G1 X141.276 Y69.164 E.04365
G1 X160.836 Y88.724 E1.1565
G1 X161.119 Y89.191 E.02283
; printing object OV-PAM_q_6.5mm_1F.stl id:0 copy 0
M73 P4 R23
M73 Q4 S23
G1 E-1 F2400
G1 X158.107 Y91.152 F4200
G1 X158.082 Y91.122
G1 X157.955 Y91.23
G1 E1 F1500
;TYPE:External perimeter
;WIDTH:0.770616
G1 F1030.65
G1 X158.028 Y91.319 E.00772
G1 X158.042 Y91.459 E.00931
G1 X158.042 Y118.541 E1.80261
G1 X158.028 Y118.681 E.00931
G1 X157.939 Y118.789 E.00931
G1 X138.789 Y137.939 E1.80261
G1 X138.681 Y138.028 E.00931
M73 P5 R23
M73 Q5 S23
G1 X138.541 Y138.042 E.00931
G1 X111.459 Y138.042 E1.80261
G1 X111.319 Y138.028 E.00931
G1 X111.211 Y137.939 E.00931
G1 X92.061 Y118.789 E1.80261
G1 X91.972 Y118.681 E.00931
G1 X91.958 Y118.541 E.00931
G1 X91.958 Y91.459 E1.80261
G1 X91.972 Y91.319 E.00931
G1 X92.061 Y91.211 E.00931
G1 X111.211 Y72.061 E1.80261
G1 X111.319 Y71.972 E.00931
G1 X111.459 Y71.958 E.00931
G1 X138.541 Y71.958 E1.80261
G1 X138.681 Y71.972 E.00931
G1 X138.789 Y72.061 E.00931
G1 X157.914 Y91.186 E1.8002
G1 X158.068 Y91.207 F4200
; stop printing object OV-PAM_q_6.5mm_1F.stl id:0 copy 0
;LAYER_CHANGE
;Z:0.8
;HEIGHT:0.2
;BEFORE_LAYER_CHANGE
G92 E0.0
;0.8


G1 E-1 F2400
G1 Z.8 F720
;AFTER_LAYER_CHANGE
;0.8
; printing object OV-PAM_q_6.5mm_1F.stl id:0 copy 0
G1 X157.945 Y91.218 F4200
G1 E1 F1500
G1 F1030.65
G1 X158.028 Y91.319 E.00875
G1 X158.042 Y91.459 E.00931
G1 X158.042 Y118.541 E1.80261
G1 X158.028 Y118.681 E.00931
G1 X157.939 Y118.789 E.00931
G1 X138.789 Y137.939 E1.80261
G1 X138.681 Y138.028 E.00931
G1 X138.541 Y138.042 E.00931
G1 X111.459 Y138.042 E1.80261
G1 X111.319 Y138.028 E.00931
G1 X111.211 Y137.939 E.00931
G1 X92.061 Y118.789 E1.80261
G1 X91.972 Y118.681 E.00931
M73 P6 R23
M73 Q6 S23
G1 X91.958 Y118.541 E.00931
G1 X91.958 Y91.459 E1.80261
G1 X91.972 Y91.319 E.00931
G1 X92.061 Y91.211 E.00931
G1 X111.211 Y72.061 E1.80261
G1 X111.319 Y71.972 E.00931
G1 X111.459 Y71.958 E.00931
G1 X138.541 Y71.958 E1.80261
G1 X138.681 Y71.972 E.00931
G1 X138.789 Y72.061 E.00931
G1 X157.903 Y91.175 E1.79918
G1 X158.074 Y91.192 F4200
; stop printing object OV-PAM_q_6.5mm_1F.stl id:0 copy 0
;LAYER_CHANGE
;Z:1
;HEIGHT:0.2
;BEFORE_LAYER_CHANGE
G92 E0.0
;1


G1 E-1 F2400
G1 Z1 F720
;AFTER_LAYER_CHANGE
;1
; printing object OV-PAM_q_6.5mm_1F.stl id:0 copy 0
G1 X157.93 Y91.202 F4200
G1 E1 F1500
G1 F1030.65
G1 X158.028 Y91.319 E.01016
G1 X158.042 Y91.459 E.00931
G1 X158.042 Y118.541 E1.80261
G1 X158.028 Y118.681 E.00931
G1 X157.939 Y118.789 E.00931
G1 X138.789 Y137.939 E1.80261
G1 X138.681 Y138.028 E.00931
G1 X138.541 Y138.042 E.00931
G1 X111.459 Y138.042 E1.80261
G1 X111.319 Y138.028 E.00931
G1 X111.211 Y137.939 E.00931
G1 X92.061 Y118.789 E1.80261
G1 X91.972 Y118.681 E.00931
G1 X91.958 Y118.541 E.00931
G1 X91.958 Y91.459 E1.80261
G1 X91.972 Y91.319 E.00931
M73 P7 R23
M73 Q7 S23
G1 X92.061 Y91.211 E.00931
G1 X111.211 Y72.061 E1.80261
G1 X111.319 Y71.972 E.00931
G1 X111.459 Y71.958 E.00931
G1 X138.541 Y71.958 E1.80261
G1 X138.681 Y71.972 E.00931
G1 X138.789 Y72.061 E.00931
G1 X157.888 Y91.16 E1.79776
G1 X158.08 Y91.171 F4200
; stop printing object OV-PAM_q_6.5mm_1F.stl id:0 copy 0
;LAYER_CHANGE
;Z:1.2
;HEIGHT:0.2
;BEFORE_LAYER_CHANGE
G92 E0.0
;1.2


G1 E-1 F2400
G1 Z1.2 F720
;AFTER_LAYER_CHANGE
;1.2
; printing object OV-PAM_q_6.5mm_1F.stl id:0 copy 0
G1 X157.904 Y91.19 F4200
G1 E1 F1500
;WIDTH:0.791009
G1 F1002.555
G1 X158.018 Y91.324 E.01201
G1 X158.032 Y91.467 E.00984
G1 X158.032 Y118.533 E1.85201
G1 X158.018 Y118.676 E.00984
G1 X157.927 Y118.788 E.00984
G1 X138.788 Y137.927 E1.85201
G1 X138.676 Y138.018 E.00984
G1 X138.533 Y138.032 E.00984
G1 X111.467 Y138.032 E1.85201
G1 X111.324 Y138.018 E.00984
G1 X111.212 Y137.927 E.00984
G1 X92.073 Y118.788 E1.85201
G1 X91.982 Y118.676 E.00984
G1 X91.968 Y118.533 E.00984
G1 X91.968 Y91.467 E1.85201
G1 X91.982 Y91.324 E.00984
G1 X92.073 Y91.212 E.00984
G1 X111.212 Y72.073 E1.85201
G1 X111.324 Y71.982 E.00984
M73 P8 R23
M73 Q8 S23
G1 X111.467 Y71.968 E.00984
G1 X138.533 Y71.968 E1.85201
G1 X138.676 Y71.982 E.00984
G1 X138.788 Y72.073 E.00984
G1 X157.862 Y91.147 E1.84573
G1 X158.076 Y91.154 F4200
; stop printing object OV-PAM_q_6.5mm_1F.stl id:0 copy 0
;LAYER_CHANGE
;Z:1.4
;HEIGHT:0.2
;BEFORE_LAYER_CHANGE
G92 E0.0
;1.4


G1 E-1 F2400
G1 Z1.4 F720
;AFTER_LAYER_CHANGE
;1.4
; printing object OV-PAM_q_6.5mm_1F.stl id:0 copy 0
G1 X157.737 Y91.286 F4200
G1 E1 F1500
;WIDTH:0.643115
G1 F1200
G1 X157.834 Y91.4 E.00819
G1 X157.845 Y91.515 E.00634
G1 X157.834 Y118.6 E1.48693
G1 X138.6 Y137.834 E1.49323
G1 X111.4 Y137.834 E1.49323
G1 X92.166 Y118.6 E1.49323
G1 X92.166 Y91.4 E1.49323
G1 X111.4 Y72.166 E1.49323
M73 P8 R22
M73 Q8 S22
G1 X138.6 Y72.166 E1.49323
G1 X157.695 Y91.244 E1.48177
G1 X157.877 Y91.236 F4200
; stop printing object OV-PAM_q_6.5mm_1F.stl id:0 copy 0
;LAYER_CHANGE
;Z:1.6
;HEIGHT:0.2
;BEFORE_LAYER_CHANGE
G92 E0.0
;1.6


G1 E-1 F2400
G1 Z1.6 F720
;AFTER_LAYER_CHANGE
;1.6
; printing object OV-PAM_q_6.5mm_1F.stl id:0 copy 0
G1 X157.619 Y91.332 F4200
G1 E1 F1500
G1 F1200
G1 X157.719 Y91.448 E.00839
G1 X157.73 Y91.562 E.00634
G1 X157.719 Y118.552 E1.48168
G1 X138.552 Y137.719 E1.48798
M73 P9 R22
M73 Q9 S22
G1 X111.448 Y137.719 E1.48798
G1 X92.281 Y118.552 E1.48798
G1 X92.281 Y91.448 E1.48798
G1 X111.448 Y72.281 E1.48798
G1 X138.552 Y72.281 E1.48798
G1 X157.576 Y91.289 E1.47632
G1 X157.763 Y91.28 F4200
; stop printing object OV-PAM_q_6.5mm_1F.stl id:0 copy 0
;LAYER_CHANGE
;Z:1.8
;HEIGHT:0.2
;BEFORE_LAYER_CHANGE
G92 E0.0
;1.8


G1 E-1 F2400
G1 Z1.8 F720
;AFTER_LAYER_CHANGE
;1.8
; printing object OV-PAM_q_6.5mm_1F.stl id:0 copy 0
G1 X157.5 Y91.376 F4200
G1 E1 F1500
;WIDTH:0.643692
G1 F1200
G1 X157.603 Y91.494 E.00861
G1 X157.615 Y91.61 E.00642
G1 X157.604 Y118.503 E1.47778
G1 X138.506 Y137.603 E1.48417
G1 X111.497 Y137.604 E1.48417
G1 X92.397 Y118.506 E1.48417
G1 X92.396 Y91.497 E1.48417
M73 P10 R22
M73 Q10 S22
G1 X111.494 Y72.397 E1.48417
G1 X138.503 Y72.396 E1.48417
G1 X157.457 Y91.333 E1.47228
G1 X157.472 Y91.53 F4200
; stop printing object OV-PAM_q_6.5mm_1F.stl id:0 copy 0
;LAYER_CHANGE
;Z:2
;HEIGHT:0.2
;BEFORE_LAYER_CHANGE
G92 E0.0
;2


G1 E-1 F2400
G1 Z2 F720
;AFTER_LAYER_CHANGE
;2
; printing object OV-PAM_q_6.5mm_1F.stl id:0 copy 0
G1 X157.38 Y91.419 F4200
G1 E1 F1500
;WIDTH:0.648485
G1 F1200
G1 X157.485 Y91.53 E.00849
G1 X157.499 Y91.658 E.00711
G1 X157.495 Y118.446 E1.48373
G1 X157.415 Y118.546 E.00711
G1 X138.47 Y137.485 E1.48373
G1 X138.342 Y137.499 E.00711
G1 X111.554 Y137.495 E1.48373
G1 X111.454 Y137.415 E.00711
G1 X92.515 Y118.47 E1.48373
G1 X92.501 Y118.342 E.00711
G1 X92.505 Y91.554 E1.48373
G1 X92.585 Y91.454 E.00711
G1 X111.53 Y72.515 E1.48373
G1 X111.658 Y72.501 E.00711
G1 X138.446 Y72.505 E1.48373
G1 X138.546 Y72.585 E.00711
M73 P11 R22
M73 Q11 S22
G1 X157.337 Y91.377 E1.47192
G1 X157.337 Y91.566 F4200
; stop printing object OV-PAM_q_6.5mm_1F.stl id:0 copy 0
;LAYER_CHANGE
;Z:2.2
;HEIGHT:0.2
;BEFORE_LAYER_CHANGE
G92 E0.0
;2.2


G1 E-1 F2400
G1 Z2.2 F720
;AFTER_LAYER_CHANGE
;2.2
; printing object OV-PAM_q_6.5mm_1F.stl id:0 copy 0
G1 X157.246 Y91.449 F4200
G1 E1 F1500
;WIDTH:0.657502
G1 F1200
G1 X157.365 Y91.559 E.00914
G1 X157.384 Y91.706 E.00831
G1 X157.39 Y118.381 E1.49951
G1 X157.299 Y118.498 E.00831
G1 X138.441 Y137.365 E1.49951
G1 X138.294 Y137.384 E.00831
G1 X111.619 Y137.39 E1.49951
G1 X111.502 Y137.299 E.00831
G1 X92.635 Y118.441 E1.49951
G1 X92.616 Y118.294 E.00831
G1 X92.61 Y91.619 E1.49951
G1 X92.701 Y91.502 E.00831
G1 X111.559 Y72.635 E1.49951
G1 X111.706 Y72.616 E.00831
G1 X138.381 Y72.61 E1.49951
G1 X138.498 Y72.701 E.00831
G1 X157.203 Y91.406 E1.487
G1 X157.208 Y91.607 F4200
; stop printing object OV-PAM_q_6.5mm_1F.stl id:0 copy 0
;LAYER_CHANGE
;Z:2.4
;HEIGHT:0.2
;BEFORE_LAYER_CHANGE
G92 E0.0
;2.4


G1 E-1 F2400
G1 Z2.4 F720
;AFTER_LAYER_CHANGE
;2.4
; printing object OV-PAM_q_6.5mm_1F.stl id:0 copy 0
G1 X157.101 Y91.467 F4200
G1 E1 F1500
;WIDTH:0.620272
G1 F1200
G1 X157.189 Y91.544 E.00621
;WIDTH:0.670664
G1 F1194.754
G1 X157.243 Y91.583 E.00382
G1 X157.268 Y91.754 E.0099
;WIDTH:0.620272
G1 F1200
G1 X157.276 Y118.246 E1.39902
;WIDTH:0.670665
G1 F1194.754
M73 P12 R22
M73 Q12 S22
G1 X157.286 Y118.312 E.00382
;WIDTH:0.670664
G1 X157.184 Y118.45 E.0099
;WIDTH:0.620272
G1 F1200
G1 X138.456 Y137.189 E1.39901
;WIDTH:0.670664
G1 F1194.754
G1 X138.417 Y137.243 E.00382
G1 X138.246 Y137.268 E.0099
;WIDTH:0.620272
G1 F1200
G1 X111.754 Y137.276 E1.39902
;WIDTH:0.670665
G1 F1194.754
G1 X111.688 Y137.286 E.00382
G1 X111.55 Y137.184 E.0099
;WIDTH:0.620272
G1 F1200
G1 X92.811 Y118.456 E1.39901
;WIDTH:0.670664
G1 F1194.754
G1 X92.757 Y118.417 E.00382
G1 X92.732 Y118.246 E.0099
;WIDTH:0.620272
G1 F1200
G1 X92.724 Y91.754 E1.39902
;WIDTH:0.670665
G1 F1194.754
G1 X92.714 Y91.688 E.00382
G1 X92.816 Y91.55 E.0099
;WIDTH:0.620272
G1 F1200
G1 X111.544 Y72.811 E1.39901
;WIDTH:0.670664
G1 F1194.754
G1 X111.583 Y72.757 E.00382
G1 X111.754 Y72.732 E.0099
;WIDTH:0.620272
G1 F1200
G1 X138.246 Y72.724 E1.39902
;WIDTH:0.670665
G1 F1194.754
G1 X138.312 Y72.714 E.00382
G1 X138.45 Y72.816 E.0099
;WIDTH:0.620272
G1 F1200
G1 X157.058 Y91.424 E1.38965
; stop printing object OV-PAM_q_6.5mm_1F.stl id:0 copy 0
;LAYER_CHANGE
;Z:2.6
;HEIGHT:0.2
;BEFORE_LAYER_CHANGE
G92 E0.0
;2.6


G1 E-1 F2400
G1 Z2.6 F720
;AFTER_LAYER_CHANGE
;2.6
; printing object OV-PAM_q_6.5mm_1F.stl id:0 copy 0
G1 X156.955 Y91.484 F4200
G1 E1 F1500
;WIDTH:0.620272
G1 F1200
G1 X157.083 Y91.583 E.00853
;WIDTH:0.688013
G1 F1162.624
G1 X157.119 Y91.604 E.00246
G1 X157.153 Y91.802 E.01184
;WIDTH:0.620272
G1 F1200
G1 X157.153 Y118.044 E1.38583
G1 X157.173 Y118.198 E.00821
;WIDTH:0.688013
M73 P12 R21
M73 Q12 S21
G1 F1162.623
G1 X157.184 Y118.239 E.00246
;WIDTH:0.688015
G1 X157.068 Y118.403 E.01184
;WIDTH:0.620272
G1 F1200
G1 X138.512 Y136.959 E1.38582
G1 X138.417 Y137.083 E.00821
;WIDTH:0.688013
G1 F1162.624
G1 X138.396 Y137.119 E.00246
G1 X138.198 Y137.153 E.01184
;WIDTH:0.620272
G1 F1200
G1 X111.956 Y137.153 E1.38583
G1 X111.802 Y137.173 E.00821
;WIDTH:0.688013
G1 F1162.623
G1 X111.761 Y137.184 E.00246
