; generated by PrusaSlicer 2.5.2+win64 on 2023-10-26 at 05:57:50 UTC


;
;
; 

; external perimeters extrusion width = 0.50mm
; perimeters extrusion width = 0.50mm
; infill extrusion width = 0.50mm
; solid infill extrusion width = 0.50mm
; top infill extrusion width = 0.50mm
; first layer extrusion width = 0.50mm

M73 P0 R26
M73 Q0 S26
M201 X1000 Y1000 Z200 E5000 ; sets maximum accelerations, mm/sec^2
M203 X200 Y200 Z12 E120 ; sets maximum feedrates, mm / sec
M204 P1250 R1250 T1250 ; sets acceleration (P, T) and retract acceleration (R), mm/sec^2
M205 X8.00 Y8.00 Z0.40 E4.50 ; sets the jerk limits, mm/sec
M205 S0 T0 ; sets the minimum extruding and travel feed rate, mm/sec
M107
;TYPE:Custom
M862.3 P "MK3S" ; printer model check
M862.1 P0.4 ; nozzle diameter check
M115 U3.12.2 ; tell printer latest fw version
G90 ; use absolute coordinates
M83 ; extruder relative mode
M104 S240 ; set extruder temp
M140 S60 ; set bed temp
M190 S60 ; wait for bed temp
M109 S240 ; wait for extruder temp
G28 W ; home all without mesh bed level
G80 ; mesh bed leveling

G1 Z0.2 F720
G1 Y-3 F1000 ; go outside print area
G92 E0
G1 X60 E9 F1000 ; intro line
G1 X100 E12.5 F1000 ; intro line

G92 E0
M221 S95

; Don't change E values below. Excessive value can damage the printer.
M907 E430 ; set extruder motor current
G21 ; set units to millimeters
G90 ; use absolute coordinates
M83 ; use relative distances for extrusion
M900 K0 ; Filament gcode
M107
;LAYER_CHANGE
;Z:0.2
;HEIGHT:0.2
;BEFORE_LAYER_CHANGE
G92 E0.0
;0.2


G1 E-1 F2400
G1 Z.2 F720
;AFTER_LAYER_CHANGE
;0.2
G1 X89.164 Y88.724 F4200
G1 E1 F1500
M204 S300
;TYPE:Skirt/Brim
;WIDTH:0.5
G1 F1200
G1 X108.724 Y69.164 E1.1565
G1 X110.136 Y68.309 E.06902
M73 P0 R25
M73 Q0 S25
G1 X111.169 Y68.151 E.04365
G1 X138.831 Y68.151 E1.1565
G1 X140.435 Y68.545 E.06902
G1 X141.276 Y69.164 E.04365
G1 X160.836 Y88.724 E1.1565
G1 X161.691 Y90.136 E.06902
G1 X161.849 Y91.169 E.04365
G1 X161.849 Y118.831 E1.1565
G1 X161.455 Y120.435 E.06902
G1 X160.836 Y121.276 E.04365
G1 X141.276 Y140.836 E1.1565
G1 X139.864 Y141.691 E.06902
G1 X138.831 Y141.849 E.04365
G1 X111.169 Y141.849 E1.1565
G1 X109.565 Y141.455 E.06902
M73 P1 R25
M73 Q1 S25
G1 X108.724 Y140.836 E.04365
G1 X89.164 Y121.276 E1.1565
G1 X88.309 Y119.864 E.06902
G1 X88.151 Y118.831 E.04365
G1 X88.151 Y91.169 E1.1565
G1 X88.545 Y89.565 E.06902
G1 X89.128 Y88.772 E.04114
; printing object OV-PAM_q_8.25mm_1F.stl id:0 copy 0
G1 E-1 F2400
G1 X92.031 Y118.753 F4200
G1 E1 F1500
;TYPE:External perimeter
;WIDTH:0.770616
G1 F1030.65
G1 X91.972 Y118.681 E.00619
G1 X91.958 Y118.541 E.00931
G1 X91.958 Y91.459 E1.80261
G1 X91.972 Y91.319 E.00931
G1 X92.061 Y91.211 E.00931
G1 X111.211 Y72.061 E1.80261
G1 X111.319 Y71.972 E.00931
G1 X111.459 Y71.958 E.00931
G1 X138.541 Y71.958 E1.80261
G1 X138.681 Y71.972 E.00931
G1 X138.789 Y72.061 E.00931
G1 X157.939 Y91.211 E1.80261
G1 X158.028 Y91.319 E.00931
G1 X158.042 Y91.459 E.00931
G1 X158.042 Y118.541 E1.80261
G1 X158.028 Y118.681 E.00931
G1 X157.939 Y118.789 E.00931
G1 X138.789 Y137.939 E1.80261
G1 X138.681 Y138.028 E.00931
G1 X138.541 Y138.042 E.00931
G1 X111.459 Y138.042 E1.80261
G1 X111.319 Y138.028 E.00931
M73 P2 R25
M73 Q2 S25
G1 X111.211 Y137.939 E.00931
G1 X92.07 Y118.798 E1.80173
G1 X91.94 Y118.771 F4200
; stop printing object OV-PAM_q_8.25mm_1F.stl id:0 copy 0
;LAYER_CHANGE
;Z:0.4
;HEIGHT:0.2
;BEFORE_LAYER_CHANGE
G92 E0.0
;0.4


G1 E-1 F2400
G1 Z.4 F720
;AFTER_LAYER_CHANGE
;0.4
G1 X88.845 Y120.75 F4200
G1 E1 F1500
;TYPE:Skirt/Brim
;WIDTH:0.5
G1 F1200
G1 X88.309 Y119.864 E.04332
G1 X88.151 Y118.831 E.04365
G1 X88.151 Y91.169 E1.1565
G1 X88.545 Y89.565 E.06902
G1 X89.164 Y88.724 E.04365
G1 X108.724 Y69.164 E1.1565
G1 X110.136 Y68.309 E.06902
G1 X111.169 Y68.151 E.04365
G1 X138.831 Y68.151 E1.1565
G1 X140.435 Y68.545 E.06902
G1 X141.276 Y69.164 E.04365
G1 X160.836 Y88.724 E1.1565
G1 X161.691 Y90.136 E.06902
G1 X161.849 Y91.169 E.04365
G1 X161.849 Y118.831 E1.1565
G1 X161.455 Y120.435 E.06902
G1 X160.836 Y121.276 E.04365
G1 X141.276 Y140.836 E1.1565
G1 X139.864 Y141.691 E.06902
G1 X138.831 Y141.849 E.04365
G1 X111.169 Y141.849 E1.1565
G1 X109.565 Y141.455 E.06902
G1 X108.724 Y140.836 E.04365
G1 X89.164 Y121.276 E1.1565
G1 X88.876 Y120.801 E.02319
; printing object OV-PAM_q_8.25mm_1F.stl id:0 copy 0
G1 E-1 F2400
G1 X91.886 Y118.84 F4200
G1 X91.911 Y118.869
G1 X92.038 Y118.762
G1 E1 F1500
;TYPE:External perimeter
;WIDTH:0.770616
G1 F1030.65
G1 X91.972 Y118.681 E.00698
G1 X91.958 Y118.541 E.00931
G1 X91.958 Y91.459 E1.80261
G1 X91.972 Y91.319 E.00931
M73 P3 R25
M73 Q3 S25
G1 X92.061 Y91.211 E.00931
G1 X111.211 Y72.061 E1.80261
G1 X111.319 Y71.972 E.00931
G1 X111.459 Y71.958 E.00931
G1 X138.541 Y71.958 E1.80261
G1 X138.681 Y71.972 E.00931
G1 X138.789 Y72.061 E.00931
G1 X157.939 Y91.211 E1.80261
G1 X158.028 Y91.319 E.00931
G1 X158.042 Y91.459 E.00931
G1 X158.042 Y118.541 E1.80261
G1 X158.028 Y118.681 E.00931
G1 X157.939 Y118.789 E.00931
G1 X138.789 Y137.939 E1.80261
G1 X138.681 Y138.028 E.00931
G1 X138.541 Y138.042 E.00931
G1 X111.459 Y138.042 E1.80261
G1 X111.319 Y138.028 E.00931
G1 X111.211 Y137.939 E.00931
G1 X92.078 Y118.807 E1.80095
G1 X91.936 Y118.782 F4200
; stop printing object OV-PAM_q_8.25mm_1F.stl id:0 copy 0
;LAYER_CHANGE
;Z:0.6
;HEIGHT:0.2
;BEFORE_LAYER_CHANGE
G92 E0.0
;0.6


G1 E-1 F2400
G1 Z.6 F720
;AFTER_LAYER_CHANGE
;0.6
G1 X88.851 Y120.76 F4200
G1 E1 F1500
;TYPE:Skirt/Brim
;WIDTH:0.5
G1 F1200
G1 X88.309 Y119.864 E.0438
G1 X88.151 Y118.831 E.04365
G1 X88.151 Y91.169 E1.1565
G1 X88.545 Y89.565 E.06902
G1 X89.164 Y88.724 E.04365
G1 X108.724 Y69.164 E1.1565
G1 X110.136 Y68.309 E.06902
G1 X111.169 Y68.151 E.04365
G1 X138.831 Y68.151 E1.1565
G1 X140.435 Y68.545 E.06902
M73 P4 R25
M73 Q4 S25
G1 X141.276 Y69.164 E.04365
G1 X160.836 Y88.724 E1.1565
G1 X161.691 Y90.136 E.06902
G1 X161.849 Y91.169 E.04365
G1 X161.849 Y118.831 E1.1565
G1 X161.455 Y120.435 E.06902
G1 X160.836 Y121.276 E.04365
G1 X141.276 Y140.836 E1.1565
G1 X139.864 Y141.691 E.06902
M73 P4 R24
M73 Q4 S24
G1 X138.831 Y141.849 E.04365
G1 X111.169 Y141.849 E1.1565
G1 X109.565 Y141.455 E.06902
G1 X108.724 Y140.836 E.04365
G1 X89.164 Y121.276 E1.1565
G1 X88.882 Y120.811 E.02271
; printing object OV-PAM_q_8.25mm_1F.stl id:0 copy 0
G1 E-1 F2400
G1 X91.894 Y118.849 F4200
G1 X91.92 Y118.88
G1 X92.047 Y118.772
G1 E1 F1500
;TYPE:External perimeter
;WIDTH:0.770616
G1 F1030.65
G1 X91.972 Y118.681 E.00787
G1 X91.958 Y118.541 E.00931
G1 X91.958 Y91.459 E1.80261
G1 X91.972 Y91.319 E.00931
G1 X92.061 Y91.211 E.00931
G1 X111.211 Y72.061 E1.80261
G1 X111.319 Y71.972 E.00931
G1 X111.459 Y71.958 E.00931
G1 X138.541 Y71.958 E1.80261
G1 X138.681 Y71.972 E.00931
G1 X138.789 Y72.061 E.00931
G1 X157.939 Y91.211 E1.80261
G1 X158.028 Y91.319 E.00931
G1 X158.042 Y91.459 E.00931
G1 X158.042 Y118.541 E1.80261
G1 X158.028 Y118.681 E.00931
M73 P5 R24
M73 Q5 S24
G1 X157.939 Y118.789 E.00931
G1 X138.789 Y137.939 E1.80261
G1 X138.681 Y138.028 E.00931
G1 X138.541 Y138.042 E.00931
G1 X111.459 Y138.042 E1.80261
G1 X111.319 Y138.028 E.00931
G1 X111.211 Y137.939 E.00931
G1 X92.088 Y118.816 E1.80006
G1 X91.931 Y118.795 F4200
; stop printing object OV-PAM_q_8.25mm_1F.stl id:0 copy 0
;LAYER_CHANGE
;Z:0.8
;HEIGHT:0.2
;BEFORE_LAYER_CHANGE
G92 E0.0
;0.8


G1 E-1 F2400
G1 Z.8 F720
;AFTER_LAYER_CHANGE
;0.8
; printing object OV-PAM_q_8.25mm_1F.stl id:0 copy 0
G1 X92.056 Y118.784 F4200
G1 E1 F1500
G1 F1030.65
G1 X91.972 Y118.681 E.00886
G1 X91.958 Y118.541 E.00931
G1 X91.958 Y91.459 E1.80261
G1 X91.972 Y91.319 E.00931
G1 X92.061 Y91.211 E.00931
G1 X111.211 Y72.061 E1.80261
G1 X111.319 Y71.972 E.00931
G1 X111.459 Y71.958 E.00931
G1 X138.541 Y71.958 E1.80261
G1 X138.681 Y71.972 E.00931
G1 X138.789 Y72.061 E.00931
G1 X157.939 Y91.211 E1.80261
G1 X158.028 Y91.319 E.00931
G1 X158.042 Y91.459 E.00931
G1 X158.042 Y118.541 E1.80261
G1 X158.028 Y118.681 E.00931
G1 X157.939 Y118.789 E.00931
G1 X138.789 Y137.939 E1.80261
G1 X138.681 Y138.028 E.00931
M73 P6 R24
M73 Q6 S24
G1 X138.541 Y138.042 E.00931
G1 X111.459 Y138.042 E1.80261
G1 X111.319 Y138.028 E.00931
G1 X111.211 Y137.939 E.00931
G1 X92.098 Y118.826 E1.79907
G1 X91.926 Y118.809 F4200
; stop printing object OV-PAM_q_8.25mm_1F.stl id:0 copy 0
;LAYER_CHANGE
;Z:1
;HEIGHT:0.2
;BEFORE_LAYER_CHANGE
G92 E0.0
;1


G1 E-1 F2400
G1 Z1 F720
;AFTER_LAYER_CHANGE
;1
; printing object OV-PAM_q_8.25mm_1F.stl id:0 copy 0
G1 X92.071 Y118.8 F4200
G1 E1 F1500
G1 F1030.65
G1 X91.972 Y118.681 E.01032
G1 X91.958 Y118.541 E.00931
G1 X91.958 Y91.459 E1.80261
G1 X91.972 Y91.319 E.00931
G1 X92.061 Y91.211 E.00931
G1 X111.211 Y72.061 E1.80261
G1 X111.319 Y71.972 E.00931
G1 X111.459 Y71.958 E.00931
G1 X138.541 Y71.958 E1.80261
G1 X138.681 Y71.972 E.00931
G1 X138.789 Y72.061 E.00931
G1 X157.939 Y91.211 E1.80261
G1 X158.028 Y91.319 E.00931
G1 X158.042 Y91.459 E.00931
G1 X158.042 Y118.541 E1.80261
G1 X158.028 Y118.681 E.00931
G1 X157.939 Y118.789 E.00931
G1 X138.789 Y137.939 E1.80261
G1 X138.681 Y138.028 E.00931
G1 X138.541 Y138.042 E.00931
G1 X111.459 Y138.042 E1.80261
G1 X111.319 Y138.028 E.00931
G1 X111.211 Y137.939 E.00931
G1 X92.114 Y118.842 E1.7976
G1 X91.919 Y118.831 F4200
; stop printing object OV-PAM_q_8.25mm_1F.stl id:0 copy 0
;LAYER_CHANGE
;Z:1.2
;HEIGHT:0.2
;BEFORE_LAYER_CHANGE
G92 E0.0
;1.2


M73 P7 R24
M73 Q7 S24
G1 E-1 F2400
G1 Z1.2 F720
;AFTER_LAYER_CHANGE
;1.2
; printing object OV-PAM_q_8.25mm_1F.stl id:0 copy 0
G1 X92.097 Y118.812 F4200
G1 E1 F1500
;WIDTH:0.791009
G1 F1002.555
G1 X91.982 Y118.676 E.01214
G1 X91.968 Y118.533 E.00984
G1 X91.968 Y91.467 E1.85201
G1 X91.982 Y91.324 E.00984
G1 X92.073 Y91.212 E.00984
G1 X111.212 Y72.073 E1.85201
G1 X111.324 Y71.982 E.00984
G1 X111.467 Y71.968 E.00984
G1 X138.533 Y71.968 E1.85201
G1 X138.676 Y71.982 E.00984
G1 X138.788 Y72.073 E.00984
G1 X157.927 Y91.212 E1.85201
G1 X158.018 Y91.324 E.00984
G1 X158.032 Y91.467 E.00984
G1 X158.032 Y118.533 E1.85201
G1 X158.018 Y118.676 E.00984
G1 X157.927 Y118.788 E.00984
G1 X138.788 Y137.927 E1.85201
G1 X138.676 Y138.018 E.00984
G1 X138.533 Y138.032 E.00984
G1 X111.467 Y138.032 E1.85201
G1 X111.324 Y138.018 E.00984
G1 X111.212 Y137.927 E.00984
G1 X92.14 Y118.854 E1.84559
G1 X91.924 Y118.848 F4200
; stop printing object OV-PAM_q_8.25mm_1F.stl id:0 copy 0
;LAYER_CHANGE
;Z:1.4
;HEIGHT:0.2
;BEFORE_LAYER_CHANGE
G92 E0.0
;1.4


G1 E-1 F2400
G1 Z1.4 F720
;AFTER_LAYER_CHANGE
;1.4
; printing object OV-PAM_q_8.25mm_1F.stl id:0 copy 0
G1 X92.265 Y118.715 F4200
G1 E1 F1500
;WIDTH:0.643115
G1 F1200
G1 X92.166 Y118.6 E.0083
G1 X92.155 Y118.485 E.00634
G1 X92.166 Y91.4 E1.48693
G1 X111.4 Y72.166 E1.49323
G1 X138.6 Y72.166 E1.49323
M73 P8 R24
M73 Q8 S24
G1 X157.834 Y91.4 E1.49323
G1 X157.834 Y118.6 E1.49323
M73 P8 R23
M73 Q8 S23
G1 X138.6 Y137.834 E1.49323
G1 X111.4 Y137.834 E1.49323
G1 X92.307 Y118.757 E1.48166
G1 X92.122 Y118.766 F4200
; stop printing object OV-PAM_q_8.25mm_1F.stl id:0 copy 0
;LAYER_CHANGE
;Z:1.6
;HEIGHT:0.2
;BEFORE_LAYER_CHANGE
G92 E0.0
;1.6


G1 E-1 F2400
G1 Z1.6 F720
;AFTER_LAYER_CHANGE
;1.6
; printing object OV-PAM_q_8.25mm_1F.stl id:0 copy 0
G1 X92.383 Y118.67 F4200
G1 E1 F1500
;WIDTH:0.643202
G1 F1200
G1 X92.281 Y118.553 E.00854
G1 X92.27 Y118.438 E.00635
G1 X92.281 Y91.448 E1.48188
G1 X111.447 Y72.281 E1.4882
G1 X138.552 Y72.281 E1.4882
G1 X157.719 Y91.447 E1.4882
G1 X157.719 Y118.552 E1.4882
G1 X138.553 Y137.719 E1.4882
M73 P9 R23
M73 Q9 S23
G1 X111.448 Y137.719 E1.4882
G1 X92.426 Y118.713 E1.47639
G1 X92.411 Y118.517 F4200
; stop printing object OV-PAM_q_8.25mm_1F.stl id:0 copy 0
;LAYER_CHANGE
;Z:1.8
;HEIGHT:0.2
;BEFORE_LAYER_CHANGE
G92 E0.0
;1.8


G1 E-1 F2400
G1 Z1.8 F720
;AFTER_LAYER_CHANGE
;1.8
; printing object OV-PAM_q_8.25mm_1F.stl id:0 copy 0
G1 X92.503 Y118.627 F4200
G1 E1 F1500
;WIDTH:0.65
G1 F1200
G1 X92.4 Y118.521 E.00821
G1 X92.385 Y118.39 E.00732
G1 X92.388 Y91.509 E1.49259
G1 X92.47 Y91.406 E.00732
G1 X111.479 Y72.4 E1.49259
G1 X111.61 Y72.385 E.00732
G1 X138.491 Y72.388 E1.49259
G1 X138.594 Y72.47 E.00732
G1 X157.6 Y91.479 E1.49259
G1 X157.615 Y91.61 E.00732
G1 X157.612 Y118.491 E1.49259
G1 X157.53 Y118.594 E.00732
G1 X138.521 Y137.6 E1.49259
G1 X138.39 Y137.615 E.00732
G1 X111.509 Y137.612 E1.49259
G1 X111.406 Y137.53 E.00732
G1 X92.546 Y118.67 E1.48105
G1 X92.543 Y118.485 F4200
; stop printing object OV-PAM_q_8.25mm_1F.stl id:0 copy 0
;LAYER_CHANGE
;Z:2
;HEIGHT:0.2
;BEFORE_LAYER_CHANGE
G92 E0.0
;2


M73 P10 R23
M73 Q10 S23
G1 E-1 F2400
G1 Z2 F720
;AFTER_LAYER_CHANGE
;2
; printing object OV-PAM_q_8.25mm_1F.stl id:0 copy 0
G1 X92.654 Y118.614 F4200
G1 E1 F1500
;WIDTH:0.666099
G1 F1200
G1 X92.524 Y118.505 E.00968
G1 X92.501 Y118.342 E.00936
G1 X92.501 Y91.733 E1.51671
G1 X92.487 Y91.585 E.00845
G1 X92.585 Y91.454 E.00936
G1 X111.401 Y72.638 E1.51671
G1 X111.495 Y72.524 E.00845
G1 X111.658 Y72.501 E.00936
G1 X138.267 Y72.501 E1.51671
G1 X138.415 Y72.487 E.00845
G1 X138.546 Y72.585 E.00936
G1 X157.362 Y91.401 E1.51671
G1 X157.476 Y91.495 E.00845
G1 X157.499 Y91.658 E.00936
G1 X157.499 Y118.267 E1.51671
G1 X157.513 Y118.415 E.00845
G1 X157.415 Y118.546 E.00936
G1 X138.599 Y137.362 E1.51671
G1 X138.505 Y137.476 E.00845
G1 X138.342 Y137.499 E.00936
G1 X111.733 Y137.499 E1.51671
G1 X111.585 Y137.513 E.00845
G1 X111.454 Y137.415 E.00936
G1 X92.696 Y118.657 E1.51206
G1 X92.688 Y118.448 F4200
; stop printing object OV-PAM_q_8.25mm_1F.stl id:0 copy 0
;LAYER_CHANGE
;Z:2.2
;HEIGHT:0.2
;BEFORE_LAYER_CHANGE
G92 E0.0
;2.2


G1 E-1 F2400
G1 Z2.2 F720
;AFTER_LAYER_CHANGE
;2.2
; printing object OV-PAM_q_8.25mm_1F.stl id:0 copy 0
G1 X92.738 Y118.555 F4200
G1 E1 F1500
;WIDTH:0.620272
G1 F1200
G1 X92.684 Y118.515 E.00357
;WIDTH:0.691363
G1 F1156.617
G1 X92.652 Y118.497 E.0022
G1 X92.616 Y118.294 E.0122
;WIDTH:0.620272
G1 F1200
G1 X92.616 Y91.87 E1.39539
G1 X92.593 Y91.706 E.00877
;WIDTH:0.691362
G1 F1156.619
G1 X92.583 Y91.67 E.0022
G1 X92.701 Y91.502 E.0122
;WIDTH:0.620272
G1 F1200
G1 X111.385 Y72.817 E1.39539
G1 X111.485 Y72.684 E.00877
;WIDTH:0.691363
G1 F1156.617
G1 X111.503 Y72.652 E.0022
G1 X111.706 Y72.616 E.0122
;WIDTH:0.620272
G1 F1200
G1 X138.13 Y72.616 E1.39539
G1 X138.294 Y72.593 E.00877
;WIDTH:0.691362
M73 P11 R23
M73 Q11 S23
G1 F1156.619
G1 X138.33 Y72.583 E.0022
G1 X138.498 Y72.701 E.0122
;WIDTH:0.620272
G1 F1200
G1 X157.183 Y91.385 E1.39539
G1 X157.316 Y91.485 E.00877
;WIDTH:0.691363
G1 F1156.617
G1 X157.348 Y91.503 E.0022
G1 X157.384 Y91.706 E.0122
;WIDTH:0.620272
G1 F1200
G1 X157.384 Y118.13 E1.39539
G1 X157.407 Y118.294 E.00877
;WIDTH:0.691362
G1 F1156.619
G1 X157.417 Y118.33 E.0022
;WIDTH:0.691364
G1 X157.299 Y118.498 E.0122
;WIDTH:0.620272
G1 F1200
G1 X138.615 Y137.183 E1.39539
G1 X138.515 Y137.316 E.00877
;WIDTH:0.691363
G1 F1156.617
G1 X138.497 Y137.348 E.0022
G1 X138.294 Y137.384 E.0122
;WIDTH:0.620272
G1 F1200
G1 X111.87 Y137.384 E1.39539
G1 X111.706 Y137.407 E.00877
;WIDTH:0.691362
G1 F1156.619
G1 X111.67 Y137.417 E.0022
G1 X111.502 Y137.299 E.0122
;WIDTH:0.620272
G1 F1200
G1 X92.786 Y118.591 E1.3974
; stop printing object OV-PAM_q_8.25mm_1F.stl id:0 copy 0
;LAYER_CHANGE
;Z:2.4
;HEIGHT:0.2
;BEFORE_LAYER_CHANGE
G92 E0.0
;2.4


G1 E-1 F2400
G1 Z2.4 F720
;AFTER_LAYER_CHANGE
;2.4
; printing object OV-PAM_q_8.25mm_1F.stl id:0 copy 0
G1 X92.888 Y118.56 F4200
G1 E1 F1500
;WIDTH:0.669802
G1 F1196.399
G1 X92.855 Y118.539 E.00228
;WIDTH:0.725544
G1 F1098.702
G1 X92.785 Y118.493 E.00525
G1 X92.757 Y118.366 E.00812
;WIDTH:0.669801
G1 F1196.399
G1 X92.732 Y118.246 E.007
G1 X92.732 Y92.008 E1.50447
G1 X92.697 Y91.843 E.00964
;WIDTH:0.725546
G1 F1098.698
G1 X92.679 Y91.761 E.00525
G1 X92.749 Y91.652 E.00812
;WIDTH:0.669802
G1 F1196.399
G1 X92.816 Y91.55 E.007
G1 X111.37 Y72.996 E1.50447
G1 X111.461 Y72.855 E.00964
;WIDTH:0.725544
G1 F1098.702
G1 X111.507 Y72.785 E.00525
G1 X111.634 Y72.757 E.00812
;WIDTH:0.669801
G1 F1196.399
G1 X111.754 Y72.732 E.007
G1 X137.992 Y72.732 E1.50447
G1 X138.157 Y72.697 E.00964
;WIDTH:0.725546
G1 F1098.698
G1 X138.239 Y72.679 E.00525
G1 X138.348 Y72.749 E.00812
;WIDTH:0.6698
G1 F1196.403
G1 X138.45 Y72.816 E.007
G1 X157.004 Y91.37 E1.50446
G1 X157.145 Y91.461 E.00964
;WIDTH:0.725544
G1 F1098.702
G1 X157.215 Y91.507 E.00525
