; generated by PrusaSlicer 2.5.2+win64 on 2023-10-26 at 05:56:55 UTC


;
;
; 

; external perimeters extrusion width = 0.50mm
; perimeters extrusion width = 0.50mm
; infill extrusion width = 0.50mm
; solid infill extrusion width = 0.50mm
; top infill extrusion width = 0.50mm
; first layer extrusion width = 0.50mm

M73 P0 R23
M73 Q0 S23
M201 X1000 Y1000 Z200 E5000 ; sets maximum accelerations, mm/sec^2
M203 X200 Y200 Z12 E120 ; sets maximum feedrates, mm / sec
M204 P1250 R1250 T1250 ; sets acceleration (P, T) and retract acceleration (R), mm/sec^2
M205 X8.00 Y8.00 Z0.40 E4.50 ; sets the jerk limits, mm/sec
M205 S0 T0 ; sets the minimum extruding and travel feed rate, mm/sec
M107
;TYPE:Custom
M862.3 P "MK3S" ; printer model check
M862.1 P0.4 ; nozzle diameter check
M115 U3.12.2 ; tell printer latest fw version
G90 ; use absolute coordinates
M83 ; extruder relative mode
M104 S240 ; set extruder temp
M140 S60 ; set bed temp
M190 S60 ; wait for bed temp
M109 S240 ; wait for extruder temp
G28 W ; home all without mesh bed level
G80 ; mesh bed leveling

G1 Z0.2 F720
G1 Y-3 F1000 ; go outside print area
G92 E0
G1 X60 E9 F1000 ; intro line
G1 X100 E12.5 F1000 ; intro line

G92 E0
M221 S95

; Don't change E values below. Excessive value can damage the printer.
M907 E430 ; set extruder motor current
G21 ; set units to millimeters
G90 ; use absolute coordinates
M83 ; use relative distances for extrusion
M900 K0 ; Filament gcode
M107
;LAYER_CHANGE
;Z:0.2
;HEIGHT:0.2
;BEFORE_LAYER_CHANGE
G92 E0.0
;0.2


G1 E-1 F2400
G1 Z.2 F720
;AFTER_LAYER_CHANGE
;0.2
G1 X89.164 Y88.724 F4200
G1 E1 F1500
M204 S300
;TYPE:Skirt/Brim
;WIDTH:0.5
G1 F1200
G1 X108.724 Y69.164 E1.1565
G1 X110.136 Y68.309 E.06902
G1 X111.169 Y68.151 E.04365
G1 X138.831 Y68.151 E1.1565
G1 X140.435 Y68.545 E.06902
G1 X141.276 Y69.164 E.04365
G1 X160.836 Y88.724 E1.1565
G1 X161.691 Y90.136 E.06902
G1 X161.849 Y91.169 E.04365
G1 X161.849 Y118.831 E1.1565
G1 X161.455 Y120.435 E.06902
G1 X160.836 Y121.276 E.04365
G1 X141.276 Y140.836 E1.1565
G1 X139.864 Y141.691 E.06902
M73 P1 R23
M73 Q1 S23
G1 X138.831 Y141.849 E.04365
G1 X111.169 Y141.849 E1.1565
G1 X109.565 Y141.455 E.06902
G1 X108.724 Y140.836 E.04365
G1 X89.164 Y121.276 E1.1565
G1 X88.309 Y119.864 E.06902
G1 X88.151 Y118.831 E.04365
G1 X88.151 Y91.169 E1.1565
G1 X88.545 Y89.565 E.06902
G1 X89.128 Y88.772 E.04114
; printing object OV-PAM_q_3mm_1F.stl id:0 copy 0
G1 E-1 F2400
G1 X138.761 Y137.962 F4200
G1 E1 F1500
;TYPE:External perimeter
;WIDTH:0.770616
G1 F1030.65
G1 X138.681 Y138.028 E.00691
G1 X138.541 Y138.042 E.00931
G1 X111.459 Y138.042 E1.80261
G1 X111.319 Y138.028 E.00931
G1 X111.211 Y137.939 E.00931
G1 X92.061 Y118.789 E1.80261
G1 X91.972 Y118.681 E.00931
G1 X91.958 Y118.541 E.00931
G1 X91.958 Y91.459 E1.80261
G1 X91.972 Y91.319 E.00931
G1 X92.061 Y91.211 E.00931
G1 X111.211 Y72.061 E1.80261
G1 X111.319 Y71.972 E.00931
G1 X111.459 Y71.958 E.00931
G1 X138.541 Y71.958 E1.80261
G1 X138.681 Y71.972 E.00931
M73 P2 R23
M73 Q2 S23
G1 X138.789 Y72.061 E.00931
G1 X157.939 Y91.211 E1.80261
G1 X158.028 Y91.319 E.00931
G1 X158.042 Y91.459 E.00931
G1 X158.042 Y118.541 E1.80261
G1 X158.028 Y118.681 E.00931
G1 X157.939 Y118.789 E.00931
G1 X138.806 Y137.922 E1.80102
G1 X138.781 Y138.064 F4200
; stop printing object OV-PAM_q_3mm_1F.stl id:0 copy 0
;LAYER_CHANGE
;Z:0.4
;HEIGHT:0.2
;BEFORE_LAYER_CHANGE
G92 E0.0
;0.4


G1 E-1 F2400
G1 Z.4 F720
;AFTER_LAYER_CHANGE
;0.4
G1 X140.759 Y141.149 F4200
G1 E1 F1500
;TYPE:Skirt/Brim
;WIDTH:0.5
G1 F1200
G1 X139.864 Y141.691 E.04376
G1 X138.831 Y141.849 E.04365
G1 X111.169 Y141.849 E1.1565
G1 X109.565 Y141.455 E.06902
M73 P2 R22
M73 Q2 S22
G1 X108.724 Y140.836 E.04365
G1 X89.164 Y121.276 E1.1565
G1 X88.309 Y119.864 E.06902
G1 X88.151 Y118.831 E.04365
G1 X88.151 Y91.169 E1.1565
G1 X88.545 Y89.565 E.06902
G1 X89.164 Y88.724 E.04365
G1 X108.724 Y69.164 E1.1565
G1 X110.136 Y68.309 E.06902
G1 X111.169 Y68.151 E.04365
G1 X138.831 Y68.151 E1.1565
G1 X140.435 Y68.545 E.06902
G1 X141.276 Y69.164 E.04365
G1 X160.836 Y88.724 E1.1565
G1 X161.691 Y90.136 E.06902
M73 P3 R22
M73 Q3 S22
G1 X161.849 Y91.169 E.04365
G1 X161.849 Y118.831 E1.1565
G1 X161.455 Y120.435 E.06902
G1 X160.836 Y121.276 E.04365
G1 X141.276 Y140.836 E1.1565
G1 X140.81 Y141.118 E.02276
; printing object OV-PAM_q_3mm_1F.stl id:0 copy 0
G1 E-1 F2400
G1 X138.846 Y138.109 F4200
G1 X138.876 Y138.084
G1 X138.768 Y137.956
G1 E1 F1500
;TYPE:External perimeter
;WIDTH:0.770616
G1 F1030.65
G1 X138.681 Y138.028 E.00755
G1 X138.541 Y138.042 E.00931
G1 X111.459 Y138.042 E1.80261
G1 X111.319 Y138.028 E.00931
G1 X111.211 Y137.939 E.00931
G1 X92.061 Y118.789 E1.80261
G1 X91.972 Y118.681 E.00931
G1 X91.958 Y118.541 E.00931
G1 X91.958 Y91.459 E1.80261
G1 X91.972 Y91.319 E.00931
G1 X92.061 Y91.211 E.00931
G1 X111.211 Y72.061 E1.80261
G1 X111.319 Y71.972 E.00931
G1 X111.459 Y71.958 E.00931
G1 X138.541 Y71.958 E1.80261
G1 X138.681 Y71.972 E.00931
G1 X138.789 Y72.061 E.00931
G1 X157.939 Y91.211 E1.80261
G1 X158.028 Y91.319 E.00931
G1 X158.042 Y91.459 E.00931
G1 X158.042 Y118.541 E1.80261
G1 X158.028 Y118.681 E.00931
M73 P4 R22
M73 Q4 S22
G1 X157.939 Y118.789 E.00931
G1 X138.813 Y137.916 E1.80038
G1 X138.79 Y138.067 F4200
; stop printing object OV-PAM_q_3mm_1F.stl id:0 copy 0
;LAYER_CHANGE
;Z:0.6
;HEIGHT:0.2
;BEFORE_LAYER_CHANGE
G92 E0.0
;0.6


G1 E-1 F2400
G1 Z.6 F720
;AFTER_LAYER_CHANGE
;0.6
G1 X138.727 Y137.83 F4200
G1 X138.726 Y137.831
G1 X140.767 Y141.145
G1 E1 F1500
;TYPE:Skirt/Brim
;WIDTH:0.5
G1 F1200
G1 X139.864 Y141.691 E.04415
G1 X138.831 Y141.849 E.04365
G1 X111.169 Y141.849 E1.1565
G1 X109.565 Y141.455 E.06902
G1 X108.724 Y140.836 E.04365
G1 X89.164 Y121.276 E1.1565
G1 X88.309 Y119.864 E.06902
G1 X88.151 Y118.831 E.04365
G1 X88.151 Y91.169 E1.1565
G1 X88.545 Y89.565 E.06902
G1 X89.164 Y88.724 E.04365
G1 X108.724 Y69.164 E1.1565
G1 X110.136 Y68.309 E.06902
G1 X111.169 Y68.151 E.04365
G1 X138.831 Y68.151 E1.1565
G1 X140.435 Y68.545 E.06902
G1 X141.276 Y69.164 E.04365
G1 X160.836 Y88.724 E1.1565
G1 X161.691 Y90.136 E.06902
G1 X161.849 Y91.169 E.04365
G1 X161.849 Y118.831 E1.1565
G1 X161.455 Y120.435 E.06902
G1 X160.836 Y121.276 E.04365
G1 X141.276 Y140.836 E1.1565
G1 X140.818 Y141.113 E.02237
; printing object OV-PAM_q_3mm_1F.stl id:0 copy 0
M73 P5 R22
M73 Q5 S22
G1 E-1 F2400
G1 X138.853 Y138.103 F4200
G1 X138.884 Y138.077
G1 X138.776 Y137.95
G1 E1 F1500
;TYPE:External perimeter
;WIDTH:0.770616
G1 F1030.65
G1 X138.681 Y138.028 E.00824
G1 X138.541 Y138.042 E.00931
G1 X111.459 Y138.042 E1.80261
G1 X111.319 Y138.028 E.00931
G1 X111.211 Y137.939 E.00931
G1 X92.061 Y118.789 E1.80261
G1 X91.972 Y118.681 E.00931
G1 X91.958 Y118.541 E.00931
G1 X91.958 Y91.459 E1.80261
G1 X91.972 Y91.319 E.00931
G1 X92.061 Y91.211 E.00931
G1 X111.211 Y72.061 E1.80261
G1 X111.319 Y71.972 E.00931
G1 X111.459 Y71.958 E.00931
G1 X138.541 Y71.958 E1.80261
G1 X138.681 Y71.972 E.00931
G1 X138.789 Y72.061 E.00931
G1 X157.939 Y91.211 E1.80261
G1 X158.028 Y91.319 E.00931
G1 X158.042 Y91.459 E.00931
G1 X158.042 Y118.541 E1.80261
G1 X158.028 Y118.681 E.00931
G1 X157.939 Y118.789 E.00931
G1 X138.82 Y137.908 E1.79968
G1 X138.801 Y138.071 F4200
; stop printing object OV-PAM_q_3mm_1F.stl id:0 copy 0
;LAYER_CHANGE
;Z:0.8
;HEIGHT:0.2
;BEFORE_LAYER_CHANGE
G92 E0.0
;0.8


M73 P6 R22
M73 Q6 S22
G1 E-1 F2400
G1 Z.8 F720
;AFTER_LAYER_CHANGE
;0.8
; printing object OV-PAM_q_3mm_1F.stl id:0 copy 0
G1 X138.785 Y137.942 F4200
G1 E1 F1500
G1 F1030.65
G1 X138.681 Y138.028 E.009
G1 X138.541 Y138.042 E.00931
G1 X111.459 Y138.042 E1.80261
G1 X111.319 Y138.028 E.00931
G1 X111.211 Y137.939 E.00931
G1 X92.061 Y118.789 E1.80261
G1 X91.972 Y118.681 E.00931
G1 X91.958 Y118.541 E.00931
G1 X91.958 Y91.459 E1.80261
G1 X91.972 Y91.319 E.00931
G1 X92.061 Y91.211 E.00931
G1 X111.211 Y72.061 E1.80261
G1 X111.319 Y71.972 E.00931
G1 X111.459 Y71.958 E.00931
G1 X138.541 Y71.958 E1.80261
G1 X138.681 Y71.972 E.00931
G1 X138.789 Y72.061 E.00931
G1 X157.939 Y91.211 E1.80261
G1 X158.028 Y91.319 E.00931
G1 X158.042 Y91.459 E.00931
G1 X158.042 Y118.541 E1.80261
G1 X158.028 Y118.681 E.00931
M73 P6 R21
M73 Q6 S21
G1 X157.939 Y118.789 E.00931
G1 X138.828 Y137.9 E1.79893
G1 X138.812 Y138.075 F4200
; stop printing object OV-PAM_q_3mm_1F.stl id:0 copy 0
;LAYER_CHANGE
;Z:1
;HEIGHT:0.2
;BEFORE_LAYER_CHANGE
G92 E0.0
;1


G1 E-1 F2400
G1 Z1 F720
;AFTER_LAYER_CHANGE
;1
; printing object OV-PAM_q_3mm_1F.stl id:0 copy 0
G1 X138.797 Y137.932 F4200
G1 E1 F1500
G1 F1030.65
G1 X138.681 Y138.028 E.01004
G1 X138.541 Y138.042 E.00931
G1 X111.459 Y138.042 E1.80261
G1 X111.319 Y138.028 E.00931
M73 P7 R21
M73 Q7 S21
G1 X111.211 Y137.939 E.00931
G1 X92.061 Y118.789 E1.80261
G1 X91.972 Y118.681 E.00931
G1 X91.958 Y118.541 E.00931
G1 X91.958 Y91.459 E1.80261
G1 X91.972 Y91.319 E.00931
G1 X92.061 Y91.211 E.00931
G1 X111.211 Y72.061 E1.80261
G1 X111.319 Y71.972 E.00931
G1 X111.459 Y71.958 E.00931
G1 X138.541 Y71.958 E1.80261
G1 X138.681 Y71.972 E.00931
G1 X138.789 Y72.061 E.00931
G1 X157.939 Y91.211 E1.80261
G1 X158.028 Y91.319 E.00931
G1 X158.042 Y91.459 E.00931
G1 X158.042 Y118.541 E1.80261
G1 X158.028 Y118.681 E.00931
G1 X157.939 Y118.789 E.00931
G1 X138.839 Y137.889 E1.79788
G1 X138.827 Y138.079 F4200
; stop printing object OV-PAM_q_3mm_1F.stl id:0 copy 0
;LAYER_CHANGE
;Z:1.2
;HEIGHT:0.2
;BEFORE_LAYER_CHANGE
G92 E0.0
;1.2


G1 E-1 F2400
G1 Z1.2 F720
;AFTER_LAYER_CHANGE
;1.2
; printing object OV-PAM_q_3mm_1F.stl id:0 copy 0
G1 X138.805 Y137.909 F4200
G1 E1 F1500
;WIDTH:0.791009
G1 F1002.555
G1 X138.676 Y138.018 E.0115
G1 X138.533 Y138.032 E.00984
G1 X111.467 Y138.032 E1.85201
G1 X111.324 Y138.018 E.00984
G1 X111.212 Y137.927 E.00984
G1 X92.073 Y118.788 E1.85201
G1 X91.982 Y118.676 E.00984
M73 P8 R21
M73 Q8 S21
G1 X91.968 Y118.533 E.00984
G1 X91.968 Y91.467 E1.85201
G1 X91.982 Y91.324 E.00984
G1 X92.073 Y91.212 E.00984
G1 X111.212 Y72.073 E1.85201
G1 X111.324 Y71.982 E.00984
G1 X111.467 Y71.968 E.00984
G1 X138.533 Y71.968 E1.85201
G1 X138.676 Y71.982 E.00984
G1 X138.788 Y72.073 E.00984
G1 X157.927 Y91.212 E1.85201
G1 X158.018 Y91.324 E.00984
G1 X158.032 Y91.467 E.00984
G1 X158.032 Y118.533 E1.85201
G1 X158.018 Y118.676 E.00984
G1 X157.927 Y118.788 E.00984
G1 X138.847 Y137.867 E1.84624
G1 X138.839 Y138.074 F4200
; stop printing object OV-PAM_q_3mm_1F.stl id:0 copy 0
;LAYER_CHANGE
;Z:1.4
;HEIGHT:0.2
;BEFORE_LAYER_CHANGE
G92 E0.0
;1.4


G1 E-1 F2400
G1 Z1.4 F720
;AFTER_LAYER_CHANGE
;1.4
; printing object OV-PAM_q_3mm_1F.stl id:0 copy 0
G1 X138.704 Y137.747 F4200
G1 E1 F1500
;WIDTH:0.643683
G1 F1200
G1 X138.602 Y137.834 E.00739
G1 X138.485 Y137.845 E.00642
G1 X111.401 Y137.835 E1.48827
G1 X92.166 Y118.602 E1.49466
G1 X92.165 Y91.401 E1.49466
M73 P9 R21
M73 Q9 S21
G1 X111.398 Y72.166 E1.49466
G1 X138.599 Y72.165 E1.49466
G1 X157.833 Y91.399 E1.49467
G1 X157.835 Y118.599 E1.49463
G1 X138.747 Y137.705 E1.484
G1 X138.749 Y137.874 F4200
; stop printing object OV-PAM_q_3mm_1F.stl id:0 copy 0
;LAYER_CHANGE
;Z:1.6
;HEIGHT:0.2
;BEFORE_LAYER_CHANGE
G92 E0.0
;1.6


G1 E-1 F2400
G1 Z1.6 F720
;AFTER_LAYER_CHANGE
;1.6
; printing object OV-PAM_q_3mm_1F.stl id:0 copy 0
G1 X138.655 Y137.635 F4200
G1 E1 F1500
;WIDTH:0.644835
G1 F1200
G1 X138.557 Y137.718 E.00709
G1 X138.438 Y137.73 E.00659
G1 X111.451 Y137.721 E1.48573
G1 X92.282 Y118.557 E1.49228
G1 X92.279 Y91.451 E1.49228
G1 X111.443 Y72.282 E1.49228
G1 X138.549 Y72.279 E1.49228
G1 X157.718 Y91.443 E1.49228
M73 P10 R21
M73 Q10 S21
G1 X157.721 Y118.549 E1.49228
G1 X138.697 Y137.592 E1.48191
G1 X138.698 Y137.756 F4200
; stop printing object OV-PAM_q_3mm_1F.stl id:0 copy 0
;LAYER_CHANGE
;Z:1.8
;HEIGHT:0.2
;BEFORE_LAYER_CHANGE
G92 E0.0
;1.8


G1 E-1 F2400
G1 Z1.8 F720
;AFTER_LAYER_CHANGE
;1.8
; printing object OV-PAM_q_3mm_1F.stl id:0 copy 0
G1 X138.606 Y137.522 F4200
G1 E1 F1500
;WIDTH:0.646013
G1 F1200
G1 X138.512 Y137.602 E.00683
G1 X138.39 Y137.615 E.00676
G1 X111.501 Y137.607 E1.48323
G1 X111.406 Y137.53 E.00676
G1 X92.398 Y118.512 E1.48323
G1 X92.385 Y118.39 E.00676
G1 X92.393 Y91.501 E1.48323
G1 X92.47 Y91.406 E.00676
G1 X111.488 Y72.398 E1.48323
G1 X111.61 Y72.385 E.00676
G1 X138.499 Y72.393 E1.48322
G1 X138.594 Y72.47 E.00676
G1 X157.602 Y91.488 E1.48323
G1 X157.615 Y91.61 E.00676
G1 X157.607 Y118.499 E1.48323
G1 X157.53 Y118.594 E.00676
M73 P11 R20
M73 Q11 S20
G1 X138.648 Y137.479 E1.47311
G1 X138.632 Y137.643 F4200
; stop printing object OV-PAM_q_3mm_1F.stl id:0 copy 0
;LAYER_CHANGE
;Z:2
;HEIGHT:0.2
;BEFORE_LAYER_CHANGE
G92 E0.0
;2


G1 E-1 F2400
G1 Z2 F720
;AFTER_LAYER_CHANGE
;2
; printing object OV-PAM_q_3mm_1F.stl id:0 copy 0
G1 X138.558 Y137.408 F4200
G1 E1 F1500
;WIDTH:0.647218
G1 F1200
G1 X138.467 Y137.486 E.0066
G1 X138.342 Y137.499 E.00693
G1 X111.552 Y137.493 E1.48077
G1 X111.454 Y137.415 E.00693
G1 X92.514 Y118.467 E1.48077
G1 X92.501 Y118.342 E.00693
G1 X92.507 Y91.552 E1.48077
G1 X92.585 Y91.454 E.00693
G1 X111.533 Y72.514 E1.48077
G1 X111.658 Y72.501 E.00693
G1 X138.448 Y72.507 E1.48077
G1 X138.546 Y72.585 E.00693
G1 X157.486 Y91.533 E1.48077
G1 X157.499 Y91.658 E.00693
G1 X157.493 Y118.448 E1.48077
G1 X157.415 Y118.546 E.00693
G1 X138.6 Y137.366 E1.47088
G1 X138.582 Y137.525 F4200
; stop printing object OV-PAM_q_3mm_1F.stl id:0 copy 0
;LAYER_CHANGE
;Z:2.2
;HEIGHT:0.2
;BEFORE_LAYER_CHANGE
G92 E0.0
;2.2


G1 E-1 F2400
G1 Z2.2 F720
;AFTER_LAYER_CHANGE
;2.2
; printing object OV-PAM_q_3mm_1F.stl id:0 copy 0
G1 X138.509 Y137.295 F4200
G1 E1 F1500
;WIDTH:0.648445
G1 F1200
G1 X138.422 Y137.37 E.0064
G1 X138.294 Y137.384 E.0071
G1 X111.602 Y137.379 E1.47834
G1 X111.502 Y137.299 E.0071
M73 P12 R20
M73 Q12 S20
G1 X92.63 Y118.422 E1.47834
G1 X92.616 Y118.294 E.0071
G1 X92.621 Y91.602 E1.47834
G1 X92.701 Y91.502 E.0071
G1 X111.578 Y72.63 E1.47834
G1 X111.706 Y72.616 E.0071
G1 X138.398 Y72.621 E1.47834
G1 X138.498 Y72.701 E.0071
G1 X157.37 Y91.578 E1.47834
G1 X157.384 Y91.706 E.0071
G1 X157.379 Y118.398 E1.47834
G1 X157.299 Y118.498 E.0071
G1 X138.552 Y137.252 E1.46865
G1 X138.533 Y137.408 F4200
; stop printing object OV-PAM_q_3mm_1F.stl id:0 copy 0
;LAYER_CHANGE
;Z:2.4
;HEIGHT:0.2
;BEFORE_LAYER_CHANGE
G92 E0.0
;2.4


G1 E-1 F2400
G1 Z2.4 F720
;AFTER_LAYER_CHANGE
;2.4
; printing object OV-PAM_q_3mm_1F.stl id:0 copy 0
G1 X138.462 Y137.181 F4200
G1 E1 F1500
;WIDTH:0.649699
G1 F1200
G1 X138.377 Y137.253 E.00621
G1 X138.246 Y137.268 E.00727
G1 X111.652 Y137.265 E1.47596
G1 X111.55 Y137.184 E.00727
G1 X92.747 Y118.377 E1.47596
G1 X92.732 Y118.246 E.00727
G1 X92.735 Y91.652 E1.47596
G1 X92.816 Y91.55 E.00727
M73 P13 R20
M73 Q13 S20
G1 X111.623 Y72.747 E1.47596
G1 X111.754 Y72.732 E.00727
G1 X138.348 Y72.735 E1.47596
G1 X138.45 Y72.816 E.00728
G1 X157.25 Y91.63 E1.47609
G1 X157.264 Y91.754 E.00693
G1 X157.265 Y118.348 E1.47597
G1 X157.184 Y118.45 E.00727
G1 X138.504 Y137.138 E1.46644
G1 X138.485 Y137.29 F4200
; stop printing object OV-PAM_q_3mm_1F.stl id:0 copy 0
;LAYER_CHANGE
;Z:2.6
;HEIGHT:0.2
;BEFORE_LAYER_CHANGE
G92 E0.0
;2.6


G1 E-1 F2400
G1 Z2.6 F720
;AFTER_LAYER_CHANGE
;2.6
; printing object OV-PAM_q_3mm_1F.stl id:0 copy 0
G1 X138.409 Y137.062 F4200
G1 E1 F1500
;WIDTH:0.643115
G1 F1200
G1 X138.313 Y137.141 E.00684
G1 X138.198 Y137.153 E.00634
G1 X111.687 Y137.141 E1.45542
G1 X92.859 Y118.313 E1.46173
G1 X92.859 Y91.687 E1.46173
G1 X111.687 Y72.859 E1.46173
G1 X138.313 Y72.859 E1.46173
G1 X157.141 Y91.687 E1.46173
G1 X157.141 Y118.313 E1.46173
M73 P14 R20
M73 Q14 S20
G1 X138.452 Y137.019 E1.45162
G1 X138.45 Y137.179 F4200
; stop printing object OV-PAM_q_3mm_1F.stl id:0 copy 0
;LAYER_CHANGE
;Z:2.8
;HEIGHT:0.2
;BEFORE_LAYER_CHANGE
G92 E0.0
;2.8


G1 E-1 F2400
G1 Z2.8 F720
;AFTER_LAYER_CHANGE
;2.8
; printing object OV-PAM_q_3mm_1F.stl id:0 copy 0
G1 X138.361 Y136.947 F4200
G1 E1 F1500
;WIDTH:0.643114
G1 F1200
G1 X138.266 Y137.026 E.00681
G1 X138.151 Y137.037 E.00634
G1 X111.734 Y137.026 E1.45017
G1 X92.974 Y118.266 E1.45647
G1 X92.974 Y91.734 E1.45647
G1 X111.734 Y72.974 E1.45647
G1 X138.266 Y72.974 E1.45647
G1 X157.026 Y91.734 E1.45647
G1 X157.026 Y118.266 E1.45647
G1 X138.403 Y136.904 E1.4464
G1 X138.401 Y137.064 F4200
; stop printing object OV-PAM_q_3mm_1F.stl id:0 copy 0
;LAYER_CHANGE
;Z:3
