; generated by PrusaSlicer 2.5.2+win64 on 2023-10-26 at 05:55:48 UTC


;
;
; 

; external perimeters extrusion width = 0.50mm
; perimeters extrusion width = 0.50mm
; infill extrusion width = 0.50mm
; solid infill extrusion width = 0.50mm
; top infill extrusion width = 0.50mm
; first layer extrusion width = 0.50mm

M73 P0 R76
M73 Q0 S76
M201 X1000 Y1000 Z200 E5000 ; sets maximum accelerations, mm/sec^2
M203 X200 Y200 Z12 E120 ; sets maximum feedrates, mm / sec
M204 P1250 R1250 T1250 ; sets acceleration (P, T) and retract acceleration (R), mm/sec^2
M205 X8.00 Y8.00 Z0.40 E4.50 ; sets the jerk limits, mm/sec
M205 S0 T0 ; sets the minimum extruding and travel feed rate, mm/sec
M107
;TYPE:Custom
M862.3 P "MK3S" ; printer model check
M862.1 P0.4 ; nozzle diameter check
M115 U3.12.2 ; tell printer latest fw version
G90 ; use absolute coordinates
M83 ; extruder relative mode
M104 S240 ; set extruder temp
M140 S60 ; set bed temp
M190 S60 ; wait for bed temp
M109 S240 ; wait for extruder temp
G28 W ; home all without mesh bed level
G80 ; mesh bed leveling

G1 Z0.2 F720
G1 Y-3 F1000 ; go outside print area
G92 E0
G1 X60 E9 F1000 ; intro line
G1 X100 E12.5 F1000 ; intro line

G92 E0
M221 S95

; Don't change E values below. Excessive value can damage the printer.
M907 E430 ; set extruder motor current
G21 ; set units to millimeters
G90 ; use absolute coordinates
M83 ; use relative distances for extrusion
M900 K0 ; Filament gcode
M107
;LAYER_CHANGE
;Z:0.2
;HEIGHT:0.2
;BEFORE_LAYER_CHANGE
G92 E0.0
;0.2


G1 E-1 F2400
G1 Z.2 F720
;AFTER_LAYER_CHANGE
;0.2
G1 X65.898 Y65.898 F4200
G1 E1 F1500
M204 S300
;TYPE:Skirt/Brim
;WIDTH:0.5
G1 F1200
G1 X95.224 Y36.572 E1.73388
G1 X96.636 Y35.717 E.06902
G1 X97.669 Y35.559 E.04365
G1 X152.331 Y35.559 E2.28528
G1 X153.935 Y35.953 E.06902
G1 X154.776 Y36.572 E.04365
G1 X193.428 Y75.224 E2.28528
G1 X194.283 Y76.636 E.06902
G1 X194.441 Y77.669 E.04365
G1 X194.441 Y132.331 E2.28528
G1 X194.047 Y133.935 E.06902
G1 X193.428 Y134.776 E.04365
G1 X154.776 Y173.428 E2.28528
G1 X153.364 Y174.283 E.06902
G1 X152.331 Y174.441 E.04365
G1 X97.669 Y174.441 E2.28528
G1 X96.065 Y174.047 E.06902
G1 X95.224 Y173.428 E.04365
G1 X56.572 Y134.776 E2.28528
G1 X55.717 Y133.364 E.06902
G1 X55.559 Y132.331 E.04365
G1 X55.559 Y77.669 E2.28528
G1 X55.953 Y76.065 E.06902
G1 X56.572 Y75.224 E.04365
G1 X65.855 Y65.94 E.54889
; printing object OV-PAM_large_1F.stl id:0 copy 0
G1 E-1 F2400
G1 X97.754 Y39.433 F4200
G1 E1 F1500
;TYPE:External perimeter
;WIDTH:0.770614
G1 F1030.654
G1 X97.819 Y39.38 E.00559
G1 X97.959 Y39.366 E.00931
G1 X152.041 Y39.366 E3.59969
G1 X152.181 Y39.38 E.00931
G1 X152.289 Y39.469 E.00931
G1 X190.531 Y77.711 E3.59969
G1 X190.62 Y77.819 E.00931
G1 X190.634 Y77.959 E.00931
G1 X190.634 Y132.041 E3.59969
G1 X190.62 Y132.181 E.00931
M73 P0 R75
M73 Q0 S75
G1 X190.531 Y132.289 E.00931
G1 X152.289 Y170.531 E3.59969
G1 X152.181 Y170.62 E.00931
G1 X152.041 Y170.634 E.00931
G1 X97.959 Y170.634 E3.59969
G1 X97.819 Y170.62 E.00931
M73 P1 R75
M73 Q1 S75
G1 X97.711 Y170.531 E.00931
G1 X59.469 Y132.289 E3.59969
G1 X59.38 Y132.181 E.00931
G1 X59.366 Y132.041 E.00931
G1 X59.366 Y77.959 E3.59969
G1 X59.38 Y77.819 E.00931
G1 X59.469 Y77.711 E.00931
G1 X97.708 Y39.472 E3.59942
G1 X97.738 Y39.351 F4200
; stop printing object OV-PAM_large_1F.stl id:0 copy 0
;LAYER_CHANGE
;Z:0.4
;HEIGHT:0.2
;BEFORE_LAYER_CHANGE
G92 E0.0
;0.4


G1 E-1 F2400
G1 Z.4 F720
;AFTER_LAYER_CHANGE
;0.4
G1 X95.758 Y36.249 F4200
G1 E1 F1500
;TYPE:Skirt/Brim
;WIDTH:0.5
G1 F1200
G1 X96.636 Y35.717 E.04295
G1 X97.669 Y35.559 E.04365
G1 X152.331 Y35.559 E2.28528
G1 X153.935 Y35.953 E.06902
G1 X154.776 Y36.572 E.04365
G1 X193.428 Y75.224 E2.28528
G1 X194.283 Y76.636 E.06902
G1 X194.441 Y77.669 E.04365
G1 X194.441 Y132.331 E2.28528
G1 X194.047 Y133.935 E.06902
G1 X193.428 Y134.776 E.04365
G1 X154.776 Y173.428 E2.28528
G1 X153.364 Y174.283 E.06902
G1 X152.331 Y174.441 E.04365
G1 X97.669 Y174.441 E2.28528
G1 X96.065 Y174.047 E.06902
G1 X95.224 Y173.428 E.04365
G1 X56.572 Y134.776 E2.28528
G1 X55.717 Y133.364 E.06902
G1 X55.559 Y132.331 E.04365
G1 X55.559 Y77.669 E2.28528
G1 X55.953 Y76.065 E.06902
G1 X56.572 Y75.224 E.04365
G1 X95.224 Y36.572 E2.28528
G1 X95.706 Y36.28 E.02356
; printing object OV-PAM_large_1F.stl id:0 copy 0
G1 E-1 F2400
G1 X97.665 Y39.29 F4200
G1 X97.636 Y39.315
G1 X97.744 Y39.442
G1 E1 F1500
;TYPE:External perimeter
;WIDTH:0.770614
G1 F1030.654
G1 X97.819 Y39.38 E.00652
G1 X97.959 Y39.366 E.00931
G1 X152.041 Y39.366 E3.59969
G1 X152.181 Y39.38 E.00931
G1 X152.289 Y39.469 E.00931
G1 X190.531 Y77.711 E3.59969
G1 X190.62 Y77.819 E.00931
G1 X190.634 Y77.959 E.00931
G1 X190.634 Y132.041 E3.59969
G1 X190.62 Y132.181 E.00931
G1 X190.531 Y132.289 E.00931
G1 X152.289 Y170.531 E3.59969
G1 X152.181 Y170.62 E.00931
M73 P2 R75
M73 Q2 S75
G1 X152.041 Y170.634 E.00931
G1 X97.959 Y170.634 E3.59969
G1 X97.819 Y170.62 E.00931
G1 X97.711 Y170.531 E.00931
G1 X59.469 Y132.289 E3.59969
G1 X59.38 Y132.181 E.00931
M73 P2 R74
M73 Q2 S74
G1 X59.366 Y132.041 E.00931
G1 X59.366 Y77.959 E3.59969
G1 X59.38 Y77.819 E.00931
G1 X59.469 Y77.711 E.00931
G1 X97.698 Y39.482 E3.59848
G1 X97.724 Y39.346 F4200
; stop printing object OV-PAM_large_1F.stl id:0 copy 0
;LAYER_CHANGE
;Z:0.6
;HEIGHT:0.2
;BEFORE_LAYER_CHANGE
G92 E0.0
;0.6


G1 E-1 F2400
G1 Z.6 F720
;AFTER_LAYER_CHANGE
;0.6
G1 X95.746 Y36.256 F4200
G1 E1 F1500
;TYPE:Skirt/Brim
;WIDTH:0.5
G1 F1200
G1 X96.636 Y35.717 E.04352
G1 X97.669 Y35.559 E.04365
G1 X152.331 Y35.559 E2.28528
G1 X153.935 Y35.953 E.06902
G1 X154.776 Y36.572 E.04365
G1 X193.428 Y75.224 E2.28528
G1 X194.283 Y76.636 E.06902
G1 X194.441 Y77.669 E.04365
G1 X194.441 Y132.331 E2.28528
G1 X194.047 Y133.935 E.06902
G1 X193.428 Y134.776 E.04365
G1 X154.776 Y173.428 E2.28528
G1 X153.364 Y174.283 E.06902
G1 X152.331 Y174.441 E.04365
G1 X97.669 Y174.441 E2.28528
G1 X96.065 Y174.047 E.06902
G1 X95.224 Y173.428 E.04365
G1 X56.572 Y134.776 E2.28528
G1 X55.717 Y133.364 E.06902
G1 X55.559 Y132.331 E.04365
G1 X55.559 Y77.669 E2.28528
G1 X55.953 Y76.065 E.06902
G1 X56.572 Y75.224 E.04365
G1 X95.224 Y36.572 E2.28528
G1 X95.695 Y36.287 E.02299
; printing object OV-PAM_large_1F.stl id:0 copy 0
G1 E-1 F2400
G1 X97.654 Y39.299 F4200
G1 X97.624 Y39.325
G1 X97.731 Y39.452
G1 E1 F1500
;TYPE:External perimeter
;WIDTH:0.770614
G1 F1030.654
G1 X97.819 Y39.38 E.00759
G1 X97.959 Y39.366 E.00931
G1 X152.041 Y39.366 E3.59969
G1 X152.181 Y39.38 E.00931
G1 X152.289 Y39.469 E.00931
G1 X190.531 Y77.711 E3.59969
G1 X190.62 Y77.819 E.00931
G1 X190.634 Y77.959 E.00931
G1 X190.634 Y132.041 E3.59969
G1 X190.62 Y132.181 E.00931
M73 P3 R74
M73 Q3 S74
G1 X190.531 Y132.289 E.00931
G1 X152.289 Y170.531 E3.59969
G1 X152.181 Y170.62 E.00931
G1 X152.041 Y170.634 E.00931
G1 X97.959 Y170.634 E3.59969
G1 X97.819 Y170.62 E.00931
G1 X97.711 Y170.531 E.00931
G1 X59.469 Y132.289 E3.59969
G1 X59.38 Y132.181 E.00931
G1 X59.366 Y132.041 E.00931
G1 X59.366 Y77.959 E3.59969
G1 X59.38 Y77.819 E.00931
G1 X59.469 Y77.711 E.00931
G1 X97.687 Y39.493 E3.59741
G1 X97.709 Y39.34 F4200
; stop printing object OV-PAM_large_1F.stl id:0 copy 0
;LAYER_CHANGE
;Z:0.8
;HEIGHT:0.2
;BEFORE_LAYER_CHANGE
G92 E0.0
;0.8


G1 E-1 F2400
G1 Z.8 F720
;AFTER_LAYER_CHANGE
;0.8
; printing object OV-PAM_large_1F.stl id:0 copy 0
G1 X97.717 Y39.464 F4200
G1 E1 F1500
G1 F1030.654
G1 X97.819 Y39.38 E.0088
G1 X97.959 Y39.366 E.00931
G1 X152.041 Y39.366 E3.59969
G1 X152.181 Y39.38 E.00931
G1 X152.289 Y39.469 E.00931
G1 X190.531 Y77.711 E3.59969
G1 X190.62 Y77.819 E.00931
M73 P3 R73
M73 Q3 S73
G1 X190.634 Y77.959 E.00931
G1 X190.634 Y132.041 E3.59969
G1 X190.62 Y132.181 E.00931
G1 X190.531 Y132.289 E.00931
G1 X152.289 Y170.531 E3.59969
G1 X152.181 Y170.62 E.00931
G1 X152.041 Y170.634 E.00931
G1 X97.959 Y170.634 E3.59969
G1 X97.819 Y170.62 E.00931
G1 X97.711 Y170.531 E.00931
G1 X59.469 Y132.289 E3.59969
G1 X59.38 Y132.181 E.00931
G1 X59.366 Y132.041 E.00931
G1 X59.366 Y77.959 E3.59969
G1 X59.38 Y77.819 E.00931
G1 X59.469 Y77.711 E.00931
G1 X97.674 Y39.506 E3.5962
G1 X97.691 Y39.334 F4200
; stop printing object OV-PAM_large_1F.stl id:0 copy 0
;LAYER_CHANGE
;Z:1
;HEIGHT:0.2
;BEFORE_LAYER_CHANGE
G92 E0.0
;1


G1 E-1 F2400
G1 Z1 F720
;AFTER_LAYER_CHANGE
;1
; printing object OV-PAM_large_1F.stl id:0 copy 0
G1 X97.698 Y39.482 F4200
G1 E1 F1500
G1 F1030.654
G1 X97.819 Y39.38 E.01056
G1 X97.959 Y39.366 E.00931
G1 X152.041 Y39.366 E3.59969
G1 X152.181 Y39.38 E.00931
G1 X152.289 Y39.469 E.00931
G1 X190.531 Y77.711 E3.59969
G1 X190.62 Y77.819 E.00931
M73 P4 R73
M73 Q4 S73
G1 X190.634 Y77.959 E.00931
G1 X190.634 Y132.041 E3.59969
G1 X190.62 Y132.181 E.00931
G1 X190.531 Y132.289 E.00931
G1 X152.289 Y170.531 E3.59969
G1 X152.181 Y170.62 E.00931
G1 X152.041 Y170.634 E.00931
G1 X97.959 Y170.634 E3.59969
G1 X97.819 Y170.62 E.00931
G1 X97.711 Y170.531 E.00931
G1 X59.469 Y132.289 E3.59969
G1 X59.38 Y132.181 E.00931
G1 X59.366 Y132.041 E.00931
G1 X59.366 Y77.959 E3.59969
G1 X59.38 Y77.819 E.00931
G1 X59.469 Y77.711 E.00931
G1 X97.655 Y39.524 E3.59445
G1 X97.666 Y39.327 F4200
; stop printing object OV-PAM_large_1F.stl id:0 copy 0
;LAYER_CHANGE
;Z:1.2
;HEIGHT:0.2
;BEFORE_LAYER_CHANGE
G92 E0.0
;1.2


G1 E-1 F2400
G1 Z1.2 F720
;AFTER_LAYER_CHANGE
;1.2
; printing object OV-PAM_large_1F.stl id:0 copy 0
G1 X97.683 Y39.511 F4200
G1 E1 F1500
;WIDTH:0.791006
G1 F1002.559
G1 X97.824 Y39.39 E.01269
G1 X97.967 Y39.376 E.00984
G1 X152.033 Y39.376 E3.69945
G1 X152.176 Y39.39 E.00984
G1 X152.288 Y39.481 E.00984
G1 X190.519 Y77.712 E3.69945
G1 X190.61 Y77.824 E.00984
G1 X190.624 Y77.967 E.00984
G1 X190.624 Y132.033 E3.69945
G1 X190.61 Y132.176 E.00984
G1 X190.519 Y132.288 E.00984
G1 X152.288 Y170.519 E3.69945
G1 X152.176 Y170.61 E.00984
M73 P4 R72
M73 Q4 S72
G1 X152.033 Y170.624 E.00984
G1 X97.967 Y170.624 E3.69945
G1 X97.824 Y170.61 E.00984
G1 X97.712 Y170.519 E.00984
G1 X59.481 Y132.288 E3.69945
G1 X59.39 Y132.176 E.00984
G1 X59.376 Y132.033 E.00984
G1 X59.376 Y77.967 E3.69945
G1 X59.39 Y77.824 E.00984
G1 X59.481 Y77.712 E.00984
G1 X97.64 Y39.553 E3.69249
G1 X97.644 Y39.33 F4200
; stop printing object OV-PAM_large_1F.stl id:0 copy 0
;LAYER_CHANGE
;Z:1.4
;HEIGHT:0.2
;BEFORE_LAYER_CHANGE
G92 E0.0
;1.4


M73 P5 R72
M73 Q5 S72
G1 E-1 F2400
G1 Z1.4 F720
;AFTER_LAYER_CHANGE
;1.4
; printing object OV-PAM_large_1F.stl id:0 copy 0
G1 X97.776 Y39.682 F4200
G1 E1 F1500
;WIDTH:0.643115
G1 F1200
G1 X97.9 Y39.574 E.00903
G1 X98.015 Y39.563 E.00634
G1 X152.1 Y39.574 E2.96915
G1 X190.426 Y77.9 E2.97545
G1 X190.426 Y132.1 E2.97545
G1 X152.1 Y170.426 E2.97545
G1 X97.9 Y170.426 E2.97545
G1 X59.574 Y132.1 E2.97545
G1 X59.574 Y77.9 E2.97545
G1 X97.733 Y39.724 E2.96315
G1 X97.72 Y39.527 F4200
; stop printing object OV-PAM_large_1F.stl id:0 copy 0
;LAYER_CHANGE
;Z:1.6
;HEIGHT:0.2
;BEFORE_LAYER_CHANGE
G92 E0.0
;1.6


G1 E-1 F2400
G1 Z1.6 F720
;AFTER_LAYER_CHANGE
;1.6
; printing object OV-PAM_large_1F.stl id:0 copy 0
G1 X97.816 Y39.805 F4200
G1 E1 F1500
;WIDTH:0.645607
G1 F1200
G1 X97.941 Y39.691 E.00935
G1 X98.062 Y39.678 E.0067
G1 X152.047 Y39.686 E2.97592
G1 X152.142 Y39.763 E.0067
G1 X190.309 Y77.941 E2.97592
G1 X190.322 Y78.062 E.0067
G1 X190.314 Y132.047 E2.97592
G1 X190.237 Y132.142 E.0067
G1 X152.059 Y170.309 E2.97592
G1 X151.938 Y170.322 E.0067
G1 X97.953 Y170.314 E2.97592
G1 X97.858 Y170.237 E.0067
G1 X59.691 Y132.059 E2.97592
G1 X59.678 Y131.938 E.0067
G1 X59.686 Y77.953 E2.97592
G1 X59.763 Y77.858 E.0067
G1 X97.774 Y39.847 E2.96328
G1 X97.978 Y39.854 F4200
; stop printing object OV-PAM_large_1F.stl id:0 copy 0
;LAYER_CHANGE
;Z:1.8
;HEIGHT:0.2
;BEFORE_LAYER_CHANGE
G92 E0.0
;1.8


M73 P6 R72
M73 Q6 S72
G1 E-1 F2400
G1 Z1.8 F720
;AFTER_LAYER_CHANGE
;1.8
; printing object OV-PAM_large_1F.stl id:0 copy 0
G1 X97.829 Y39.955 F4200
G1 E1 F1500
;WIDTH:0.663885
G1 F1200
G1 X97.952 Y39.815 E.01053
G1 X98.11 Y39.794 E.0091
G1 X151.966 Y39.781 E3.05885
G1 X152.094 Y39.878 E.0091
M73 P6 R71
M73 Q6 S71
G1 X190.185 Y77.952 E3.05885
G1 X190.206 Y78.11 E.0091
G1 X190.219 Y131.966 E3.05885
G1 X190.122 Y132.094 E.0091
G1 X152.048 Y170.185 E3.05885
G1 X151.89 Y170.206 E.0091
G1 X98.034 Y170.219 E3.05885
G1 X97.906 Y170.122 E.0091
G1 X59.815 Y132.048 E3.05885
G1 X59.794 Y131.89 E.0091
G1 X59.781 Y78.034 E3.05885
G1 X59.878 Y77.906 E.0091
G1 X97.787 Y39.997 E3.04493
G1 X98.01 Y39.995 F4200
; stop printing object OV-PAM_large_1F.stl id:0 copy 0
;LAYER_CHANGE
;Z:2
;HEIGHT:0.2
;BEFORE_LAYER_CHANGE
G92 E0.0
;2


G1 E-1 F2400
G1 Z2 F720
;AFTER_LAYER_CHANGE
;2
; printing object OV-PAM_large_1F.stl id:0 copy 0
G1 X97.85 Y40.087 F4200
G1 E1 F1500
;WIDTH:0.620272
G1 F1200
G1 X97.877 Y40.049 E.00249
;WIDTH:0.680482
G1 F1176.357
G1 X97.945 Y39.948 E.00706
G1 X98.158 Y39.909 E.01264
;WIDTH:0.620272
G1 F1200
G1 X151.656 Y39.909 E2.82508
G1 X151.749 Y39.894 E.00499
;WIDTH:0.680482
G1 F1176.356
G1 X151.868 Y39.871 E.00706
G1 X152.046 Y39.994 E.01264
;WIDTH:0.620272
G1 F1200
G1 X189.875 Y77.822 E2.82508
G1 X189.951 Y77.877 E.00499
;WIDTH:0.680482
G1 F1176.357
G1 X190.052 Y77.945 E.00706
G1 X190.091 Y78.158 E.01264
;WIDTH:0.620272
G1 F1200
G1 X190.091 Y131.656 E2.82508
G1 X190.106 Y131.749 E.00499
;WIDTH:0.680482
G1 F1176.356
G1 X190.129 Y131.868 E.00706
;WIDTH:0.698984
G1 F1143.182
G1 X190.006 Y132.046 E.01301
;WIDTH:0.620272
G1 F1200
G1 X152.178 Y169.875 E2.82508
G1 X152.123 Y169.951 E.00499
;WIDTH:0.680482
G1 F1176.357
G1 X152.055 Y170.052 E.00706
G1 X151.842 Y170.091 E.01264
;WIDTH:0.620272
G1 F1200
G1 X98.344 Y170.091 E2.82508
G1 X98.251 Y170.106 E.00499
;WIDTH:0.680482
G1 F1176.356
G1 X98.132 Y170.129 E.00706
G1 X97.954 Y170.006 E.01264
;WIDTH:0.620272
G1 F1200
G1 X60.125 Y132.178 E2.82508
G1 X60.049 Y132.123 E.00499
;WIDTH:0.680482
G1 F1176.357
G1 X59.948 Y132.055 E.00706
G1 X59.909 Y131.842 E.01264
;WIDTH:0.620272
G1 F1200
G1 X59.909 Y78.344 E2.82508
G1 X59.894 Y78.251 E.00499
;WIDTH:0.680482
G1 F1176.356
G1 X59.871 Y78.132 E.00706
G1 X59.994 Y77.954 E.01264
;WIDTH:0.620272
G1 F1200
G1 X97.813 Y40.134 E2.8244
; stop printing object OV-PAM_large_1F.stl id:0 copy 0
;LAYER_CHANGE
;Z:2.2
;HEIGHT:0.2
;BEFORE_LAYER_CHANGE
G92 E0.0
;2.2


G1 E-1 F2400
G1 Z2.2 F720
;AFTER_LAYER_CHANGE
;2.2
; printing object OV-PAM_large_1F.stl id:0 copy 0
G1 X97.892 Y40.152 F4200
G1 E1 F1500
;WIDTH:0.748829
G1 F1062.46
G1 X97.931 Y40.089 E.00482
G1 X98.086 Y40.049 E.01034
;WIDTH:0.669799
G1 F1196.403
G1 X98.206 Y40.025 E.007
G1 X151.486 Y40.025 E3.05497
G1 X151.668 Y39.982 E.0107
;WIDTH:0.748828
M73 P7 R71
M73 Q7 S71
G1 F1062.461
G1 X151.759 Y39.96 E.00602
G1 X151.896 Y40.042 E.01034
;WIDTH:0.669801
G1 F1196.399
G1 X151.998 Y40.109 E.007
G1 X189.673 Y77.784 E3.05498
G1 X189.832 Y77.882 E.0107
;WIDTH:0.748829
G1 F1062.46
G1 X189.911 Y77.931 E.00602
G1 X189.951 Y78.086 E.01034
;WIDTH:0.669799
G1 F1196.403
G1 X189.975 Y78.206 E.007
G1 X189.975 Y131.486 E3.05497
G1 X190.018 Y131.668 E.0107
;WIDTH:0.748828
G1 F1062.461
G1 X190.04 Y131.759 E.00602
;WIDTH:0.748829
G1 X189.958 Y131.896 E.01034
;WIDTH:0.669802
G1 F1196.399
G1 X189.891 Y131.998 E.007
G1 X152.216 Y169.673 E3.05498
G1 X152.118 Y169.832 E.0107
;WIDTH:0.748829
G1 F1062.46
G1 X152.069 Y169.911 E.00602
G1 X151.914 Y169.951 E.01034
;WIDTH:0.669799
G1 F1196.403
G1 X151.794 Y169.975 E.007
G1 X98.514 Y169.975 E3.05497
G1 X98.332 Y170.018 E.0107
;WIDTH:0.748828
G1 F1062.461
G1 X98.241 Y170.04 E.00602
G1 X98.104 Y169.958 E.01034
;WIDTH:0.669802
G1 F1196.399
G1 X98.002 Y169.891 E.007
G1 X60.327 Y132.216 E3.05498
G1 X60.168 Y132.118 E.0107
;WIDTH:0.748829
G1 F1062.46
G1 X60.089 Y132.069 E.00602
G1 X60.049 Y131.914 E.01034
;WIDTH:0.669799
G1 F1196.403
G1 X60.025 Y131.794 E.007
G1 X60.025 Y78.514 E3.05497
G1 X59.982 Y78.332 E.0107
;WIDTH:0.748828
M73 P7 R70
M73 Q7 S70
G1 F1062.461
G1 X59.96 Y78.241 E.00602
G1 X60.042 Y78.104 E.01034
;WIDTH:0.669802
G1 F1196.399
G1 X60.109 Y78.002 E.007
G1 X97.784 Y40.327 E3.05498
G1 X97.86 Y40.203 E.00833
G1 X97.966 Y40.16 F4200
; stop printing object OV-PAM_large_1F.stl id:0 copy 0
;LAYER_CHANGE
;Z:2.4
;HEIGHT:0.2
;BEFORE_LAYER_CHANGE
G92 E0.0
;2.4


G1 E-1 F2400
G1 Z2.4 F720
;AFTER_LAYER_CHANGE
;2.4
; printing object OV-PAM_large_1F.stl id:0 copy 0
