; generated by PrusaSlicer 2.5.2+win64 on 2023-10-26 at 05:51:57 UTC


;
;
; 

; external perimeters extrusion width = 0.50mm
; perimeters extrusion width = 0.50mm
; infill extrusion width = 0.50mm
; solid infill extrusion width = 0.50mm
; top infill extrusion width = 0.50mm
; first layer extrusion width = 0.50mm

M73 P0 R12
M73 Q0 S12
M201 X1000 Y1000 Z200 E5000 ; sets maximum accelerations, mm/sec^2
M203 X200 Y200 Z12 E120 ; sets maximum feedrates, mm / sec
M204 P1250 R1250 T1250 ; sets acceleration (P, T) and retract acceleration (R), mm/sec^2
M205 X8.00 Y8.00 Z0.40 E4.50 ; sets the jerk limits, mm/sec
M205 S0 T0 ; sets the minimum extruding and travel feed rate, mm/sec
M107
;TYPE:Custom
M862.3 P "MK3S" ; printer model check
M862.1 P0.4 ; nozzle diameter check
M115 U3.12.2 ; tell printer latest fw version
G90 ; use absolute coordinates
M83 ; extruder relative mode
M104 S240 ; set extruder temp
M140 S60 ; set bed temp
M190 S60 ; wait for bed temp
M109 S240 ; wait for extruder temp
G28 W ; home all without mesh bed level
G80 ; mesh bed leveling

G1 Z0.2 F720
G1 Y-3 F1000 ; go outside print area
G92 E0
G1 X60 E9 F1000 ; intro line
G1 X100 E12.5 F1000 ; intro line

G92 E0
M221 S95

; Don't change E values below. Excessive value can damage the printer.
M907 E430 ; set extruder motor current
G21 ; set units to millimeters
G90 ; use absolute coordinates
M83 ; use relative distances for extrusion
M900 K0 ; Filament gcode
M107
;LAYER_CHANGE
;Z:0.2
;HEIGHT:0.2
;BEFORE_LAYER_CHANGE
G92 E0.0
;0.2


G1 E-1 F2400
G1 Z.2 F720
;AFTER_LAYER_CHANGE
;0.2
G1 X105.66 Y95.557 F4200
G1 E1 F1500
M204 S300
;TYPE:Skirt/Brim
;WIDTH:0.5
M73 P1 R12
M73 Q1 S12
G1 F1200
G1 X115.557 Y85.66 E.58517
G1 X116.969 Y84.805 E.06902
G1 X118.001 Y84.647 E.04365
G1 X131.999 Y84.647 E.58517
G1 X133.602 Y85.041 E.06902
G1 X134.443 Y85.66 E.04365
G1 X144.34 Y95.557 E.58517
G1 X145.195 Y96.969 E.06902
G1 X145.353 Y98.001 E.04365
G1 X145.353 Y111.999 E.58517
G1 X144.959 Y113.602 E.06902
G1 X144.34 Y114.443 E.04365
G1 X134.443 Y124.34 E.58517
G1 X133.031 Y125.195 E.06902
G1 X131.999 Y125.353 E.04365
G1 X118.001 Y125.353 E.58517
G1 X116.398 Y124.959 E.06902
G1 X115.557 Y124.34 E.04365
G1 X105.66 Y114.443 E.58517
G1 X104.805 Y113.031 E.06902
G1 X104.647 Y111.999 E.04365
G1 X104.647 Y98.001 E.58517
G1 X105.041 Y96.398 E.06902
G1 X105.624 Y95.605 E.04114
; printing object OV-PAM_tendon_1F.stl id:0 copy 0
G1 E-1 F2400
G1 X131.938 Y121.597 F4200
G1 E1 F1500
;TYPE:External perimeter
;WIDTH:0.562701
G1 F1200
G1 X131.891 Y121.636 E.0029
G1 X131.791 Y121.646 E.00475
G1 X118.109 Y121.636 E.65048
G1 X108.364 Y111.891 E.65521
M73 P2 R12
M73 Q2 S12
G1 X108.364 Y98.109 E.65521
G1 X118.109 Y88.364 E.65521
G1 X131.891 Y88.364 E.65521
G1 X141.636 Y98.109 E.65521
G1 X141.636 Y111.891 E.65521
G1 X131.983 Y121.558 E.64948
G1 X131.958 Y121.655 F4200
; stop printing object OV-PAM_tendon_1F.stl id:0 copy 0
;LAYER_CHANGE
;Z:0.4
;HEIGHT:0.2
;BEFORE_LAYER_CHANGE
G92 E0.0
;0.4


G1 E-1 F2400
G1 Z.4 F720
;AFTER_LAYER_CHANGE
;0.4
G1 X131.968 Y121.543 F4200
G1 X131.955 Y121.556
G1 X133.875 Y124.684
G1 E1 F1500
;TYPE:Skirt/Brim
;WIDTH:0.5
G1 F1200
G1 X133.031 Y125.195 E.04128
G1 X131.999 Y125.353 E.04365
G1 X118.001 Y125.353 E.58517
G1 X116.398 Y124.959 E.06902
G1 X115.557 Y124.34 E.04365
G1 X105.66 Y114.443 E.58517
G1 X104.805 Y113.031 E.06902
G1 X104.647 Y111.999 E.04365
G1 X104.647 Y98.001 E.58517
M73 P3 R12
M73 Q3 S12
G1 X105.041 Y96.398 E.06902
G1 X105.66 Y95.557 E.04365
G1 X115.557 Y85.66 E.58517
G1 X116.969 Y84.805 E.06902
G1 X118.001 Y84.647 E.04365
G1 X131.999 Y84.647 E.58517
G1 X133.602 Y85.041 E.06902
G1 X134.443 Y85.66 E.04365
G1 X144.34 Y95.557 E.58517
G1 X145.195 Y96.969 E.06902
G1 X145.353 Y98.001 E.04365
G1 X145.353 Y111.999 E.58517
G1 X144.959 Y113.602 E.06902
G1 X144.34 Y114.443 E.04365
G1 X134.443 Y124.34 E.58517
G1 X133.927 Y124.653 E.02524
; printing object OV-PAM_tendon_1F.stl id:0 copy 0
G1 E-1 F2400
G1 X132.025 Y121.74 F4200
G1 X132.055 Y121.713
G1 X131.946 Y121.591
G1 E1 F1500
;TYPE:External perimeter
;WIDTH:0.562701
G1 F1200
G1 X131.891 Y121.636 E.00341
G1 X131.791 Y121.646 E.00475
G1 X118.109 Y121.636 E.65048
G1 X108.364 Y111.891 E.65521
G1 X108.364 Y98.109 E.65521
G1 X118.109 Y88.364 E.65521
G1 X131.891 Y88.364 E.65521
M73 P4 R12
M73 Q4 S12
G1 X141.636 Y98.109 E.65521
G1 X141.636 Y111.891 E.65521
G1 X131.991 Y121.55 E.64897
G1 X131.969 Y121.659 F4200
; stop printing object OV-PAM_tendon_1F.stl id:0 copy 0
;LAYER_CHANGE
;Z:0.6
;HEIGHT:0.2
;BEFORE_LAYER_CHANGE
G92 E0.0
;0.6


G1 E-1 F2400
G1 Z.6 F720
;AFTER_LAYER_CHANGE
;0.6
G1 X131.976 Y121.535 F4200
G1 X131.961 Y121.55
G1 X133.884 Y124.679
G1 E1 F1500
;TYPE:Skirt/Brim
;WIDTH:0.5
G1 F1200
G1 X133.031 Y125.195 E.04172
G1 X131.999 Y125.353 E.04365
G1 X118.001 Y125.353 E.58517
G1 X116.398 Y124.959 E.06902
G1 X115.557 Y124.34 E.04365
G1 X105.66 Y114.443 E.58517
G1 X104.805 Y113.031 E.06902
G1 X104.647 Y111.999 E.04365
G1 X104.647 Y98.001 E.58517
G1 X105.041 Y96.398 E.06902
G1 X105.66 Y95.557 E.04365
G1 X115.557 Y85.66 E.58517
G1 X116.969 Y84.805 E.06902
G1 X118.001 Y84.647 E.04365
G1 X131.999 Y84.647 E.58517
G1 X133.602 Y85.041 E.06902
G1 X134.443 Y85.66 E.04365
M73 P5 R12
M73 Q5 S12
G1 X144.34 Y95.557 E.58517
G1 X145.195 Y96.969 E.06902
G1 X145.353 Y98.001 E.04365
G1 X145.353 Y111.999 E.58517
G1 X144.959 Y113.602 E.06902
G1 X144.34 Y114.443 E.04365
G1 X134.443 Y124.34 E.58517
G1 X133.936 Y124.648 E.0248
; printing object OV-PAM_tendon_1F.stl id:0 copy 0
G1 E-1 F2400
G1 X132.033 Y121.733 F4200
G1 X132.064 Y121.705
G1 X131.956 Y121.583
G1 E1 F1500
;TYPE:External perimeter
;WIDTH:0.562701
G1 F1200
G1 X131.891 Y121.636 E.00399
G1 X131.791 Y121.646 E.00475
G1 X118.109 Y121.636 E.65048
G1 X108.364 Y111.891 E.65521
G1 X108.364 Y98.109 E.65521
G1 X118.109 Y88.364 E.65521
G1 X131.891 Y88.364 E.65521
G1 X141.636 Y98.109 E.65521
G1 X141.636 Y111.891 E.65521
G1 X131.999 Y121.542 E.64839
M73 P6 R12
M73 Q6 S12
G1 X131.983 Y121.662 F4200
; stop printing object OV-PAM_tendon_1F.stl id:0 copy 0
;LAYER_CHANGE
;Z:0.8
;HEIGHT:0.2
;BEFORE_LAYER_CHANGE
G92 E0.0
;0.8


G1 E-1 F2400
G1 Z.8 F720
;AFTER_LAYER_CHANGE
;0.8
; printing object OV-PAM_tendon_1F.stl id:0 copy 0
G1 X131.966 Y121.574 F4200
G1 E1 F1500
G1 F1200
G1 X131.891 Y121.636 E.00463
G1 X131.791 Y121.646 E.00475
G1 X118.109 Y121.636 E.65048
G1 X108.364 Y111.891 E.65521
G1 X108.364 Y98.109 E.65521
G1 X118.109 Y88.364 E.65521
G1 X131.891 Y88.364 E.65521
M73 P6 R11
M73 Q6 S11
G1 X141.636 Y98.109 E.65521
G1 X141.636 Y111.891 E.65521
G1 X132.009 Y121.532 E.64775
G1 X131.998 Y121.667 F4200
; stop printing object OV-PAM_tendon_1F.stl id:0 copy 0
;LAYER_CHANGE
;Z:1
;HEIGHT:0.2
;BEFORE_LAYER_CHANGE
G92 E0.0
;1


G1 E-1 F2400
G1 Z1 F720
;AFTER_LAYER_CHANGE
;1
; printing object OV-PAM_tendon_1F.stl id:0 copy 0
G1 X131.979 Y121.562 F4200
G1 E1 F1500
G1 F1200
G1 X131.891 Y121.636 E.0055
G1 X131.791 Y121.646 E.00475
G1 X118.109 Y121.636 E.65048
G1 X108.364 Y111.891 E.65521
G1 X108.364 Y98.109 E.65521
M73 P7 R11
M73 Q7 S11
G1 X118.109 Y88.364 E.65521
G1 X131.891 Y88.364 E.65521
G1 X141.636 Y98.109 E.65521
G1 X141.636 Y111.891 E.65521
G1 X132.022 Y121.519 E.64688
G1 X132.018 Y121.671 F4200
; stop printing object OV-PAM_tendon_1F.stl id:0 copy 0
;LAYER_CHANGE
;Z:1.2
;HEIGHT:0.2
;BEFORE_LAYER_CHANGE
G92 E0.0
;1.2


G1 E-1 F2400
G1 Z1.2 F720
;AFTER_LAYER_CHANGE
;1.2
; printing object OV-PAM_tendon_1F.stl id:0 copy 0
G1 X131.99 Y121.537 F4200
G1 E1 F1500
;WIDTH:0.583094
G1 F1200
G1 X131.887 Y121.626 E.00673
G1 X131.783 Y121.636 E.00513
G1 X118.113 Y121.626 E.67539
G1 X108.374 Y111.887 E.6805
G1 X108.374 Y98.113 E.6805
G1 X118.113 Y88.374 E.6805
G1 X131.887 Y88.374 E.6805
G1 X141.626 Y98.113 E.6805
M73 P8 R11
M73 Q8 S11
G1 X141.626 Y111.887 E.6805
G1 X132.032 Y121.495 E.67083
G1 X132.036 Y121.665 F4200
; stop printing object OV-PAM_tendon_1F.stl id:0 copy 0
;LAYER_CHANGE
;Z:1.4
;HEIGHT:0.2
;BEFORE_LAYER_CHANGE
G92 E0.0
;1.4


G1 E-1 F2400
G1 Z1.4 F720
;AFTER_LAYER_CHANGE
;1.4
; printing object OV-PAM_tendon_1F.stl id:0 copy 0
G1 X131.962 Y121.442 F4200
G1 E1 F1500
;WIDTH:0.643113
G1 F1200
G1 X131.85 Y121.538 E.00811
G1 X131.735 Y121.55 E.00634
G1 X118.15 Y121.538 E.74582
G1 X108.462 Y111.85 E.75212
G1 X108.462 Y98.15 E.75212
G1 X118.15 Y88.462 E.75212
G1 X131.85 Y88.462 E.75212
G1 X141.538 Y98.15 E.75212
G1 X141.538 Y111.85 E.75212
G1 X132.005 Y121.4 E.74074
M73 P9 R11
M73 Q9 S11
G1 X132.012 Y121.581 F4200
; stop printing object OV-PAM_tendon_1F.stl id:0 copy 0
;LAYER_CHANGE
;Z:1.6
;HEIGHT:0.2
;BEFORE_LAYER_CHANGE
G92 E0.0
;1.6


G1 E-1 F2400
G1 Z1.6 F720
;AFTER_LAYER_CHANGE
;1.6
; printing object OV-PAM_tendon_1F.stl id:0 copy 0
G1 X131.916 Y121.326 F4200
G1 E1 F1500
;WIDTH:0.643113
G1 F1200
G1 X131.802 Y121.423 E.00819
G1 X131.688 Y121.434 E.00634
G1 X118.198 Y121.423 E.74056
G1 X108.577 Y111.802 E.74687
G1 X108.577 Y98.198 E.74687
G1 X118.198 Y88.577 E.74687
G1 X131.802 Y88.577 E.74687
G1 X141.423 Y98.198 E.74687
G1 X141.423 Y111.802 E.74687
G1 X131.958 Y121.283 E.73541
G1 X131.769 Y121.299 F4200
; stop printing object OV-PAM_tendon_1F.stl id:0 copy 0
;LAYER_CHANGE
;Z:1.8
;HEIGHT:0.2
;BEFORE_LAYER_CHANGE
G92 E0.0
;1.8


G1 E-1 F2400
G1 Z1.8 F720
;AFTER_LAYER_CHANGE
;1.8
; printing object OV-PAM_tendon_1F.stl id:0 copy 0
G1 X131.87 Y121.208 F4200
G1 E1 F1500
;WIDTH:0.644832
G1 F1200
G1 X131.759 Y121.306 E.00818
G1 X131.64 Y121.319 E.00659
G1 X118.249 Y121.31 E.73722
G1 X108.694 Y111.759 E.74378
G1 X108.69 Y98.249 E.74378
M73 P10 R11
M73 Q10 S11
G1 X118.241 Y88.694 E.74378
G1 X131.751 Y88.69 E.74378
G1 X141.306 Y98.241 E.74378
G1 X141.31 Y111.751 E.74378
G1 X131.913 Y121.165 E.7323
G1 X131.724 Y121.183 F4200
; stop printing object OV-PAM_tendon_1F.stl id:0 copy 0
;LAYER_CHANGE
;Z:2
;HEIGHT:0.2
;BEFORE_LAYER_CHANGE
G92 E0.0
;2


G1 E-1 F2400
G1 Z2 F720
;AFTER_LAYER_CHANGE
;2
; printing object OV-PAM_tendon_1F.stl id:0 copy 0
G1 X131.827 Y121.088 F4200
G1 E1 F1500
;WIDTH:0.652302
G1 F1200
G1 X131.728 Y121.187 E.00778
G1 X131.592 Y121.203 E.00763
G1 X118.311 Y121.203 E.74022
G1 X118.204 Y121.119 E.00763
G1 X108.813 Y111.728 E.74022
G1 X108.797 Y111.592 E.00763
G1 X108.797 Y98.311 E.74022
G1 X108.881 Y98.204 E.00763
G1 X118.272 Y88.813 E.74022
G1 X118.408 Y88.797 E.00763
G1 X131.689 Y88.797 E.74022
G1 X131.796 Y88.881 E.00763
M73 P11 R11
M73 Q11 S11
G1 X141.187 Y98.272 E.74022
G1 X141.203 Y98.408 E.00763
G1 X141.203 Y111.689 E.74022
G1 X141.119 Y111.796 E.00763
G1 X131.869 Y121.046 E.7291
G1 X131.692 Y121.052 F4200
; stop printing object OV-PAM_tendon_1F.stl id:0 copy 0
;LAYER_CHANGE
;Z:2.2
;HEIGHT:0.2
;BEFORE_LAYER_CHANGE
G92 E0.0
;2.2


G1 E-1 F2400
G1 Z2.2 F720
;AFTER_LAYER_CHANGE
;2.2
; printing object OV-PAM_tendon_1F.stl id:0 copy 0
G1 X131.81 Y120.942 F4200
G1 E1 F1500
;WIDTH:0.66514
G1 F1200
G1 X131.705 Y121.065 E.00921
G1 X131.544 Y121.088 E.00925
G1 X118.526 Y121.088 E.74086
G1 X118.381 Y121.101 E.00828
G1 X118.252 Y121.003 E.00925
G1 X109.047 Y111.798 E.74086
G1 X108.935 Y111.705 E.00828
G1 X108.912 Y111.544 E.00925
G1 X108.912 Y98.526 E.74086
G1 X108.899 Y98.381 E.00828
G1 X108.997 Y98.252 E.00925
G1 X118.202 Y89.047 E.74086
G1 X118.295 Y88.935 E.00828
G1 X118.456 Y88.912 E.00925
G1 X131.474 Y88.912 E.74086
G1 X131.619 Y88.899 E.00828
G1 X131.748 Y88.997 E.00925
G1 X140.953 Y98.202 E.74086
G1 X141.065 Y98.295 E.00828
G1 X141.088 Y98.456 E.00925
G1 X141.088 Y111.474 E.74086
G1 X141.101 Y111.619 E.00828
G1 X141.003 Y111.748 E.00925
G1 X131.852 Y120.899 E.73652
G1 X131.651 Y120.909 F4200
; stop printing object OV-PAM_tendon_1F.stl id:0 copy 0
;LAYER_CHANGE
;Z:2.4
;HEIGHT:0.2
;BEFORE_LAYER_CHANGE
G92 E0.0
;2.4


M73 P12 R11
M73 Q12 S11
G1 E-1 F2400
G1 Z2.4 F720
;AFTER_LAYER_CHANGE
;2.4
; printing object OV-PAM_tendon_1F.stl id:0 copy 0
G1 X131.796 Y120.793 F4200
G1 E1 F1500
;WIDTH:0.62027
G1 F1200
G1 X131.712 Y120.9 E.00716
;WIDTH:0.683382
G1 F1171.031
G1 X131.687 Y120.941 E.00282
G1 X131.496 Y120.972 E.01133
;WIDTH:0.62027
G1 F1200
G1 X118.643 Y120.972 E.67875
G1 X118.504 Y120.989 E.00741
;WIDTH:0.683381
G1 F1171.032
G1 X118.457 Y121 E.00282
G1 X118.3 Y120.888 E.01133
;WIDTH:0.62027
G1 F1200
G1 X109.211 Y111.799 E.67875
G1 X109.1 Y111.712 E.00741
;WIDTH:0.683382
G1 F1171.031
G1 X109.059 Y111.687 E.00282
G1 X109.028 Y111.496 E.01133
;WIDTH:0.62027
G1 F1200
G1 X109.028 Y98.643 E.67875
G1 X109.011 Y98.504 E.00741
;WIDTH:0.683381
G1 F1171.032
G1 X109 Y98.457 E.00282
G1 X109.112 Y98.3 E.01133
;WIDTH:0.62027
G1 F1200
G1 X118.201 Y89.211 E.67875
G1 X118.288 Y89.1 E.00741
;WIDTH:0.683382
G1 F1171.031
G1 X118.313 Y89.059 E.00282
G1 X118.504 Y89.028 E.01133
;WIDTH:0.62027
G1 F1200
G1 X131.357 Y89.028 E.67875
G1 X131.496 Y89.011 E.00741
;WIDTH:0.683381
G1 F1171.032
G1 X131.543 Y89 E.00282
G1 X131.7 Y89.112 E.01133
;WIDTH:0.62027
G1 F1200
G1 X140.789 Y98.201 E.67875
G1 X140.9 Y98.288 E.00741
;WIDTH:0.683382
G1 F1171.031
G1 X140.941 Y98.313 E.00282
G1 X140.972 Y98.504 E.01133
;WIDTH:0.62027
G1 F1200
G1 X140.972 Y111.357 E.67875
G1 X140.989 Y111.496 E.00741
;WIDTH:0.683381
G1 F1171.032
G1 X141 Y111.543 E.00282
;WIDTH:0.683381
G1 X140.888 Y111.7 E.01133
;WIDTH:0.62027
G1 F1200
G1 X131.838 Y120.75 E.67584
; stop printing object OV-PAM_tendon_1F.stl id:0 copy 0
;LAYER_CHANGE
;Z:2.6
;HEIGHT:0.2
;BEFORE_LAYER_CHANGE
G92 E0.0
;2.6


G1 E-1 F2400
G1 Z2.6 F720
;AFTER_LAYER_CHANGE
;2.6
; printing object OV-PAM_tendon_1F.stl id:0 copy 0
G1 X131.753 Y120.693 F4200
G1 E1 F1500
G1 F1200
G1 X131.739 Y120.712 E.00123
;WIDTH:0.695306
G1 F1149.628
G1 X131.672 Y120.813 E.00726
G1 X131.448 Y120.857 E.0136
;WIDTH:0.62027
G1 F1200
G1 X118.76 Y120.857 E.67007
G1 X118.656 Y120.875 E.00558
;WIDTH:0.695302
G1 F1149.633
G1 X118.536 Y120.9 E.00726
G1 X118.347 Y120.772 E.0136
;WIDTH:0.62027
G1 F1200
G1 X109.375 Y111.8 E.67007
G1 X109.288 Y111.739 E.00558
;WIDTH:0.695306
G1 F1149.628
G1 X109.187 Y111.672 E.00726
G1 X109.143 Y111.448 E.0136
;WIDTH:0.62027
G1 F1200
G1 X109.143 Y98.76 E.67007
G1 X109.125 Y98.656 E.00558
;WIDTH:0.695302
M73 P13 R11
M73 Q13 S11
G1 F1149.633
G1 X109.1 Y98.536 E.00726
G1 X109.228 Y98.347 E.0136
;WIDTH:0.62027
G1 F1200
G1 X118.2 Y89.375 E.67007
G1 X118.261 Y89.288 E.00558
;WIDTH:0.695306
G1 F1149.628
G1 X118.328 Y89.187 E.00726
G1 X118.552 Y89.143 E.0136
;WIDTH:0.62027
G1 F1200
G1 X131.24 Y89.143 E.67007
G1 X131.344 Y89.125 E.00558
;WIDTH:0.695302
G1 F1149.633
G1 X131.464 Y89.1 E.00726
G1 X131.653 Y89.228 E.0136
;WIDTH:0.62027
G1 F1200
G1 X140.625 Y98.2 E.67007
G1 X140.712 Y98.261 E.00558
;WIDTH:0.695306
G1 F1149.628
G1 X140.813 Y98.328 E.00726
G1 X140.857 Y98.552 E.0136
;WIDTH:0.62027
G1 F1200
G1 X140.857 Y111.24 E.67007
G1 X140.875 Y111.344 E.00558
;WIDTH:0.695302
G1 F1149.633
G1 X140.9 Y111.464 E.00726
;WIDTH:0.706991
G1 F1129.398
G1 X140.772 Y111.653 E.01384
;WIDTH:0.62027
G1 F1200
G1 X131.787 Y120.643 E.67123
; stop printing object OV-PAM_tendon_1F.stl id:0 copy 0
;LAYER_CHANGE
;Z:2.8
;HEIGHT:0.2
;BEFORE_LAYER_CHANGE
G92 E0.0
;2.8


G1 E-1 F2400
G1 Z2.8 F720
;AFTER_LAYER_CHANGE
;2.8
; printing object OV-PAM_tendon_1F.stl id:0 copy 0
G1 X131.725 Y120.58 F4200
G1 E1 F1500
;WIDTH:0.669799
G1 F1196.404
G1 X131.706 Y120.609 E.00201
;WIDTH:0.735284
G1 F1083.246
G1 X131.659 Y120.684 E.00557
G1 X131.52 Y120.716 E.00903
;WIDTH:0.669798
G1 F1196.405
G1 X131.401 Y120.741 E.007
G1 X118.876 Y120.741 E.71812
G1 X118.704 Y120.78 E.01009
;WIDTH:0.735282
G1 F1083.248
G1 X118.619 Y120.799 E.00557
G1 X118.497 Y120.724 E.00903
;WIDTH:0.669799
G1 F1196.404
G1 X118.395 Y120.657 E.007
G1 X109.539 Y111.801 E.71812
G1 X109.391 Y111.706 E.01009
;WIDTH:0.735284
G1 F1083.246
G1 X109.316 Y111.659 E.00557
G1 X109.284 Y111.52 E.00903
;WIDTH:0.669798
G1 F1196.405
G1 X109.259 Y111.401 E.007
G1 X109.259 Y98.876 E.71812
G1 X109.22 Y98.704 E.01009
;WIDTH:0.735282
G1 F1083.248
G1 X109.201 Y98.619 E.00557
G1 X109.276 Y98.497 E.00903
;WIDTH:0.669799
G1 F1196.404
G1 X109.343 Y98.395 E.007
G1 X118.199 Y89.539 E.71812
G1 X118.294 Y89.391 E.01009
;WIDTH:0.735284
G1 F1083.246
G1 X118.341 Y89.316 E.00557
G1 X118.48 Y89.284 E.00903
;WIDTH:0.669798
G1 F1196.405
G1 X118.599 Y89.259 E.007
G1 X131.124 Y89.259 E.71812
