; generated by PrusaSlicer 2.5.2+win64 on 2023-08-31 at 05:13:22 UTC


;
;
; 

; external perimeters extrusion width = 0.60mm
; perimeters extrusion width = 0.60mm
; infill extrusion width = 0.60mm
; solid infill extrusion width = 0.60mm
; top infill extrusion width = 0.60mm
; first layer extrusion width = 0.60mm

M73 P0 R40
M73 Q0 S40
M201 X1000 Y1000 Z200 E5000 ; sets maximum accelerations, mm/sec^2
M203 X200 Y200 Z12 E120 ; sets maximum feedrates, mm / sec
M204 P1250 R1250 T1250 ; sets acceleration (P, T) and retract acceleration (R), mm/sec^2
M205 X8.00 Y8.00 Z0.40 E4.50 ; sets the jerk limits, mm/sec
M205 S0 T0 ; sets the minimum extruding and travel feed rate, mm/sec
M107
;TYPE:Custom
M862.3 P "MK3S" ; printer model check
M862.1 P0.4 ; nozzle diameter check
M115 U3.12.2 ; tell printer latest fw version
G90 ; use absolute coordinates
M83 ; extruder relative mode
M104 S240 ; set extruder temp
M140 S50 ; set bed temp
M190 S50 ; wait for bed temp
M109 S240 ; wait for extruder temp
G28 W ; home all without mesh bed level
G80 ; mesh bed leveling

G1 Z0.2 F720
G1 Y-3 F1000 ; go outside print area
G92 E0
G1 X60 E9 F1000 ; intro line
G1 X100 E12.5 F1000 ; intro line

G92 E0
M221 S95

; Don't change E values below. Excessive value can damage the printer.
M907 E430 ; set extruder motor current
G21 ; set units to millimeters
G90 ; use absolute coordinates
M83 ; use relative distances for extrusion
M900 K0 ; Filament gcode
M107
;LAYER_CHANGE
;Z:0.2
;HEIGHT:0.2
;BEFORE_LAYER_CHANGE
G92 E0.0
;0.2


G1 E-1 F2400
G1 Z.2 F720
;AFTER_LAYER_CHANGE
;0.2
G1 X89.093 Y88.653 F4200
G1 E1 F1500
M204 S300
;TYPE:Skirt/Brim
;WIDTH:0.6
G1 F1200
G1 X108.653 Y69.093 E1.40951
G1 X110.083 Y68.221 E.08535
G1 X111.169 Y68.051 E.05597
G1 X138.831 Y68.051 E1.40951
G1 X140.459 Y68.445 E.08535
G1 X141.347 Y69.093 E.05597
G1 X160.907 Y88.653 E1.40951
G1 X161.779 Y90.083 E.08535
G1 X161.949 Y91.169 E.05597
G1 X161.949 Y118.831 E1.40951
G1 X161.555 Y120.459 E.08535
G1 X160.907 Y121.347 E.05597
G1 X141.347 Y140.907 E1.40951
G1 X139.917 Y141.779 E.08535
G1 X138.831 Y141.949 E.05597
G1 X111.169 Y141.949 E1.40951
G1 X109.541 Y141.555 E.08535
G1 X108.653 Y140.907 E.05597
G1 X89.093 Y121.347 E1.40951
G1 X88.221 Y119.917 E.08535
G1 X88.051 Y118.831 E.05597
G1 X88.051 Y91.169 E1.40951
G1 X88.445 Y89.541 E.08535
G1 X89.058 Y88.702 E.05291
; printing object OV-PAM_h_36mm_1F.stl id:0 copy 0
G1 E-1 F2400
G1 X157.914 Y91.265 F4200
G1 E1 F1500
;TYPE:External perimeter
;WIDTH:0.874574
G1 F901.818
G1 X157.976 Y91.341 E.00746
G1 X157.992 Y91.5 E.01216
G1 X157.992 Y118.5 E2.05382
G1 X157.976 Y118.659 E.01216
G1 X157.875 Y118.783 E.01216
G1 X138.783 Y137.875 E2.05382
G1 X138.659 Y137.976 E.01216
M73 P1 R40
M73 Q1 S40
G1 X138.5 Y137.992 E.01216
G1 X111.5 Y137.992 E2.05382
G1 X111.341 Y137.976 E.01216
G1 X111.217 Y137.875 E.01216
G1 X92.125 Y118.783 E2.05382
G1 X92.024 Y118.659 E.01216
G1 X92.008 Y118.5 E.01216
G1 X92.008 Y91.5 E2.05382
G1 X92.024 Y91.341 E.01216
G1 X92.125 Y91.217 E.01216
G1 X111.217 Y72.125 E2.05382
G1 X111.341 Y72.024 E.01216
G1 X111.5 Y72.008 E.01216
G1 X138.5 Y72.008 E2.05382
G1 X138.659 Y72.024 E.01216
G1 X138.783 Y72.125 E.01216
G1 X157.876 Y91.219 E2.05396
G1 X158.01 Y91.246 F4200
; stop printing object OV-PAM_h_36mm_1F.stl id:0 copy 0
;LAYER_CHANGE
;Z:0.4
;HEIGHT:0.2
;BEFORE_LAYER_CHANGE
G92 E0.0
;0.4


G1 E-1 F2400
G1 Z.4 F720
;AFTER_LAYER_CHANGE
;0.4
G1 X161.225 Y89.175 F4200
G1 E1 F1500
;TYPE:Skirt/Brim
;WIDTH:0.6
G1 F1346.307
G1 X161.779 Y90.083 E.0542
G1 X161.949 Y91.169 E.05597
G1 X161.949 Y118.831 E1.40951
G1 X161.555 Y120.459 E.08535
G1 X160.907 Y121.347 E.05597
G1 X141.347 Y140.907 E1.40951
G1 X139.917 Y141.779 E.08535
G1 X138.831 Y141.949 E.05597
G1 X111.169 Y141.949 E1.40951
G1 X109.541 Y141.555 E.08535
G1 X108.653 Y140.907 E.05597
G1 X89.093 Y121.347 E1.40951
G1 X88.221 Y119.917 E.08535
G1 X88.051 Y118.831 E.05597
G1 X88.051 Y91.169 E1.40951
G1 X88.445 Y89.541 E.08535
G1 X89.093 Y88.653 E.05597
G1 X108.653 Y69.093 E1.40951
G1 X110.083 Y68.221 E.08535
G1 X111.169 Y68.051 E.05597
G1 X138.831 Y68.051 E1.40951
G1 X140.459 Y68.445 E.08535
G1 X141.347 Y69.093 E.05597
G1 X160.907 Y88.653 E1.40951
G1 X161.194 Y89.124 E.0281
; printing object OV-PAM_h_36mm_1F.stl id:0 copy 0
G1 E-1 F2400
G1 X158.089 Y91.158 F4200
G1 X158.059 Y91.123
M73 P1 R39
M73 Q1 S39
G1 X157.905 Y91.254
G1 E1 F1500
;TYPE:External perimeter
;WIDTH:0.874574
G1 F901.818
G1 X157.976 Y91.341 E.0085
G1 X157.992 Y91.5 E.01216
G1 X157.992 Y118.5 E2.05382
G1 X157.976 Y118.659 E.01216
M73 P2 R39
M73 Q2 S39
G1 X157.875 Y118.783 E.01216
G1 X138.783 Y137.875 E2.05382
G1 X138.659 Y137.976 E.01216
G1 X138.5 Y137.992 E.01216
G1 X111.5 Y137.992 E2.05382
G1 X111.341 Y137.976 E.01216
G1 X111.217 Y137.875 E.01216
G1 X92.125 Y118.783 E2.05382
G1 X92.024 Y118.659 E.01216
G1 X92.008 Y118.5 E.01216
G1 X92.008 Y91.5 E2.05382
G1 X92.024 Y91.341 E.01216
G1 X92.125 Y91.217 E.01216
G1 X111.217 Y72.125 E2.05382
G1 X111.341 Y72.024 E.01216
G1 X111.5 Y72.008 E.01216
G1 X138.5 Y72.008 E2.05382
G1 X138.659 Y72.024 E.01216
G1 X138.783 Y72.125 E.01216
G1 X157.866 Y91.209 E2.05292
G1 X158.015 Y91.233 F4200
; stop printing object OV-PAM_h_36mm_1F.stl id:0 copy 0
;LAYER_CHANGE
;Z:0.6
;HEIGHT:0.2
;BEFORE_LAYER_CHANGE
G92 E0.0
;0.6


G1 E-1 F2400
G1 Z.6 F720
;AFTER_LAYER_CHANGE
;0.6
G1 X157.781 Y91.295 F4200
G1 X157.781 Y91.295
G1 X161.219 Y89.164
G1 E1 F1500
;TYPE:Skirt/Brim
;WIDTH:0.6
G1 F1346.307
G1 X161.779 Y90.083 E.05487
G1 X161.949 Y91.169 E.05597
G1 X161.949 Y118.831 E1.40951
G1 X161.555 Y120.459 E.08535
G1 X160.907 Y121.347 E.05597
G1 X141.347 Y140.907 E1.40951
G1 X139.917 Y141.779 E.08535
G1 X138.831 Y141.949 E.05597
G1 X111.169 Y141.949 E1.40951
G1 X109.541 Y141.555 E.08535
G1 X108.653 Y140.907 E.05597
G1 X89.093 Y121.347 E1.40951
G1 X88.221 Y119.917 E.08535
G1 X88.051 Y118.831 E.05597
G1 X88.051 Y91.169 E1.40951
G1 X88.445 Y89.541 E.08535
G1 X89.093 Y88.653 E.05597
G1 X108.653 Y69.093 E1.40951
G1 X110.083 Y68.221 E.08535
G1 X111.169 Y68.051 E.05597
G1 X138.831 Y68.051 E1.40951
G1 X140.459 Y68.445 E.08535
G1 X141.347 Y69.093 E.05597
G1 X160.907 Y88.653 E1.40951
G1 X161.187 Y89.113 E.02742
; printing object OV-PAM_h_36mm_1F.stl id:0 copy 0
G1 E-1 F2400
G1 X158.081 Y91.148 F4200
G1 X158.049 Y91.112
G1 X157.896 Y91.243
G1 E1 F1500
;TYPE:External perimeter
;WIDTH:0.874574
M73 P3 R39
M73 Q3 S39
G1 F901.818
G1 X157.976 Y91.341 E.00964
G1 X157.992 Y91.5 E.01216
G1 X157.992 Y118.5 E2.05382
G1 X157.976 Y118.659 E.01216
G1 X157.875 Y118.783 E.01216
G1 X138.783 Y137.875 E2.05382
G1 X138.659 Y137.976 E.01216
G1 X138.5 Y137.992 E.01216
G1 X111.5 Y137.992 E2.05382
G1 X111.341 Y137.976 E.01216
G1 X111.217 Y137.875 E.01216
G1 X92.125 Y118.783 E2.05382
G1 X92.024 Y118.659 E.01216
G1 X92.008 Y118.5 E.01216
G1 X92.008 Y91.5 E2.05382
G1 X92.024 Y91.341 E.01216
G1 X92.125 Y91.217 E.01216
G1 X111.217 Y72.125 E2.05382
G1 X111.341 Y72.024 E.01216
G1 X111.5 Y72.008 E.01216
G1 X138.5 Y72.008 E2.05382
G1 X138.659 Y72.024 E.01216
G1 X138.783 Y72.125 E.01216
G1 X157.856 Y91.198 E2.05178
G1 X158.02 Y91.218 F4200
; stop printing object OV-PAM_h_36mm_1F.stl id:0 copy 0
;LAYER_CHANGE
;Z:0.8
;HEIGHT:0.2
;BEFORE_LAYER_CHANGE
G92 E0.0
;0.8


G1 E-1 F2400
G1 Z.8 F720
;AFTER_LAYER_CHANGE
;0.8
; printing object OV-PAM_h_36mm_1F.stl id:0 copy 0
G1 X157.885 Y91.23 F4200
G1 E1 F1500
G1 F901.818
G1 X157.976 Y91.341 E.01088
G1 X157.992 Y91.5 E.01216
G1 X157.992 Y118.5 E2.05382
G1 X157.976 Y118.659 E.01216
G1 X157.875 Y118.783 E.01216
G1 X138.783 Y137.875 E2.05382
G1 X138.659 Y137.976 E.01216
G1 X138.5 Y137.992 E.01216
G1 X111.5 Y137.992 E2.05382
G1 X111.341 Y137.976 E.01216
G1 X111.217 Y137.875 E.01216
G1 X92.125 Y118.783 E2.05382
G1 X92.024 Y118.659 E.01216
G1 X92.008 Y118.5 E.01216
G1 X92.008 Y91.5 E2.05382
G1 X92.024 Y91.341 E.01216
G1 X92.125 Y91.217 E.01216
G1 X111.217 Y72.125 E2.05382
G1 X111.341 Y72.024 E.01216
M73 P4 R39
M73 Q4 S39
G1 X111.5 Y72.008 E.01216
G1 X138.5 Y72.008 E2.05382
G1 X138.659 Y72.024 E.01216
G1 X138.783 Y72.125 E.01216
G1 X157.844 Y91.187 E2.05055
G1 X158.026 Y91.202 F4200
; stop printing object OV-PAM_h_36mm_1F.stl id:0 copy 0
;LAYER_CHANGE
;Z:1
;HEIGHT:0.2
;BEFORE_LAYER_CHANGE
G92 E0.0
;1


G1 E-1 F2400
G1 Z1 F720
;AFTER_LAYER_CHANGE
;1
; printing object OV-PAM_h_36mm_1F.stl id:0 copy 0
G1 X157.871 Y91.214 F4200
G1 E1 F1500
G1 F901.818
G1 X157.976 Y91.341 E.01252
G1 X157.992 Y91.5 E.01216
G1 X157.992 Y118.5 E2.05382
G1 X157.976 Y118.659 E.01216
G1 X157.875 Y118.783 E.01216
G1 X138.783 Y137.875 E2.05382
G1 X138.659 Y137.976 E.01216
G1 X138.5 Y137.992 E.01216
G1 X111.5 Y137.992 E2.05382
G1 X111.341 Y137.976 E.01216
M73 P4 R38
M73 Q4 S38
G1 X111.217 Y137.875 E.01216
G1 X92.125 Y118.783 E2.05382
G1 X92.024 Y118.659 E.01216
G1 X92.008 Y118.5 E.01216
G1 X92.008 Y91.5 E2.05382
G1 X92.024 Y91.341 E.01216
G1 X92.125 Y91.217 E.01216
G1 X111.217 Y72.125 E2.05382
G1 X111.341 Y72.024 E.01216
G1 X111.5 Y72.008 E.01216
G1 X138.5 Y72.008 E2.05382
G1 X138.659 Y72.024 E.01216
G1 X138.783 Y72.125 E.01216
G1 X157.829 Y91.171 E2.0489
G1 X158.033 Y91.181 F4200
; stop printing object OV-PAM_h_36mm_1F.stl id:0 copy 0
;LAYER_CHANGE
;Z:1.2
;HEIGHT:0.2
;BEFORE_LAYER_CHANGE
G92 E0.0
;1.2


G1 E-1 F2400
G1 Z1.2 F720
;AFTER_LAYER_CHANGE
;1.2
; printing object OV-PAM_h_36mm_1F.stl id:0 copy 0
G1 X157.837 Y91.204 F4200
G1 E1 F1500
;WIDTH:0.911047
G1 F863.93
G1 X157.958 Y91.348 E.01495
G1 X157.974 Y91.515 E.01325
G1 X157.974 Y118.485 E2.14159
G1 X157.958 Y118.652 E.01325
G1 X157.852 Y118.781 E.01325
G1 X138.781 Y137.852 E2.14159
G1 X138.652 Y137.958 E.01325
G1 X138.485 Y137.974 E.01325
G1 X111.515 Y137.974 E2.14159
G1 X111.348 Y137.958 E.01325
M73 P5 R38
M73 Q5 S38
G1 X111.219 Y137.852 E.01325
G1 X92.148 Y118.781 E2.14159
G1 X92.042 Y118.652 E.01325
G1 X92.026 Y118.485 E.01325
G1 X92.026 Y91.515 E2.14159
G1 X92.042 Y91.348 E.01325
G1 X92.148 Y91.219 E.01325
G1 X111.219 Y72.148 E2.14159
G1 X111.348 Y72.042 E.01325
G1 X111.515 Y72.026 E.01325
G1 X138.485 Y72.026 E2.14159
G1 X138.652 Y72.042 E.01325
G1 X138.781 Y72.148 E.01325
G1 X157.794 Y91.162 E2.13512
G1 X158.021 Y91.166 F4200
; stop printing object OV-PAM_h_36mm_1F.stl id:0 copy 0
;LAYER_CHANGE
;Z:1.4
;HEIGHT:0.2
;BEFORE_LAYER_CHANGE
G92 E0.0
;1.4


G1 E-1 F2400
G1 Z1.4 F720
;AFTER_LAYER_CHANGE
;1.4
; printing object OV-PAM_h_36mm_1F.stl id:0 copy 0
G1 X157.669 Y91.3 F4200
G1 E1 F1500
;WIDTH:0.763153
G1 F1041.33
G1 X157.774 Y91.425 E.0107
G1 X157.788 Y91.562 E.00912
G1 X157.788 Y118.438 E1.77045
G1 X157.774 Y118.575 E.00912
G1 X157.686 Y118.683 E.00912
G1 X138.683 Y137.686 E1.77045
G1 X138.575 Y137.774 E.00912
G1 X138.438 Y137.788 E.00912
G1 X111.562 Y137.788 E1.77045
G1 X111.425 Y137.774 E.00912
G1 X111.317 Y137.686 E.00912
G1 X92.314 Y118.683 E1.77045
G1 X92.226 Y118.575 E.00912
G1 X92.212 Y118.438 E.00912
G1 X92.212 Y91.562 E1.77045
G1 X92.226 Y91.425 E.00912
G1 X92.314 Y91.317 E.00912
G1 X111.317 Y72.314 E1.77045
G1 X111.425 Y72.226 E.00912
G1 X111.562 Y72.212 E.00912
G1 X138.438 Y72.212 E1.77045
G1 X138.575 Y72.226 E.00912
G1 X138.683 Y72.314 E.00912
G1 X157.627 Y91.258 E1.7649
G1 X157.828 Y91.267 F4200
; stop printing object OV-PAM_h_36mm_1F.stl id:0 copy 0
;LAYER_CHANGE
;Z:1.6
;HEIGHT:0.2
;BEFORE_LAYER_CHANGE
G92 E0.0
;1.6


G1 E-1 F2400
G1 Z1.6 F720
;AFTER_LAYER_CHANGE
;1.6
; printing object OV-PAM_h_36mm_1F.stl id:0 copy 0
G1 X157.551 Y91.345 F4200
G1 E1 F1500
G1 F1041.33
G1 X157.659 Y91.472 E.01098
G1 X157.672 Y91.61 E.00912
G1 X157.672 Y118.39 E1.76414
G1 X157.659 Y118.528 E.00912
M73 P6 R38
M73 Q6 S38
G1 X157.571 Y118.635 E.00912
G1 X138.635 Y137.571 E1.76414
G1 X138.528 Y137.659 E.00912
G1 X138.39 Y137.672 E.00912
G1 X111.61 Y137.672 E1.76414
G1 X111.472 Y137.659 E.00912
G1 X111.365 Y137.571 E.00912
G1 X92.429 Y118.635 E1.76414
G1 X92.341 Y118.528 E.00912
G1 X92.328 Y118.39 E.00912
G1 X92.328 Y91.61 E1.76414
G1 X92.341 Y91.472 E.00912
G1 X92.429 Y91.365 E.00912
G1 X111.365 Y72.429 E1.76414
G1 X111.472 Y72.341 E.00912
G1 X111.61 Y72.328 E.00912
G1 X138.39 Y72.328 E1.76414
G1 X138.528 Y72.341 E.00912
G1 X138.635 Y72.429 E.00912
G1 X157.508 Y91.303 E1.75833
G1 X157.714 Y91.311 F4200
; stop printing object OV-PAM_h_36mm_1F.stl id:0 copy 0
;LAYER_CHANGE
;Z:1.8
;HEIGHT:0.2
;BEFORE_LAYER_CHANGE
G92 E0.0
;1.8


G1 E-1 F2400
G1 Z1.8 F720
;AFTER_LAYER_CHANGE
;1.8
; printing object OV-PAM_h_36mm_1F.stl id:0 copy 0
G1 X157.432 Y91.389 F4200
G1 E1 F1500
;WIDTH:0.76321
G1 F1041.247
G1 X157.543 Y91.52 E.01133
G1 X157.557 Y91.658 E.00913
G1 X157.557 Y118.342 E1.75798
G1 X157.543 Y118.48 E.00912
G1 X157.455 Y118.587 E.00913
G1 X138.587 Y137.455 E1.75798
G1 X138.48 Y137.543 E.00912
G1 X138.342 Y137.557 E.00913
G1 X111.658 Y137.557 E1.75798
G1 X111.52 Y137.543 E.00912
G1 X111.413 Y137.455 E.00913
G1 X92.545 Y118.587 E1.75798
G1 X92.457 Y118.48 E.00912
G1 X92.443 Y118.342 E.00913
G1 X92.443 Y91.658 E1.75798
G1 X92.457 Y91.52 E.00912
G1 X92.545 Y91.413 E.00913
G1 X111.413 Y72.545 E1.75798
G1 X111.52 Y72.457 E.00912
M73 P6 R37
M73 Q6 S37
G1 X111.658 Y72.443 E.00913
G1 X138.342 Y72.443 E1.75798
G1 X138.48 Y72.457 E.00912
G1 X138.587 Y72.545 E.00913
G1 X157.389 Y91.347 E1.75181
G1 X157.378 Y91.553 F4200
; stop printing object OV-PAM_h_36mm_1F.stl id:0 copy 0
;LAYER_CHANGE
;Z:2
;HEIGHT:0.2
;BEFORE_LAYER_CHANGE
G92 E0.0
;2


G1 E-1 F2400
G1 Z2 F720
;AFTER_LAYER_CHANGE
;2
; printing object OV-PAM_h_36mm_1F.stl id:0 copy 0
G1 X157.311 Y91.432 F4200
G1 E1 F1500
;WIDTH:0.766357
G1 F1036.718
G1 X157.426 Y91.56 E.01137
G1 X157.441 Y91.706 E.00969
G1 X157.432 Y118.425 E1.76801
G1 X157.34 Y118.539 E.00969
M73 P7 R37
M73 Q7 S37
G1 X138.44 Y137.426 E1.76801
G1 X138.294 Y137.441 E.00969
G1 X111.575 Y137.432 E1.76801
G1 X111.461 Y137.34 E.00969
G1 X92.574 Y118.44 E1.76801
G1 X92.559 Y118.294 E.00969
G1 X92.568 Y91.575 E1.76801
G1 X92.66 Y91.461 E.00969
G1 X111.56 Y72.574 E1.76801
G1 X111.706 Y72.559 E.00969
G1 X138.425 Y72.568 E1.76801
G1 X138.539 Y72.66 E.00969
G1 X157.269 Y91.39 E1.75269
G1 X157.261 Y91.597 F4200
; stop printing object OV-PAM_h_36mm_1F.stl id:0 copy 0
;LAYER_CHANGE
;Z:2.2
;HEIGHT:0.2
;BEFORE_LAYER_CHANGE
G92 E0.0
;2.2


G1 E-1 F2400
G1 Z2.2 F720
;AFTER_LAYER_CHANGE
;2.2
; printing object OV-PAM_h_36mm_1F.stl id:0 copy 0
G1 X157.19 Y91.475 F4200
G1 E1 F1500
;WIDTH:0.773562
G1 F1026.494
G1 X157.307 Y91.592 E.01106
G1 X157.326 Y91.754 E.01089
G1 X157.325 Y118.363 E1.77829
G1 X157.224 Y118.491 E.01089
G1 X138.408 Y137.307 E1.77829
G1 X138.246 Y137.326 E.01089
G1 X111.637 Y137.325 E1.77829
G1 X111.509 Y137.224 E.01089
G1 X92.693 Y118.408 E1.77829
G1 X92.674 Y118.246 E.01089
G1 X92.675 Y91.637 E1.77829
G1 X92.776 Y91.509 E.01089
G1 X111.592 Y72.693 E1.77829
G1 X111.754 Y72.674 E.01089
G1 X138.363 Y72.675 E1.77829
G1 X138.491 Y72.776 E.01089
G1 X157.148 Y91.432 E1.76322
G1 X157.147 Y91.634 F4200
; stop printing object OV-PAM_h_36mm_1F.stl id:0 copy 0
;LAYER_CHANGE
;Z:2.4
;HEIGHT:0.2
;BEFORE_LAYER_CHANGE
G92 E0.0
;2.4


M73 P8 R37
M73 Q8 S37
G1 E-1 F2400
G1 Z2.4 F720
;AFTER_LAYER_CHANGE
;2.4
; printing object OV-PAM_h_36mm_1F.stl id:0 copy 0
G1 X157.045 Y91.492 F4200
G1 E1 F1500
;WIDTH:0.784538
G1 F1011.303
G1 X157.186 Y91.618 E.0128
G1 X157.21 Y91.802 E.01258
G1 X157.222 Y118.296 E1.7972
G1 X157.109 Y118.443 E.01258
G1 X138.382 Y137.186 E1.7972
G1 X138.198 Y137.21 E.01258
G1 X111.704 Y137.222 E1.7972
G1 X111.557 Y137.109 E.01258
G1 X92.814 Y118.382 E1.7972
G1 X92.79 Y118.198 E.01258
G1 X92.778 Y91.704 E1.7972
G1 X92.891 Y91.557 E.01258
G1 X111.618 Y72.814 E1.7972
G1 X111.802 Y72.79 E.01258
G1 X138.296 Y72.778 E1.7972
G1 X138.443 Y72.891 E.01258
G1 X157.002 Y91.45 E1.78035
G1 X157.003 Y91.677 F4200
; stop printing object OV-PAM_h_36mm_1F.stl id:0 copy 0
;LAYER_CHANGE
;Z:2.6
;HEIGHT:0.2
;BEFORE_LAYER_CHANGE
G92 E0.0
;2.6


G1 E-1 F2400
G1 Z2.6 F720
;AFTER_LAYER_CHANGE
;2.6
; printing object OV-PAM_h_36mm_1F.stl id:0 copy 0
G1 X156.89 Y91.501 F4200
G1 E1 F1500
;WIDTH:0.735739
G1 F1082.534
G1 X157.001 Y91.596 E.00931
;WIDTH:0.799308
G1 F991.555
G1 X157.063 Y91.639 E.00521
G1 X157.095 Y91.849 E.01468
;WIDTH:0.73574
G1 F1082.532
G1 X157.106 Y118.151 E1.66669
;WIDTH:0.799307
G1 F991.556
