; generated by PrusaSlicer 2.5.2+win64 on 2023-08-31 at 05:13:04 UTC


;
;
; 

; external perimeters extrusion width = 0.60mm
; perimeters extrusion width = 0.60mm
; infill extrusion width = 0.60mm
; solid infill extrusion width = 0.60mm
; top infill extrusion width = 0.60mm
; first layer extrusion width = 0.60mm

M73 P0 R36
M73 Q0 S36
M201 X1000 Y1000 Z200 E5000 ; sets maximum accelerations, mm/sec^2
M203 X200 Y200 Z12 E120 ; sets maximum feedrates, mm / sec
M204 P1250 R1250 T1250 ; sets acceleration (P, T) and retract acceleration (R), mm/sec^2
M205 X8.00 Y8.00 Z0.40 E4.50 ; sets the jerk limits, mm/sec
M205 S0 T0 ; sets the minimum extruding and travel feed rate, mm/sec
M107
;TYPE:Custom
M862.3 P "MK3S" ; printer model check
M862.1 P0.4 ; nozzle diameter check
M115 U3.12.2 ; tell printer latest fw version
G90 ; use absolute coordinates
M83 ; extruder relative mode
M104 S240 ; set extruder temp
M140 S50 ; set bed temp
M190 S50 ; wait for bed temp
M109 S240 ; wait for extruder temp
G28 W ; home all without mesh bed level
G80 ; mesh bed leveling

G1 Z0.2 F720
G1 Y-3 F1000 ; go outside print area
G92 E0
G1 X60 E9 F1000 ; intro line
G1 X100 E12.5 F1000 ; intro line

G92 E0
M221 S95

; Don't change E values below. Excessive value can damage the printer.
M907 E430 ; set extruder motor current
G21 ; set units to millimeters
G90 ; use absolute coordinates
M83 ; use relative distances for extrusion
M900 K0 ; Filament gcode
M107
;LAYER_CHANGE
;Z:0.2
;HEIGHT:0.2
;BEFORE_LAYER_CHANGE
G92 E0.0
;0.2


G1 E-1 F2400
G1 Z.2 F720
;AFTER_LAYER_CHANGE
;0.2
G1 X89.093 Y88.653 F4200
G1 E1 F1500
M204 S300
;TYPE:Skirt/Brim
;WIDTH:0.6
G1 F1200
G1 X108.653 Y69.093 E1.40951
G1 X110.083 Y68.221 E.08535
G1 X111.169 Y68.051 E.05597
G1 X138.831 Y68.051 E1.40951
G1 X140.459 Y68.445 E.08535
G1 X141.347 Y69.093 E.05597
G1 X160.907 Y88.653 E1.40951
G1 X161.779 Y90.083 E.08535
G1 X161.949 Y91.169 E.05597
G1 X161.949 Y118.831 E1.40951
G1 X161.555 Y120.459 E.08535
G1 X160.907 Y121.347 E.05597
G1 X141.347 Y140.907 E1.40951
G1 X139.917 Y141.779 E.08535
G1 X138.831 Y141.949 E.05597
G1 X111.169 Y141.949 E1.40951
G1 X109.541 Y141.555 E.08535
G1 X108.653 Y140.907 E.05597
G1 X89.093 Y121.347 E1.40951
G1 X88.221 Y119.917 E.08535
G1 X88.051 Y118.831 E.05597
G1 X88.051 Y91.169 E1.40951
G1 X88.445 Y89.541 E.08535
G1 X89.058 Y88.702 E.05291
; printing object OV-PAM_h_30mm_1F.stl id:0 copy 0
G1 E-1 F2400
G1 X138.754 Y137.899 F4200
G1 E1 F1500
;TYPE:External perimeter
;WIDTH:0.874574
G1 F901.818
G1 X138.659 Y137.976 E.00928
G1 X138.5 Y137.992 E.01216
G1 X111.5 Y137.992 E2.05382
G1 X111.341 Y137.976 E.01216
M73 P1 R36
M73 Q1 S36
G1 X111.217 Y137.875 E.01216
G1 X92.125 Y118.783 E2.05382
G1 X92.024 Y118.659 E.01216
G1 X92.008 Y118.5 E.01216
G1 X92.008 Y91.5 E2.05382
G1 X92.024 Y91.341 E.01216
M73 P1 R35
M73 Q1 S35
G1 X92.125 Y91.217 E.01216
G1 X111.217 Y72.125 E2.05382
G1 X111.341 Y72.024 E.01216
G1 X111.5 Y72.008 E.01216
G1 X138.5 Y72.008 E2.05382
G1 X138.659 Y72.024 E.01216
G1 X138.783 Y72.125 E.01216
G1 X157.875 Y91.217 E2.05382
G1 X157.976 Y91.341 E.01216
G1 X157.992 Y91.5 E.01216
G1 X157.992 Y118.5 E2.05382
G1 X157.976 Y118.659 E.01216
G1 X157.875 Y118.783 E.01216
G1 X138.798 Y137.859 E2.05214
G1 X138.777 Y138.018 F4200
; stop printing object OV-PAM_h_30mm_1F.stl id:0 copy 0
;LAYER_CHANGE
;Z:0.4
;HEIGHT:0.2
;BEFORE_LAYER_CHANGE
G92 E0.0
;0.4


G1 E-1 F2400
G1 Z.4 F720
;AFTER_LAYER_CHANGE
;0.4
G1 X138.713 Y137.773 F4200
G1 X138.71 Y137.775
G1 X140.845 Y141.213
G1 E1 F1500
;TYPE:Skirt/Brim
;WIDTH:0.6
G1 F1346.307
G1 X139.917 Y141.779 E.05538
G1 X138.831 Y141.949 E.05597
G1 X111.169 Y141.949 E1.40951
G1 X109.541 Y141.555 E.08535
G1 X108.653 Y140.907 E.05597
G1 X89.093 Y121.347 E1.40951
G1 X88.221 Y119.917 E.08535
G1 X88.051 Y118.831 E.05597
G1 X88.051 Y91.169 E1.40951
G1 X88.445 Y89.541 E.08535
G1 X89.093 Y88.653 E.05597
G1 X108.653 Y69.093 E1.40951
G1 X110.083 Y68.221 E.08535
G1 X111.169 Y68.051 E.05597
G1 X138.831 Y68.051 E1.40951
G1 X140.459 Y68.445 E.08535
G1 X141.347 Y69.093 E.05597
G1 X160.907 Y88.653 E1.40951
G1 X161.779 Y90.083 E.08535
M73 P2 R35
M73 Q2 S35
G1 X161.949 Y91.169 E.05597
G1 X161.949 Y118.831 E1.40951
G1 X161.555 Y120.459 E.08535
G1 X160.907 Y121.347 E.05597
G1 X141.347 Y140.907 E1.40951
G1 X140.896 Y141.182 E.02691
; printing object OV-PAM_h_30mm_1F.stl id:0 copy 0
G1 E-1 F2400
G1 X138.856 Y138.077 F4200
G1 X138.893 Y138.045
G1 X138.762 Y137.892
G1 E1 F1500
;TYPE:External perimeter
;WIDTH:0.874574
G1 F901.818
G1 X138.659 Y137.976 E.0101
G1 X138.5 Y137.992 E.01216
G1 X111.5 Y137.992 E2.05382
G1 X111.341 Y137.976 E.01216
G1 X111.217 Y137.875 E.01216
G1 X92.125 Y118.783 E2.05382
G1 X92.024 Y118.659 E.01216
G1 X92.008 Y118.5 E.01216
G1 X92.008 Y91.5 E2.05382
G1 X92.024 Y91.341 E.01216
G1 X92.125 Y91.217 E.01216
G1 X111.217 Y72.125 E2.05382
G1 X111.341 Y72.024 E.01216
G1 X111.5 Y72.008 E.01216
G1 X138.5 Y72.008 E2.05382
G1 X138.659 Y72.024 E.01216
G1 X138.783 Y72.125 E.01216
G1 X157.875 Y91.217 E2.05382
G1 X157.976 Y91.341 E.01216
G1 X157.992 Y91.5 E.01216
G1 X157.992 Y118.5 E2.05382
G1 X157.976 Y118.659 E.01216
G1 X157.875 Y118.783 E.01216
G1 X138.806 Y137.851 E2.05132
G1 X138.788 Y138.022 F4200
; stop printing object OV-PAM_h_30mm_1F.stl id:0 copy 0
;LAYER_CHANGE
;Z:0.6
;HEIGHT:0.2
;BEFORE_LAYER_CHANGE
G92 E0.0
;0.6


G1 E-1 F2400
G1 Z.6 F720
;AFTER_LAYER_CHANGE
;0.6
G1 X138.72 Y137.766 F4200
G1 X138.717 Y137.769
G1 X140.853 Y141.208
G1 E1 F1500
;TYPE:Skirt/Brim
;WIDTH:0.6
G1 F1346.307
G1 X139.917 Y141.779 E.05591
G1 X138.831 Y141.949 E.05597
G1 X111.169 Y141.949 E1.40951
G1 X109.541 Y141.555 E.08535
G1 X108.653 Y140.907 E.05597
G1 X89.093 Y121.347 E1.40951
G1 X88.221 Y119.917 E.08535
G1 X88.051 Y118.831 E.05597
G1 X88.051 Y91.169 E1.40951
G1 X88.445 Y89.541 E.08535
M73 P3 R35
M73 Q3 S35
G1 X89.093 Y88.653 E.05597
G1 X108.653 Y69.093 E1.40951
G1 X110.083 Y68.221 E.08535
G1 X111.169 Y68.051 E.05597
G1 X138.831 Y68.051 E1.40951
G1 X140.459 Y68.445 E.08535
G1 X141.347 Y69.093 E.05597
G1 X160.907 Y88.653 E1.40951
G1 X161.779 Y90.083 E.08535
G1 X161.949 Y91.169 E.05597
G1 X161.949 Y118.831 E1.40951
G1 X161.555 Y120.459 E.08535
G1 X160.907 Y121.347 E.05597
G1 X141.347 Y140.907 E1.40951
G1 X140.905 Y141.177 E.02638
; printing object OV-PAM_h_30mm_1F.stl id:0 copy 0
G1 E-1 F2400
G1 X138.864 Y138.07 F4200
G1 X138.902 Y138.038
G1 X138.771 Y137.884
G1 E1 F1500
;TYPE:External perimeter
;WIDTH:0.874574
G1 F901.818
G1 X138.659 Y137.976 E.01101
G1 X138.5 Y137.992 E.01216
G1 X111.5 Y137.992 E2.05382
G1 X111.341 Y137.976 E.01216
G1 X111.217 Y137.875 E.01216
G1 X92.125 Y118.783 E2.05382
G1 X92.024 Y118.659 E.01216
G1 X92.008 Y118.5 E.01216
G1 X92.008 Y91.5 E2.05382
G1 X92.024 Y91.341 E.01216
G1 X92.125 Y91.217 E.01216
G1 X111.217 Y72.125 E2.05382
G1 X111.341 Y72.024 E.01216
G1 X111.5 Y72.008 E.01216
G1 X138.5 Y72.008 E2.05382
G1 X138.659 Y72.024 E.01216
G1 X138.783 Y72.125 E.01216
G1 X157.875 Y91.217 E2.05382
G1 X157.976 Y91.341 E.01216
G1 X157.992 Y91.5 E.01216
G1 X157.992 Y118.5 E2.05382
G1 X157.976 Y118.659 E.01216
M73 P3 R34
M73 Q3 S34
G1 X157.875 Y118.783 E.01216
G1 X138.815 Y137.843 E2.05041
G1 X138.799 Y138.026 F4200
; stop printing object OV-PAM_h_30mm_1F.stl id:0 copy 0
;LAYER_CHANGE
;Z:0.8
;HEIGHT:0.2
;BEFORE_LAYER_CHANGE
G92 E0.0
;0.8


M73 P4 R34
M73 Q4 S34
G1 E-1 F2400
G1 Z.8 F720
;AFTER_LAYER_CHANGE
;0.8
; printing object OV-PAM_h_30mm_1F.stl id:0 copy 0
G1 X138.781 Y137.876 F4200
G1 E1 F1500
G1 F901.818
G1 X138.659 Y137.976 E.01202
G1 X138.5 Y137.992 E.01216
G1 X111.5 Y137.992 E2.05382
G1 X111.341 Y137.976 E.01216
G1 X111.217 Y137.875 E.01216
G1 X92.125 Y118.783 E2.05382
G1 X92.024 Y118.659 E.01216
G1 X92.008 Y118.5 E.01216
G1 X92.008 Y91.5 E2.05382
G1 X92.024 Y91.341 E.01216
G1 X92.125 Y91.217 E.01216
G1 X111.217 Y72.125 E2.05382
G1 X111.341 Y72.024 E.01216
G1 X111.5 Y72.008 E.01216
G1 X138.5 Y72.008 E2.05382
G1 X138.659 Y72.024 E.01216
G1 X138.783 Y72.125 E.01216
G1 X157.875 Y91.217 E2.05382
G1 X157.976 Y91.341 E.01216
G1 X157.992 Y91.5 E.01216
G1 X157.992 Y118.5 E2.05382
G1 X157.976 Y118.659 E.01216
G1 X157.875 Y118.783 E.01216
G1 X138.824 Y137.834 E2.04941
G1 X138.812 Y138.031 F4200
; stop printing object OV-PAM_h_30mm_1F.stl id:0 copy 0
;LAYER_CHANGE
;Z:1
;HEIGHT:0.2
;BEFORE_LAYER_CHANGE
G92 E0.0
;1


G1 E-1 F2400
G1 Z1 F720
;AFTER_LAYER_CHANGE
;1
; printing object OV-PAM_h_30mm_1F.stl id:0 copy 0
G1 X138.796 Y137.862 F4200
G1 E1 F1500
G1 F901.818
G1 X138.659 Y137.976 E.01354
G1 X138.5 Y137.992 E.01216
G1 X111.5 Y137.992 E2.05382
G1 X111.341 Y137.976 E.01216
G1 X111.217 Y137.875 E.01216
G1 X92.125 Y118.783 E2.05382
G1 X92.024 Y118.659 E.01216
G1 X92.008 Y118.5 E.01216
G1 X92.008 Y91.5 E2.05382
G1 X92.024 Y91.341 E.01216
G1 X92.125 Y91.217 E.01216
G1 X111.217 Y72.125 E2.05382
G1 X111.341 Y72.024 E.01216
M73 P5 R34
M73 Q5 S34
G1 X111.5 Y72.008 E.01216
G1 X138.5 Y72.008 E2.05382
G1 X138.659 Y72.024 E.01216
G1 X138.783 Y72.125 E.01216
G1 X157.875 Y91.217 E2.05382
G1 X157.976 Y91.341 E.01216
G1 X157.992 Y91.5 E.01216
G1 X157.992 Y118.5 E2.05382
G1 X157.976 Y118.659 E.01216
G1 X157.875 Y118.783 E.01216
G1 X138.838 Y137.819 E2.04787
G1 X138.832 Y138.036 F4200
; stop printing object OV-PAM_h_30mm_1F.stl id:0 copy 0
;LAYER_CHANGE
;Z:1.2
;HEIGHT:0.2
;BEFORE_LAYER_CHANGE
G92 E0.0
;1.2


G1 E-1 F2400
G1 Z1.2 F720
;AFTER_LAYER_CHANGE
;1.2
; printing object OV-PAM_h_30mm_1F.stl id:0 copy 0
G1 X138.803 Y137.829 F4200
G1 E1 F1500
;WIDTH:0.911047
G1 F863.93
G1 X138.652 Y137.958 E.01578
G1 X138.485 Y137.974 E.01325
G1 X111.515 Y137.974 E2.14159
G1 X111.348 Y137.958 E.01325
G1 X111.219 Y137.852 E.01325
G1 X92.148 Y118.781 E2.14159
G1 X92.042 Y118.652 E.01325
G1 X92.026 Y118.485 E.01325
G1 X92.026 Y91.515 E2.14159
G1 X92.042 Y91.348 E.01325
G1 X92.148 Y91.219 E.01325
G1 X111.219 Y72.148 E2.14159
G1 X111.348 Y72.042 E.01325
G1 X111.515 Y72.026 E.01325
G1 X138.485 Y72.026 E2.14159
G1 X138.652 Y72.042 E.01325
G1 X138.781 Y72.148 E.01325
G1 X157.852 Y91.219 E2.14159
G1 X157.958 Y91.348 E.01325
G1 X157.974 Y91.515 E.01325
G1 X157.974 Y118.485 E2.14159
G1 X157.958 Y118.652 E.01325
G1 X157.852 Y118.781 E.01325
G1 X138.846 Y137.787 E2.13429
G1 X138.844 Y138.024 F4200
; stop printing object OV-PAM_h_30mm_1F.stl id:0 copy 0
;LAYER_CHANGE
;Z:1.4
;HEIGHT:0.2
;BEFORE_LAYER_CHANGE
G92 E0.0
;1.4


M73 P6 R34
M73 Q6 S34
G1 E-1 F2400
G1 Z1.4 F720
;AFTER_LAYER_CHANGE
;1.4
; printing object OV-PAM_h_30mm_1F.stl id:0 copy 0
G1 X138.705 Y137.664 F4200
G1 E1 F1500
;WIDTH:0.763154
G1 F1041.328
G1 X138.575 Y137.774 E.01122
G1 X138.438 Y137.788 E.00912
G1 X111.562 Y137.788 E1.77045
G1 X111.425 Y137.774 E.00912
G1 X111.317 Y137.686 E.00912
G1 X92.314 Y118.683 E1.77045
G1 X92.226 Y118.575 E.00912
G1 X92.212 Y118.438 E.00912
G1 X92.212 Y91.562 E1.77045
G1 X92.226 Y91.425 E.00912
G1 X92.314 Y91.317 E.00912
G1 X111.317 Y72.314 E1.77045
G1 X111.425 Y72.226 E.00912
G1 X111.562 Y72.212 E.00912
G1 X138.438 Y72.212 E1.77045
G1 X138.575 Y72.226 E.00912
G1 X138.683 Y72.314 E.00912
G1 X157.686 Y91.317 E1.77045
G1 X157.774 Y91.425 E.00912
G1 X157.788 Y91.562 E.00912
G1 X157.788 Y118.438 E1.77045
G1 X157.774 Y118.575 E.00912
G1 X157.686 Y118.683 E.00912
G1 X138.748 Y137.621 E1.76439
G1 X138.74 Y137.83 F4200
; stop printing object OV-PAM_h_30mm_1F.stl id:0 copy 0
;LAYER_CHANGE
;Z:1.6
;HEIGHT:0.2
;BEFORE_LAYER_CHANGE
G92 E0.0
;1.6


G1 E-1 F2400
G1 Z1.6 F720
;AFTER_LAYER_CHANGE
;1.6
; printing object OV-PAM_h_30mm_1F.stl id:0 copy 0
G1 X138.659 Y137.547 F4200
G1 E1 F1500
;WIDTH:0.763152
G1 F1041.331
G1 X138.528 Y137.659 E.01135
G1 X138.39 Y137.672 E.00912
G1 X111.61 Y137.672 E1.76414
G1 X111.472 Y137.659 E.00912
M73 P6 R33
M73 Q6 S33
G1 X111.365 Y137.571 E.00912
G1 X92.429 Y118.635 E1.76414
G1 X92.341 Y118.528 E.00912
G1 X92.328 Y118.39 E.00912
G1 X92.328 Y91.61 E1.76414
G1 X92.341 Y91.472 E.00912
G1 X92.429 Y91.365 E.00912
G1 X111.365 Y72.429 E1.76414
G1 X111.472 Y72.341 E.00912
G1 X111.61 Y72.328 E.00912
G1 X138.39 Y72.328 E1.76414
G1 X138.528 Y72.341 E.00912
M73 P7 R33
M73 Q7 S33
G1 X138.635 Y72.429 E.00912
G1 X157.571 Y91.365 E1.76414
G1 X157.659 Y91.472 E.00912
G1 X157.672 Y91.61 E.00912
G1 X157.672 Y118.39 E1.76414
G1 X157.659 Y118.528 E.00912
G1 X157.571 Y118.635 E.00912
G1 X138.701 Y137.504 E1.75796
G1 X138.495 Y137.494 F4200
; stop printing object OV-PAM_h_30mm_1F.stl id:0 copy 0
;LAYER_CHANGE
;Z:1.8
;HEIGHT:0.2
;BEFORE_LAYER_CHANGE
G92 E0.0
;1.8


G1 E-1 F2400
G1 Z1.8 F720
;AFTER_LAYER_CHANGE
;1.8
; printing object OV-PAM_h_30mm_1F.stl id:0 copy 0
G1 X138.614 Y137.429 F4200
G1 E1 F1500
;WIDTH:0.765743
G1 F1037.599
G1 X138.486 Y137.542 E.01127
G1 X138.342 Y137.557 E.00958
G1 X111.526 Y137.547 E1.77292
G1 X111.413 Y137.455 E.00958
G1 X92.458 Y118.486 E1.77292
G1 X92.443 Y118.342 E.00958
G1 X92.453 Y91.526 E1.77292
G1 X92.545 Y91.413 E.00958
G1 X111.514 Y72.458 E1.77292
G1 X111.658 Y72.443 E.00958
G1 X138.474 Y72.453 E1.77292
G1 X138.587 Y72.545 E.00958
G1 X157.542 Y91.514 E1.77292
G1 X157.557 Y91.658 E.00958
G1 X157.547 Y118.474 E1.77292
G1 X157.455 Y118.587 E.00958
G1 X138.656 Y137.386 E1.7577
G1 X138.451 Y137.378 F4200
; stop printing object OV-PAM_h_30mm_1F.stl id:0 copy 0
;LAYER_CHANGE
;Z:2
;HEIGHT:0.2
;BEFORE_LAYER_CHANGE
G92 E0.0
;2


G1 E-1 F2400
G1 Z2 F720
;AFTER_LAYER_CHANGE
;2
; printing object OV-PAM_h_30mm_1F.stl id:0 copy 0
G1 X138.575 Y137.304 F4200
G1 E1 F1500
;WIDTH:0.775746
G1 F1023.436
G1 X138.461 Y137.421 E.01095
G1 X138.294 Y137.441 E.01124
G1 X111.593 Y137.443 E1.78974
G1 X111.461 Y137.34 E.01124
G1 X92.579 Y118.461 E1.78975
G1 X92.559 Y118.294 E.01124
G1 X92.557 Y91.593 E1.78974
G1 X92.66 Y91.461 E.01124
M73 P8 R33
M73 Q8 S33
G1 X111.539 Y72.579 E1.78975
G1 X111.706 Y72.559 E.01124
G1 X138.407 Y72.557 E1.78974
G1 X138.539 Y72.66 E.01124
G1 X157.421 Y91.539 E1.78975
G1 X157.441 Y91.706 E.01124
G1 X157.443 Y118.407 E1.78974
G1 X157.34 Y118.539 E.01124
G1 X138.617 Y137.262 E1.77478
G1 X138.416 Y137.263 F4200
; stop printing object OV-PAM_h_30mm_1F.stl id:0 copy 0
;LAYER_CHANGE
;Z:2.2
;HEIGHT:0.2
;BEFORE_LAYER_CHANGE
G92 E0.0
;2.2


G1 E-1 F2400
G1 Z2.2 F720
;AFTER_LAYER_CHANGE
;2.2
; printing object OV-PAM_h_30mm_1F.stl id:0 copy 0
G1 X138.565 Y137.151 F4200
G1 E1 F1500
;WIDTH:0.735741
G1 F1082.532
G1 X138.496 Y137.229 E.00662
;WIDTH:0.792644
G1 F1000.369
G1 X138.445 Y137.297 E.00585
G1 X138.246 Y137.326 E.01375
;WIDTH:0.735742
G1 F1082.529
G1 X111.754 Y137.333 E1.67882
;WIDTH:0.792644
G1 F1000.368
G1 X111.669 Y137.345 E.00585
G1 X111.509 Y137.224 E.01375
;WIDTH:0.735741
G1 F1082.532
G1 X92.771 Y118.496 E1.67881
;WIDTH:0.792644
G1 F1000.369
G1 X92.703 Y118.445 E.00585
G1 X92.674 Y118.246 E.01375
;WIDTH:0.735742
G1 F1082.529
G1 X92.667 Y91.754 E1.67882
;WIDTH:0.792644
G1 F1000.368
G1 X92.655 Y91.669 E.00585
G1 X92.776 Y91.509 E.01375
;WIDTH:0.735741
G1 F1082.532
G1 X111.504 Y72.771 E1.67881
;WIDTH:0.792644
G1 F1000.369
G1 X111.555 Y72.703 E.00585
G1 X111.754 Y72.674 E.01375
;WIDTH:0.735742
G1 F1082.529
G1 X138.246 Y72.667 E1.67882
;WIDTH:0.792644
G1 F1000.368
G1 X138.331 Y72.655 E.00585
G1 X138.491 Y72.776 E.01375
;WIDTH:0.735741
G1 F1082.532
G1 X157.229 Y91.504 E1.67881
;WIDTH:0.792644
G1 F1000.369
G1 X157.297 Y91.555 E.00585
G1 X157.326 Y91.754 E.01375
;WIDTH:0.735742
G1 F1082.529
G1 X157.333 Y118.246 E1.67882
;WIDTH:0.792644
G1 F1000.368
G1 X157.345 Y118.331 E.00585
G1 X157.224 Y118.491 E.01375
;WIDTH:0.735741
G1 F1082.532
G1 X138.607 Y137.108 E1.66841
; stop printing object OV-PAM_h_30mm_1F.stl id:0 copy 0
;LAYER_CHANGE
;Z:2.4
;HEIGHT:0.2
;BEFORE_LAYER_CHANGE
G92 E0.0
;2.4


G1 E-1 F2400
G1 Z2.4 F720
;AFTER_LAYER_CHANGE
;2.4
; printing object OV-PAM_h_30mm_1F.stl id:0 copy 0
G1 X138.498 Y137.077 F4200
G1 E1 F1500
G1 F1082.532
G1 X138.461 Y137.126 E.00395
;WIDTH:0.816501
G1 F969.518
G1 X138.435 Y137.17 E.0036
G1 X138.198 Y137.21 E.01698
;WIDTH:0.735742
G1 F1082.529
G1 X111.985 Y137.21 E1.66114
G1 X111.802 Y137.235 E.01172
;WIDTH:0.816501
M73 P9 R33
M73 Q9 S33
G1 F969.517
G1 X111.752 Y137.248 E.0036
G1 X111.557 Y137.109 E.01698
;WIDTH:0.735741
G1 F1082.532
G1 X93.021 Y118.573 E1.66114
G1 X92.874 Y118.461 E.01172
;WIDTH:0.816501
G1 F969.518
