; generated by PrusaSlicer 2.5.2+win64 on 2023-08-31 at 05:13:33 UTC


;
;
; 

; external perimeters extrusion width = 0.60mm
; perimeters extrusion width = 0.60mm
; infill extrusion width = 0.60mm
; solid infill extrusion width = 0.60mm
; top infill extrusion width = 0.60mm
; first layer extrusion width = 0.60mm

M73 P0 R44
M73 Q0 S44
M201 X1000 Y1000 Z200 E5000 ; sets maximum accelerations, mm/sec^2
M203 X200 Y200 Z12 E120 ; sets maximum feedrates, mm / sec
M204 P1250 R1250 T1250 ; sets acceleration (P, T) and retract acceleration (R), mm/sec^2
M205 X8.00 Y8.00 Z0.40 E4.50 ; sets the jerk limits, mm/sec
M205 S0 T0 ; sets the minimum extruding and travel feed rate, mm/sec
M107
;TYPE:Custom
M862.3 P "MK3S" ; printer model check
M862.1 P0.4 ; nozzle diameter check
M115 U3.12.2 ; tell printer latest fw version
G90 ; use absolute coordinates
M83 ; extruder relative mode
M104 S240 ; set extruder temp
M140 S50 ; set bed temp
M190 S50 ; wait for bed temp
M109 S240 ; wait for extruder temp
G28 W ; home all without mesh bed level
G80 ; mesh bed leveling

G1 Z0.2 F720
G1 Y-3 F1000 ; go outside print area
G92 E0
G1 X60 E9 F1000 ; intro line
G1 X100 E12.5 F1000 ; intro line

G92 E0
M221 S95

; Don't change E values below. Excessive value can damage the printer.
M907 E430 ; set extruder motor current
G21 ; set units to millimeters
G90 ; use absolute coordinates
M83 ; use relative distances for extrusion
M900 K0 ; Filament gcode
M107
;LAYER_CHANGE
;Z:0.2
;HEIGHT:0.2
;BEFORE_LAYER_CHANGE
G92 E0.0
;0.2


G1 E-1 F2400
G1 Z.2 F720
;AFTER_LAYER_CHANGE
;0.2
G1 X89.093 Y88.653 F4200
G1 E1 F1500
M204 S300
;TYPE:Skirt/Brim
;WIDTH:0.6
G1 F1200
G1 X108.653 Y69.093 E1.40951
G1 X110.083 Y68.221 E.08535
G1 X111.169 Y68.051 E.05597
G1 X138.831 Y68.051 E1.40951
G1 X140.459 Y68.445 E.08535
G1 X141.347 Y69.093 E.05597
G1 X160.907 Y88.653 E1.40951
G1 X161.779 Y90.083 E.08535
G1 X161.949 Y91.169 E.05597
G1 X161.949 Y118.831 E1.40951
G1 X161.555 Y120.459 E.08535
G1 X160.907 Y121.347 E.05597
G1 X141.347 Y140.907 E1.40951
G1 X139.917 Y141.779 E.08535
G1 X138.831 Y141.949 E.05597
G1 X111.169 Y141.949 E1.40951
G1 X109.541 Y141.555 E.08535
G1 X108.653 Y140.907 E.05597
G1 X89.093 Y121.347 E1.40951
G1 X88.221 Y119.917 E.08535
G1 X88.051 Y118.831 E.05597
G1 X88.051 Y91.169 E1.40951
G1 X88.445 Y89.541 E.08535
G1 X89.058 Y88.702 E.05291
; printing object OV-PAM_h_42mm_1F.stl id:0 copy 0
G1 E-1 F2400
G1 X157.991 Y91.492 F4200
G1 E1 F1500
;TYPE:External perimeter
;WIDTH:0.874574
G1 F901.818
G1 X157.992 Y118.5 E2.05447
G1 X157.976 Y118.659 E.01216
G1 X157.875 Y118.783 E.01216
G1 X138.783 Y137.875 E2.05382
G1 X138.659 Y137.976 E.01216
G1 X138.5 Y137.992 E.01216
G1 X111.5 Y137.992 E2.05382
G1 X111.341 Y137.976 E.01216
G1 X111.217 Y137.875 E.01216
G1 X92.125 Y118.783 E2.05382
G1 X92.024 Y118.659 E.01216
M73 P1 R44
M73 Q1 S44
G1 X92.008 Y118.5 E.01216
G1 X92.008 Y91.5 E2.05382
G1 X92.024 Y91.341 E.01216
G1 X92.125 Y91.217 E.01216
G1 X111.217 Y72.125 E2.05382
G1 X111.341 Y72.024 E.01216
G1 X111.5 Y72.008 E.01216
G1 X138.5 Y72.008 E2.05382
G1 X138.659 Y72.024 E.01216
G1 X138.783 Y72.125 E.01216
G1 X157.875 Y91.217 E2.05382
G1 X157.976 Y91.341 E.01216
G1 X157.985 Y91.432 E.00695
G1 X158.361 Y91.644 F4200
; stop printing object OV-PAM_h_42mm_1F.stl id:0 copy 0
;LAYER_CHANGE
;Z:0.4
;HEIGHT:0.2
;BEFORE_LAYER_CHANGE
G92 E0.0
;0.4


G1 E-1 F2400
G1 Z.4 F720
;AFTER_LAYER_CHANGE
;0.4
G1 X161.35 Y89.379 F4200
G1 E1 F1500
;TYPE:Skirt/Brim
;WIDTH:0.6
G1 F1346.307
G1 X161.779 Y90.083 E.04202
G1 X161.949 Y91.169 E.05597
G1 X161.949 Y118.831 E1.40951
G1 X161.555 Y120.459 E.08535
G1 X160.907 Y121.347 E.05597
G1 X141.347 Y140.907 E1.40951
G1 X139.917 Y141.779 E.08535
G1 X138.831 Y141.949 E.05597
G1 X111.169 Y141.949 E1.40951
G1 X109.541 Y141.555 E.08535
G1 X108.653 Y140.907 E.05597
G1 X89.093 Y121.347 E1.40951
G1 X88.221 Y119.917 E.08535
M73 P1 R43
M73 Q1 S43
G1 X88.051 Y118.831 E.05597
G1 X88.051 Y91.169 E1.40951
G1 X88.445 Y89.541 E.08535
G1 X89.093 Y88.653 E.05597
G1 X108.653 Y69.093 E1.40951
G1 X110.083 Y68.221 E.08535
G1 X111.169 Y68.051 E.05597
G1 X138.831 Y68.051 E1.40951
G1 X140.459 Y68.445 E.08535
G1 X141.347 Y69.093 E.05597
G1 X160.907 Y88.653 E1.40951
G1 X161.319 Y89.328 E.04027
; printing object OV-PAM_h_42mm_1F.stl id:0 copy 0
G1 E-1 F2400
G1 X158.183 Y91.363 F4200
G1 X158.192 Y91.482
G1 X157.992 Y91.498
G1 E1 F1500
;TYPE:External perimeter
;WIDTH:0.874574
G1 F901.818
G1 X157.992 Y118.5 E2.05399
G1 X157.976 Y118.659 E.01216
G1 X157.875 Y118.783 E.01216
G1 X138.783 Y137.875 E2.05382
G1 X138.659 Y137.976 E.01216
G1 X138.5 Y137.992 E.01216
G1 X111.5 Y137.992 E2.05382
G1 X111.341 Y137.976 E.01216
G1 X111.217 Y137.875 E.01216
G1 X92.125 Y118.783 E2.05382
G1 X92.024 Y118.659 E.01216
M73 P2 R43
M73 Q2 S43
G1 X92.008 Y118.5 E.01216
G1 X92.008 Y91.5 E2.05382
G1 X92.024 Y91.341 E.01216
G1 X92.125 Y91.217 E.01216
G1 X111.217 Y72.125 E2.05382
G1 X111.341 Y72.024 E.01216
G1 X111.5 Y72.008 E.01216
G1 X138.5 Y72.008 E2.05382
G1 X138.659 Y72.024 E.01216
G1 X138.783 Y72.125 E.01216
G1 X157.875 Y91.217 E2.05382
G1 X157.976 Y91.341 E.01216
G1 X157.986 Y91.438 E.00743
G1 X158.361 Y91.651 F4200
; stop printing object OV-PAM_h_42mm_1F.stl id:0 copy 0
;LAYER_CHANGE
;Z:0.6
;HEIGHT:0.2
;BEFORE_LAYER_CHANGE
G92 E0.0
;0.6


G1 E-1 F2400
G1 Z.6 F720
;AFTER_LAYER_CHANGE
;0.6
G1 X161.353 Y89.384 F4200
G1 E1 F1500
;TYPE:Skirt/Brim
;WIDTH:0.6
G1 F1346.307
G1 X161.779 Y90.083 E.04173
G1 X161.949 Y91.169 E.05597
G1 X161.949 Y118.831 E1.40951
G1 X161.555 Y120.459 E.08535
G1 X160.907 Y121.347 E.05597
G1 X141.347 Y140.907 E1.40951
G1 X139.917 Y141.779 E.08535
G1 X138.831 Y141.949 E.05597
G1 X111.169 Y141.949 E1.40951
G1 X109.541 Y141.555 E.08535
G1 X108.653 Y140.907 E.05597
G1 X89.093 Y121.347 E1.40951
G1 X88.221 Y119.917 E.08535
G1 X88.051 Y118.831 E.05597
G1 X88.051 Y91.169 E1.40951
G1 X88.445 Y89.541 E.08535
G1 X89.093 Y88.653 E.05597
G1 X108.653 Y69.093 E1.40951
G1 X110.083 Y68.221 E.08535
G1 X111.169 Y68.051 E.05597
G1 X138.831 Y68.051 E1.40951
G1 X140.459 Y68.445 E.08535
G1 X141.347 Y69.093 E.05597
G1 X160.907 Y88.653 E1.40951
G1 X161.322 Y89.333 E.04056
; printing object OV-PAM_h_42mm_1F.stl id:0 copy 0
G1 E-1 F2400
G1 X158.183 Y91.367 F4200
G1 X158.193 Y91.486
G1 X157.992 Y91.502
G1 E1 F1500
;TYPE:External perimeter
;WIDTH:0.874574
G1 F901.818
G1 X157.992 Y118.5 E2.05369
G1 X157.976 Y118.659 E.01216
G1 X157.875 Y118.783 E.01216
G1 X138.783 Y137.875 E2.05382
G1 X138.659 Y137.976 E.01216
G1 X138.5 Y137.992 E.01216
G1 X111.5 Y137.992 E2.05382
G1 X111.341 Y137.976 E.01216
G1 X111.217 Y137.875 E.01216
G1 X92.125 Y118.783 E2.05382
G1 X92.024 Y118.659 E.01216
M73 P3 R43
M73 Q3 S43
G1 X92.008 Y118.5 E.01216
G1 X92.008 Y91.5 E2.05382
G1 X92.024 Y91.341 E.01216
G1 X92.125 Y91.217 E.01216
G1 X111.217 Y72.125 E2.05382
G1 X111.341 Y72.024 E.01216
G1 X111.5 Y72.008 E.01216
G1 X138.5 Y72.008 E2.05382
G1 X138.659 Y72.024 E.01216
G1 X138.783 Y72.125 E.01216
G1 X157.875 Y91.217 E2.05382
G1 X157.976 Y91.341 E.01216
G1 X157.986 Y91.442 E.00773
G1 X158.361 Y91.655 F4200
; stop printing object OV-PAM_h_42mm_1F.stl id:0 copy 0
;LAYER_CHANGE
;Z:0.8
;HEIGHT:0.2
;BEFORE_LAYER_CHANGE
G92 E0.0
;0.8


G1 E-1 F2400
G1 Z.8 F720
;AFTER_LAYER_CHANGE
;0.8
; printing object OV-PAM_h_42mm_1F.stl id:0 copy 0
G1 X157.992 Y91.513 F4200
G1 E1 F1500
G1 F901.818
G1 X157.992 Y118.5 E2.05287
G1 X157.976 Y118.659 E.01216
G1 X157.875 Y118.783 E.01216
G1 X138.783 Y137.875 E2.05382
G1 X138.659 Y137.976 E.01216
G1 X138.5 Y137.992 E.01216
G1 X111.5 Y137.992 E2.05382
G1 X111.341 Y137.976 E.01216
G1 X111.217 Y137.875 E.01216
G1 X92.125 Y118.783 E2.05382
G1 X92.024 Y118.659 E.01216
G1 X92.008 Y118.5 E.01216
G1 X92.008 Y91.5 E2.05382
G1 X92.024 Y91.341 E.01216
G1 X92.125 Y91.217 E.01216
G1 X111.217 Y72.125 E2.05382
G1 X111.341 Y72.024 E.01216
G1 X111.5 Y72.008 E.01216
G1 X138.5 Y72.008 E2.05382
G1 X138.659 Y72.024 E.01216
G1 X138.783 Y72.125 E.01216
G1 X157.875 Y91.217 E2.05382
G1 X157.976 Y91.341 E.01216
M73 P3 R42
M73 Q3 S42
G1 X157.987 Y91.453 E.00856
G1 X158.361 Y91.667 F4200
; stop printing object OV-PAM_h_42mm_1F.stl id:0 copy 0
;LAYER_CHANGE
;Z:1
;HEIGHT:0.2
;BEFORE_LAYER_CHANGE
G92 E0.0
;1


G1 E-1 F2400
G1 Z1 F720
;AFTER_LAYER_CHANGE
;1
; printing object OV-PAM_h_42mm_1F.stl id:0 copy 0
G1 X157.992 Y91.524 F4200
G1 E1 F1500
G1 F901.818
G1 X157.992 Y118.5 E2.05199
G1 X157.976 Y118.659 E.01216
G1 X157.875 Y118.783 E.01216
G1 X138.783 Y137.875 E2.05382
G1 X138.659 Y137.976 E.01216
G1 X138.5 Y137.992 E.01216
G1 X111.5 Y137.992 E2.05382
G1 X111.341 Y137.976 E.01216
M73 P4 R42
M73 Q4 S42
G1 X111.217 Y137.875 E.01216
G1 X92.125 Y118.783 E2.05382
G1 X92.024 Y118.659 E.01216
G1 X92.008 Y118.5 E.01216
G1 X92.008 Y91.5 E2.05382
G1 X92.024 Y91.341 E.01216
G1 X92.125 Y91.217 E.01216
G1 X111.217 Y72.125 E2.05382
G1 X111.341 Y72.024 E.01216
G1 X111.5 Y72.008 E.01216
G1 X138.5 Y72.008 E2.05382
G1 X138.659 Y72.024 E.01216
G1 X138.783 Y72.125 E.01216
G1 X157.875 Y91.217 E2.05382
G1 X157.976 Y91.341 E.01216
G1 X157.988 Y91.464 E.00943
G1 X158.36 Y91.681 F4200
; stop printing object OV-PAM_h_42mm_1F.stl id:0 copy 0
;LAYER_CHANGE
;Z:1.2
;HEIGHT:0.2
;BEFORE_LAYER_CHANGE
G92 E0.0
;1.2


G1 E-1 F2400
G1 Z1.2 F720
;AFTER_LAYER_CHANGE
;1.2
; printing object OV-PAM_h_42mm_1F.stl id:0 copy 0
G1 X157.974 Y91.544 F4200
G1 E1 F1500
;WIDTH:0.911047
G1 F863.93
G1 X157.974 Y118.485 E2.13926
G1 X157.958 Y118.652 E.01325
G1 X157.852 Y118.781 E.01325
G1 X138.781 Y137.852 E2.14159
G1 X138.652 Y137.958 E.01325
G1 X138.485 Y137.974 E.01325
G1 X111.515 Y137.974 E2.14159
G1 X111.348 Y137.958 E.01325
G1 X111.219 Y137.852 E.01325
G1 X92.148 Y118.781 E2.14159
G1 X92.042 Y118.652 E.01325
G1 X92.026 Y118.485 E.01325
G1 X92.026 Y91.515 E2.14159
G1 X92.042 Y91.348 E.01325
G1 X92.148 Y91.219 E.01325
G1 X111.219 Y72.148 E2.14159
G1 X111.348 Y72.042 E.01325
G1 X111.515 Y72.026 E.01325
G1 X138.485 Y72.026 E2.14159
G1 X138.652 Y72.042 E.01325
G1 X138.781 Y72.148 E.01325
G1 X157.852 Y91.219 E2.14159
G1 X157.958 Y91.348 E.01325
G1 X157.971 Y91.484 E.01082
G1 X158.342 Y91.701 F4200
; stop printing object OV-PAM_h_42mm_1F.stl id:0 copy 0
;LAYER_CHANGE
;Z:1.4
;HEIGHT:0.2
;BEFORE_LAYER_CHANGE
G92 E0.0
;1.4


G1 E-1 F2400
G1 Z1.4 F720
;AFTER_LAYER_CHANGE
;1.4
; printing object OV-PAM_h_42mm_1F.stl id:0 copy 0
G1 X157.788 Y91.582 F4200
G1 E1 F1500
;WIDTH:0.763153
G1 F1041.33
G1 X157.788 Y118.438 E1.76915
G1 X157.774 Y118.575 E.00912
M73 P5 R42
M73 Q5 S42
G1 X157.686 Y118.683 E.00912
G1 X138.683 Y137.686 E1.77045
G1 X138.575 Y137.774 E.00912
G1 X138.438 Y137.788 E.00912
G1 X111.562 Y137.788 E1.77045
G1 X111.425 Y137.774 E.00912
G1 X111.317 Y137.686 E.00912
G1 X92.314 Y118.683 E1.77045
G1 X92.226 Y118.575 E.00912
G1 X92.212 Y118.438 E.00912
G1 X92.212 Y91.562 E1.77045
G1 X92.226 Y91.425 E.00912
G1 X92.314 Y91.317 E.00912
G1 X111.317 Y72.314 E1.77045
G1 X111.425 Y72.226 E.00912
G1 X111.562 Y72.212 E.00912
G1 X138.438 Y72.212 E1.77045
G1 X138.575 Y72.226 E.00912
G1 X138.683 Y72.314 E.00912
G1 X157.686 Y91.317 E1.77045
G1 X157.774 Y91.425 E.00912
G1 X157.784 Y91.522 E.00646
G1 X158.156 Y91.738 F4200
; stop printing object OV-PAM_h_42mm_1F.stl id:0 copy 0
;LAYER_CHANGE
;Z:1.6
;HEIGHT:0.2
;BEFORE_LAYER_CHANGE
G92 E0.0
;1.6


G1 E-1 F2400
G1 Z1.6 F720
;AFTER_LAYER_CHANGE
;1.6
; printing object OV-PAM_h_42mm_1F.stl id:0 copy 0
G1 X157.672 Y91.62 F4200
G1 E1 F1500
;WIDTH:0.763154
G1 F1041.328
G1 X157.672 Y118.39 E1.76348
G1 X157.659 Y118.528 E.00912
G1 X157.571 Y118.635 E.00912
G1 X138.635 Y137.571 E1.76415
G1 X138.528 Y137.659 E.00912
G1 X138.39 Y137.672 E.00912
G1 X111.61 Y137.672 E1.76415
G1 X111.472 Y137.659 E.00912
G1 X111.365 Y137.571 E.00912
G1 X92.429 Y118.635 E1.76415
G1 X92.341 Y118.528 E.00912
G1 X92.328 Y118.39 E.00912
G1 X92.328 Y91.61 E1.76415
G1 X92.341 Y91.472 E.00912
G1 X92.429 Y91.365 E.00912
G1 X111.365 Y72.429 E1.76415
G1 X111.472 Y72.341 E.00912
G1 X111.61 Y72.328 E.00912
G1 X138.39 Y72.328 E1.76415
G1 X138.528 Y72.341 E.00912
G1 X138.635 Y72.429 E.00912
G1 X157.571 Y91.365 E1.76415
G1 X157.659 Y91.472 E.00912
G1 X157.667 Y91.561 E.00584
G1 X158.041 Y91.775 F4200
; stop printing object OV-PAM_h_42mm_1F.stl id:0 copy 0
;LAYER_CHANGE
;Z:1.8
;HEIGHT:0.2
;BEFORE_LAYER_CHANGE
G92 E0.0
;1.8


G1 E-1 F2400
G1 Z1.8 F720
;AFTER_LAYER_CHANGE
;1.8
; printing object OV-PAM_h_42mm_1F.stl id:0 copy 0
G1 X157.557 Y91.659 F4200
G1 E1 F1500
;WIDTH:0.763154
G1 F1041.329
G1 X157.557 Y118.342 E1.75779
G1 X157.543 Y118.48 E.00912
G1 X157.455 Y118.587 E.00912
G1 X138.587 Y137.455 E1.75784
G1 X138.48 Y137.543 E.00912
M73 P6 R41
M73 Q6 S41
G1 X138.342 Y137.557 E.00912
G1 X111.658 Y137.557 E1.75784
G1 X111.52 Y137.543 E.00912
G1 X111.413 Y137.455 E.00912
G1 X92.545 Y118.587 E1.75784
G1 X92.457 Y118.48 E.00912
G1 X92.443 Y118.342 E.00912
G1 X92.443 Y91.658 E1.75784
G1 X92.457 Y91.52 E.00912
G1 X92.545 Y91.413 E.00912
G1 X111.413 Y72.545 E1.75784
G1 X111.52 Y72.457 E.00912
G1 X111.658 Y72.443 E.00912
G1 X138.342 Y72.443 E1.75784
G1 X138.48 Y72.457 E.00912
G1 X138.587 Y72.545 E.00912
G1 X157.455 Y91.413 E1.75784
G1 X157.543 Y91.52 E.00912
G1 X157.551 Y91.599 E.00523
G1 X157.239 Y91.902 F4200
; stop printing object OV-PAM_h_42mm_1F.stl id:0 copy 0
;LAYER_CHANGE
;Z:2
;HEIGHT:0.2
;BEFORE_LAYER_CHANGE
G92 E0.0
;2


G1 E-1 F2400
G1 Z2 F720
;AFTER_LAYER_CHANGE
;2
; printing object OV-PAM_h_42mm_1F.stl id:0 copy 0
G1 X157.44 Y91.696 F4200
G1 E1 F1500
;WIDTH:0.763348
G1 F1041.049
G1 X157.441 Y118.294 E1.75264
G1 X157.428 Y118.432 E.0091
G1 X157.34 Y118.539 E.00916
G1 X138.539 Y137.34 E1.75201
G1 X138.432 Y137.428 E.0091
G1 X138.294 Y137.441 E.00916
G1 X111.706 Y137.441 E1.75201
G1 X111.568 Y137.428 E.0091
G1 X111.461 Y137.34 E.00916
G1 X92.66 Y118.539 E1.75201
G1 X92.572 Y118.432 E.0091
G1 X92.559 Y118.294 E.00916
G1 X92.559 Y91.706 E1.75201
G1 X92.572 Y91.568 E.0091
G1 X92.66 Y91.461 E.00916
G1 X111.461 Y72.66 E1.75201
G1 X111.568 Y72.572 E.0091
G1 X111.706 Y72.559 E.00916
G1 X138.294 Y72.559 E1.75201
G1 X138.432 Y72.572 E.0091
G1 X138.539 Y72.66 E.00916
G1 X157.34 Y91.461 E1.75201
G1 X157.428 Y91.568 E.0091
G1 X157.434 Y91.637 E.00458
G1 X157.124 Y91.941 F4200
; stop printing object OV-PAM_h_42mm_1F.stl id:0 copy 0
;LAYER_CHANGE
;Z:2.2
;HEIGHT:0.2
;BEFORE_LAYER_CHANGE
G92 E0.0
;2.2


G1 E-1 F2400
G1 Z2.2 F720
;AFTER_LAYER_CHANGE
;2.2
; printing object OV-PAM_h_42mm_1F.stl id:0 copy 0
G1 X157.324 Y91.735 F4200
G1 E1 F1500
;WIDTH:0.765712
G1 F1037.643
G1 X157.316 Y118.379 E1.76144
G1 X157.224 Y118.491 E.00958
G1 X138.39 Y137.311 E1.7602
G1 X138.246 Y137.326 E.00958
G1 X111.621 Y137.316 E1.7602
G1 X111.509 Y137.224 E.00958
M73 P7 R41
M73 Q7 S41
G1 X92.689 Y118.39 E1.7602
G1 X92.674 Y118.246 E.00958
G1 X92.684 Y91.621 E1.7602
G1 X92.776 Y91.509 E.00958
G1 X111.61 Y72.689 E1.7602
G1 X111.754 Y72.674 E.00958
G1 X138.379 Y72.684 E1.7602
G1 X138.491 Y72.776 E.00958
G1 X157.224 Y91.509 E1.75144
G1 X157.311 Y91.61 E.00878
G1 X157.318 Y91.675 E.00436
G1 X157.008 Y91.981 F4200
; stop printing object OV-PAM_h_42mm_1F.stl id:0 copy 0
;LAYER_CHANGE
;Z:2.4
;HEIGHT:0.2
;BEFORE_LAYER_CHANGE
G92 E0.0
;2.4


G1 E-1 F2400
G1 Z2.4 F720
;AFTER_LAYER_CHANGE
;2.4
; printing object OV-PAM_h_42mm_1F.stl id:0 copy 0
G1 X157.207 Y91.773 F4200
G1 E1 F1500
;WIDTH:0.770382
G1 F1030.982
G1 X157.206 Y118.322 E1.76649
G1 X157.109 Y118.443 E.01037
G1 X138.353 Y137.193 E1.76459
G1 X138.198 Y137.21 E.01037
G1 X111.678 Y137.206 E1.76458
G1 X111.557 Y137.109 E.01037
G1 X92.807 Y118.353 E1.76459
G1 X92.79 Y118.198 E.01037
G1 X92.794 Y91.678 E1.76458
G1 X92.891 Y91.557 E.01037
G1 X111.647 Y72.807 E1.76459
G1 X111.802 Y72.79 E.01037
G1 X138.322 Y72.794 E1.76458
G1 X138.443 Y72.891 E.01037
G1 X157.109 Y91.557 E1.75639
G1 X157.193 Y91.647 E.0082
G1 X157.201 Y91.713 E.00446
G1 X156.893 Y92.02 F4200
; stop printing object OV-PAM_h_42mm_1F.stl id:0 copy 0
;LAYER_CHANGE
;Z:2.6
;HEIGHT:0.2
;BEFORE_LAYER_CHANGE
G92 E0.0
;2.6


G1 E-1 F2400
G1 Z2.6 F720
;AFTER_LAYER_CHANGE
;2.6
; printing object OV-PAM_h_42mm_1F.stl id:0 copy 0
G1 X157.09 Y91.81 F4200
G1 E1 F1500
;WIDTH:0.777181
G1 F1021.435
G1 X157.099 Y118.261 E1.77643
G1 X156.993 Y118.396 E.01146
