; generated by PrusaSlicer 2.5.2+win64 on 2023-10-19 at 01:42:13 UTC


;
;
; 

; external perimeters extrusion width = 0.40mm
; perimeters extrusion width = 0.40mm
; infill extrusion width = 0.40mm
; solid infill extrusion width = 0.40mm
; top infill extrusion width = 0.40mm
; first layer extrusion width = 0.40mm

M73 P0 R27
M73 Q0 S27
M201 X1000 Y1000 Z200 E5000 ; sets maximum accelerations, mm/sec^2
M203 X200 Y200 Z12 E120 ; sets maximum feedrates, mm / sec
M204 P1250 R1250 T1250 ; sets acceleration (P, T) and retract acceleration (R), mm/sec^2
M205 X8.00 Y8.00 Z0.40 E4.50 ; sets the jerk limits, mm/sec
M205 S0 T0 ; sets the minimum extruding and travel feed rate, mm/sec
M107
;TYPE:Custom
M862.3 P "MK3S" ; printer model check
M862.1 P0.4 ; nozzle diameter check
M115 U3.12.2 ; tell printer latest fw version
G90 ; use absolute coordinates
M83 ; extruder relative mode
M104 S230 ; set extruder temp
M140 S50 ; set bed temp
M190 S50 ; wait for bed temp
M109 S230 ; wait for extruder temp
G28 W ; home all without mesh bed level
G80 ; mesh bed leveling

G1 Z0.2 F720
G1 Y-3 F1000 ; go outside print area
G92 E0
G1 X60 E9 F1000 ; intro line
G1 X100 E12.5 F1000 ; intro line

G92 E0
M221 S95

; Don't change E values below. Excessive value can damage the printer.
M907 E430 ; set extruder motor current
G21 ; set units to millimeters
G90 ; use absolute coordinates
M83 ; use relative distances for extrusion
M900 K0 ; Filament gcode
M107
;LAYER_CHANGE
;Z:0.2
;HEIGHT:0.2
;BEFORE_LAYER_CHANGE
G92 E0.0
;0.2


G1 E-1 F2400
G1 Z.2 F720
;AFTER_LAYER_CHANGE
;0.2
G1 X92.786 Y82.687 F4200
G1 E1 F1500
M204 S300
;TYPE:Skirt/Brim
;WIDTH:0.4
G1 F1200
G1 X102.687 Y72.786 E.45735
G1 X103.777 Y72.058 E.04278
G1 X116.714 Y66.699 E.45735
G1 X117.998 Y66.444 E.04278
G1 X132.002 Y66.444 E.45735
G1 X133.286 Y66.699 E.04278
G1 X146.223 Y72.058 E.45735
G1 X147.313 Y72.786 E.04278
G1 X157.214 Y82.687 E.45735
G1 X157.942 Y83.777 E.04278
M73 P0 R26
M73 Q0 S26
G1 X163.301 Y96.714 E.45735
G1 X163.556 Y97.998 E.04278
G1 X163.556 Y112.002 E.45735
G1 X163.301 Y113.286 E.04278
G1 X157.942 Y126.223 E.45735
G1 X157.214 Y127.313 E.04278
G1 X147.313 Y137.214 E.45735
G1 X146.223 Y137.942 E.04278
G1 X133.286 Y143.301 E.45735
G1 X132.002 Y143.556 E.04278
G1 X117.998 Y143.556 E.45735
G1 X116.714 Y143.301 E.04278
G1 X103.777 Y137.942 E.45735
G1 X102.687 Y137.214 E.04278
M73 P1 R26
M73 Q1 S26
G1 X92.786 Y127.313 E.45735
G1 X92.058 Y126.223 E.04278
G1 X86.699 Y113.286 E.45735
G1 X86.444 Y112.002 E.04278
G1 X86.444 Y97.998 E.45735
G1 X86.699 Y96.714 E.04278
G1 X92.058 Y83.777 E.45735
G1 X92.752 Y82.737 E.04082
; printing object OV-PAM_n_16_1F.stl id:0 copy 0
G1 E-1 F2400
G1 X144.738 Y134.707 F4200
G1 E1 F1500
;TYPE:External perimeter
;WIDTH:0.446797
G1 F1200
G1 X131.961 Y139.997 E.51084
G1 X118.039 Y139.997 E.51432
G1 X105.176 Y134.669 E.51432
G1 X95.331 Y124.824 E.51432
G1 X90.003 Y111.961 E.51432
G1 X90.003 Y98.039 E.51432
G1 X95.331 Y85.176 E.51432
G1 X105.176 Y75.331 E.51432
G1 X118.039 Y70.003 E.51432
G1 X131.961 Y70.003 E.51432
G1 X144.824 Y75.331 E.51432
G1 X154.669 Y85.176 E.51432
G1 X159.997 Y98.039 E.51432
G1 X159.997 Y111.961 E.51432
G1 X154.669 Y124.824 E.51432
G1 X144.854 Y134.643 E.51286
G1 X144.793 Y134.684 E.00269
G1 X144.738 Y135.107 F4200
; stop printing object OV-PAM_n_16_1F.stl id:0 copy 0
;LAYER_CHANGE
;Z:0.4
;HEIGHT:0.2
;BEFORE_LAYER_CHANGE
G92 E0.0
;0.4


G1 E-1 F2400
G1 Z.4 F720
;AFTER_LAYER_CHANGE
;0.4
G1 X146.74 Y137.597 F4200
G1 E1 F1500
;TYPE:Skirt/Brim
;WIDTH:0.4
M73 P2 R26
M73 Q2 S26
G1 F2100.372
G1 X146.223 Y137.942 E.02028
G1 X133.286 Y143.301 E.45735
G1 X132.002 Y143.556 E.04278
G1 X117.998 Y143.556 E.45735
G1 X116.714 Y143.301 E.04278
G1 X103.777 Y137.942 E.45735
G1 X102.687 Y137.214 E.04278
G1 X92.786 Y127.313 E.45735
G1 X92.058 Y126.223 E.04278
G1 X86.699 Y113.286 E.45735
G1 X86.444 Y112.002 E.04278
G1 X86.444 Y97.998 E.45735
G1 X86.699 Y96.714 E.04278
G1 X92.058 Y83.777 E.45735
G1 X92.786 Y82.687 E.04278
G1 X102.687 Y72.786 E.45735
G1 X103.777 Y72.058 E.04278
G1 X116.714 Y66.699 E.45735
G1 X117.998 Y66.444 E.04278
G1 X132.002 Y66.444 E.45735
G1 X133.286 Y66.699 E.04278
G1 X146.223 Y72.058 E.45735
G1 X147.313 Y72.786 E.04278
G1 X157.214 Y82.687 E.45735
G1 X157.942 Y83.777 E.04278
G1 X163.301 Y96.714 E.45735
G1 X163.556 Y97.998 E.04278
G1 X163.556 Y112.002 E.45735
G1 X163.301 Y113.286 E.04278
G1 X157.942 Y126.223 E.45735
G1 X157.214 Y127.313 E.04278
G1 X147.313 Y137.214 E.45735
G1 X146.79 Y137.564 E.02054
; printing object OV-PAM_n_16_1F.stl id:0 copy 0
G1 E-1 F2400
G1 X144.817 Y134.816 F4200
G1 X144.765 Y134.696
G1 E1 F1500
;TYPE:External perimeter
;WIDTH:0.446797
G1 F1200
G1 X131.961 Y139.997 E.51192
G1 X118.039 Y139.997 E.51432
G1 X105.176 Y134.669 E.51432
G1 X95.331 Y124.824 E.51432
G1 X90.003 Y111.961 E.51432
G1 X90.003 Y98.039 E.51432
G1 X95.331 Y85.176 E.51432
G1 X105.176 Y75.331 E.51432
G1 X118.039 Y70.003 E.51432
G1 X131.961 Y70.003 E.51432
G1 X144.824 Y75.331 E.51432
G1 X154.669 Y85.176 E.51432
G1 X159.997 Y98.039 E.51432
G1 X159.997 Y111.961 E.51432
M73 P3 R26
M73 Q3 S26
G1 X154.669 Y124.824 E.51432
G1 X144.82 Y134.671 E.51449
G1 X144.791 Y135.095 F4200
; stop printing object OV-PAM_n_16_1F.stl id:0 copy 0
;LAYER_CHANGE
;Z:0.6
;HEIGHT:0.2
;BEFORE_LAYER_CHANGE
G92 E0.0
;0.6


G1 E-1 F2400
G1 Z.6 F720
;AFTER_LAYER_CHANGE
;0.6
G1 X146.764 Y137.581 F4200
G1 E1 F1500
;TYPE:Skirt/Brim
;WIDTH:0.4
G1 F2100.372
G1 X146.223 Y137.942 E.02123
G1 X133.286 Y143.301 E.45735
G1 X132.002 Y143.556 E.04278
G1 X117.998 Y143.556 E.45735
G1 X116.714 Y143.301 E.04278
G1 X103.777 Y137.942 E.45735
G1 X102.687 Y137.214 E.04278
G1 X92.786 Y127.313 E.45735
G1 X92.058 Y126.223 E.04278
G1 X86.699 Y113.286 E.45735
G1 X86.444 Y112.002 E.04278
G1 X86.444 Y97.998 E.45735
G1 X86.699 Y96.714 E.04278
G1 X92.058 Y83.777 E.45735
G1 X92.786 Y82.687 E.04278
G1 X102.687 Y72.786 E.45735
G1 X103.777 Y72.058 E.04278
G1 X116.714 Y66.699 E.45735
G1 X117.998 Y66.444 E.04278
G1 X132.002 Y66.444 E.45735
G1 X133.286 Y66.699 E.04278
G1 X146.223 Y72.058 E.45735
G1 X147.313 Y72.786 E.04278
G1 X157.214 Y82.687 E.45735
G1 X157.942 Y83.777 E.04278
G1 X163.301 Y96.714 E.45735
G1 X163.556 Y97.998 E.04278
G1 X163.556 Y112.002 E.45735
G1 X163.301 Y113.286 E.04278
G1 X157.942 Y126.223 E.45735
G1 X157.214 Y127.313 E.04278
G1 X147.313 Y137.214 E.45735
G1 X146.814 Y137.547 E.01959
; printing object OV-PAM_n_16_1F.stl id:0 copy 0
G1 E-1 F2400
G1 X144.846 Y134.804 F4200
G1 X144.794 Y134.684
G1 E1 F1500
;TYPE:External perimeter
;WIDTH:0.446797
G1 F1200
G1 X131.961 Y139.997 E.51308
G1 X118.039 Y139.997 E.51432
G1 X105.176 Y134.669 E.51432
G1 X95.331 Y124.824 E.51432
G1 X90.003 Y111.961 E.51432
G1 X90.003 Y98.039 E.51432
G1 X95.331 Y85.176 E.51432
G1 X105.176 Y75.331 E.51432
G1 X118.039 Y70.003 E.51432
G1 X131.961 Y70.003 E.51432
M73 P4 R26
M73 Q4 S26
G1 X144.824 Y75.331 E.51432
G1 X154.669 Y85.176 E.51432
G1 X159.997 Y98.039 E.51432
G1 X159.997 Y111.961 E.51432
G1 X154.669 Y124.824 E.51432
G1 X144.844 Y134.651 E.51334
G1 X144.82 Y135.083 F4200
; stop printing object OV-PAM_n_16_1F.stl id:0 copy 0
;LAYER_CHANGE
;Z:0.8
;HEIGHT:0.2
;BEFORE_LAYER_CHANGE
G92 E0.0
;0.8


G1 E-1 F2400
G1 Z.8 F720
;AFTER_LAYER_CHANGE
;0.8
; printing object OV-PAM_n_16_1F.stl id:0 copy 0
G1 X144.836 Y134.659 F4200
G1 E1 F1500
G1 F1200
G1 X131.961 Y139.997 E.51486
G1 X118.039 Y139.997 E.51432
G1 X105.176 Y134.669 E.51432
M73 P4 R25
M73 Q4 S25
G1 X95.331 Y124.824 E.51432
G1 X90.003 Y111.961 E.51432
G1 X90.003 Y98.039 E.51432
G1 X95.331 Y85.176 E.51432
G1 X105.176 Y75.331 E.51432
G1 X118.039 Y70.003 E.51432
G1 X131.961 Y70.003 E.51432
G1 X144.824 Y75.331 E.51432
G1 X154.669 Y85.176 E.51432
G1 X159.997 Y98.039 E.51432
G1 X159.997 Y111.961 E.51432
G1 X154.669 Y124.824 E.51432
G1 X144.879 Y134.617 E.51153
G1 X144.862 Y135.058 F4200
; stop printing object OV-PAM_n_16_1F.stl id:0 copy 0
;LAYER_CHANGE
;Z:1
;HEIGHT:0.2
;BEFORE_LAYER_CHANGE
G92 E0.0
;1


M73 P5 R25
M73 Q5 S25
G1 E-1 F2400
G1 Z1 F720
;AFTER_LAYER_CHANGE
;1
; printing object OV-PAM_n_16_1F.stl id:0 copy 0
G1 X144.884 Y134.612 F4200
G1 E1 F1500
G1 F1200
G1 X144.789 Y134.686 E.00446
G1 X131.961 Y139.997 E.51286
G1 X118.039 Y139.997 E.51432
G1 X105.176 Y134.669 E.51432
G1 X95.331 Y124.824 E.51432
G1 X90.003 Y111.961 E.51432
G1 X90.003 Y98.039 E.51432
G1 X95.331 Y85.176 E.51432
G1 X105.176 Y75.331 E.51432
G1 X118.039 Y70.003 E.51432
G1 X131.961 Y70.003 E.51432
G1 X144.824 Y75.331 E.51432
G1 X154.669 Y85.176 E.51432
G1 X159.997 Y98.039 E.51432
G1 X159.997 Y111.961 E.51432
G1 X154.669 Y124.824 E.51432
G1 X144.927 Y134.57 E.50905
G1 X144.913 Y134.729 F4200
; stop printing object OV-PAM_n_16_1F.stl id:0 copy 0
;LAYER_CHANGE
;Z:1.2
;HEIGHT:0.2
;BEFORE_LAYER_CHANGE
G92 E0.0
;1.2


G1 E-1 F2400
G1 Z1.2 F720
;AFTER_LAYER_CHANGE
;1.2
; printing object OV-PAM_n_16_1F.stl id:0 copy 0
G1 X144.933 Y134.56 F4200
G1 E1 F1500
;WIDTH:0.450982
G1 F1200
G1 X144.787 Y134.684 E.00715
G1 X131.961 Y139.995 E.51813
G1 X118.039 Y139.995 E.51961
G1 X105.177 Y134.667 E.51962
G1 X95.333 Y124.823 E.51961
G1 X90.005 Y111.961 E.51961
G1 X90.005 Y98.039 E.51961
G1 X95.333 Y85.177 E.51962
G1 X105.177 Y75.333 E.51961
M73 P6 R25
M73 Q6 S25
G1 X118.039 Y70.005 E.51961
G1 X131.961 Y70.005 E.51961
G1 X144.823 Y75.333 E.51962
G1 X154.667 Y85.177 E.51961
G1 X159.995 Y98.039 E.51961
G1 X159.995 Y111.961 E.51961
G1 X154.667 Y124.823 E.51962
G1 X144.975 Y134.518 E.51165
G1 X144.985 Y134.745 F4200
; stop printing object OV-PAM_n_16_1F.stl id:0 copy 0
;LAYER_CHANGE
;Z:1.4
;HEIGHT:0.2
;BEFORE_LAYER_CHANGE
G92 E0.0
;1.4


G1 E-1 F2400
G1 Z1.4 F720
;AFTER_LAYER_CHANGE
;1.4
; printing object OV-PAM_n_16_1F.stl id:0 copy 0
G1 X144.927 Y134.444 F4200
G1 E1 F1500
;WIDTH:0.509278
G1 F1200
G1 X144.733 Y134.613 E.01101
G1 X131.944 Y139.908 E.59043
G1 X118.056 Y139.908 E.59237
G1 X105.226 Y134.594 E.59237
G1 X95.406 Y124.774 E.59237
G1 X90.092 Y111.944 E.59237
G1 X90.092 Y98.056 E.59237
G1 X95.406 Y85.226 E.59237
G1 X105.226 Y75.406 E.59237
G1 X118.056 Y70.092 E.59237
G1 X131.944 Y70.092 E.59237
G1 X144.774 Y75.406 E.59237
G1 X154.594 Y85.226 E.59237
G1 X159.908 Y98.056 E.59237
G1 X159.908 Y111.944 E.59237
G1 X154.594 Y124.774 E.59237
M73 P7 R25
M73 Q7 S25
G1 X144.97 Y134.401 E.58066
G1 X144.999 Y134.692 F4200
; stop printing object OV-PAM_n_16_1F.stl id:0 copy 0
;LAYER_CHANGE
;Z:1.6
;HEIGHT:0.2
;BEFORE_LAYER_CHANGE
G92 E0.0
;1.6


G1 E-1 F2400
G1 Z1.6 F720
;AFTER_LAYER_CHANGE
;1.6
; printing object OV-PAM_n_16_1F.stl id:0 copy 0
G1 X144.911 Y134.296 F4200
G1 E1 F1500
;WIDTH:0.52965
G1 F1200
G1 X144.763 Y134.462 E.00992
G1 X144.667 Y134.515 E.00486
G1 X131.984 Y139.783 E.61142
G1 X118.141 Y139.807 E.61625
G1 X105.343 Y134.533 E.61625
G1 X95.538 Y124.763 E.61625
G1 X90.217 Y111.984 E.61625
G1 X90.193 Y98.141 E.61625
G1 X95.467 Y85.343 E.61625
G1 X105.237 Y75.538 E.61625
G1 X118.016 Y70.217 E.61625
G1 X131.859 Y70.193 E.61625
G1 X144.657 Y75.467 E.61625
G1 X154.462 Y85.237 E.61625
G1 X159.783 Y98.016 E.61625
G1 X159.807 Y111.859 E.61625
G1 X154.533 Y124.657 E.61625
G1 X144.954 Y134.254 E.60366
G1 X144.691 Y134.261 F4200
; stop printing object OV-PAM_n_16_1F.stl id:0 copy 0
;LAYER_CHANGE
;Z:1.8
;HEIGHT:0.2
;BEFORE_LAYER_CHANGE
G92 E0.0
;1.8


G1 E-1 F2400
G1 Z1.8 F720
;AFTER_LAYER_CHANGE
;1.8
; printing object OV-PAM_n_16_1F.stl id:0 copy 0
G1 X144.9 Y134.144 F4200
G1 E1 F1500
;WIDTH:0.504801
G1 F1200
G1 X144.818 Y134.247 E.00557
;WIDTH:0.563781
G1 X144.77 Y134.316 E.00399
G1 X144.602 Y134.417 E.00936
;WIDTH:0.504801
G1 X132.188 Y139.56 E.56767
G1 X132.117 Y139.605 E.00354
;WIDTH:0.563779
G1 X132.046 Y139.65 E.00399
G1 X131.852 Y139.68 E.00936
;WIDTH:0.504798
G1 X118.415 Y139.68 E.56766
G1 X118.333 Y139.694 E.00354
;WIDTH:0.563778
G1 X118.25 Y139.709 E.00399
G1 X118.059 Y139.662 E.00936
;WIDTH:0.5048
G1 X105.645 Y134.52 E.56767
G1 X105.563 Y134.502 E.00354
;WIDTH:0.563782
G1 X105.481 Y134.484 E.00399
G1 X105.323 Y134.367 E.00936
;WIDTH:0.504801
G1 X95.822 Y124.866 E.56767
G1 X95.753 Y124.818 E.00354
;WIDTH:0.563781
G1 X95.684 Y124.77 E.00399
G1 X95.583 Y124.602 E.00936
;WIDTH:0.504801
G1 X90.44 Y112.188 E.56767
G1 X90.395 Y112.117 E.00354
;WIDTH:0.563779
M73 P8 R25
M73 Q8 S25
G1 X90.35 Y112.046 E.00399
G1 X90.32 Y111.852 E.00936
;WIDTH:0.504798
G1 X90.32 Y98.415 E.56766
G1 X90.306 Y98.333 E.00354
;WIDTH:0.563778
M73 P8 R24
M73 Q8 S24
G1 X90.291 Y98.25 E.00399
G1 X90.338 Y98.059 E.00936
;WIDTH:0.5048
G1 X95.48 Y85.645 E.56767
G1 X95.498 Y85.563 E.00354
;WIDTH:0.563782
G1 X95.516 Y85.481 E.00399
G1 X95.633 Y85.323 E.00936
;WIDTH:0.504801
G1 X105.134 Y75.822 E.56767
G1 X105.182 Y75.753 E.00354
;WIDTH:0.563781
G1 X105.23 Y75.684 E.00399
G1 X105.398 Y75.583 E.00936
;WIDTH:0.504801
G1 X117.812 Y70.44 E.56767
G1 X117.883 Y70.395 E.00354
;WIDTH:0.563779
G1 X117.954 Y70.35 E.00399
G1 X118.148 Y70.32 E.00936
;WIDTH:0.504798
G1 X131.585 Y70.32 E.56766
G1 X131.667 Y70.306 E.00354
;WIDTH:0.563778
G1 X131.75 Y70.291 E.00399
G1 X131.941 Y70.338 E.00936
;WIDTH:0.504798
G1 X144.355 Y75.48 E.56766
G1 X144.437 Y75.498 E.00354
;WIDTH:0.563782
G1 X144.519 Y75.516 E.00399
G1 X144.677 Y75.633 E.00936
;WIDTH:0.504801
G1 X154.178 Y85.134 E.56767
G1 X154.247 Y85.182 E.00354
;WIDTH:0.563781
G1 X154.316 Y85.23 E.00399
G1 X154.417 Y85.398 E.00936
;WIDTH:0.504801
G1 X159.56 Y97.812 E.56767
G1 X159.605 Y97.883 E.00354
;WIDTH:0.563779
G1 X159.65 Y97.954 E.00399
G1 X159.68 Y98.148 E.00936
;WIDTH:0.504798
G1 X159.68 Y111.585 E.56766
G1 X159.694 Y111.667 E.00354
;WIDTH:0.563778
G1 X159.709 Y111.75 E.00399
;WIDTH:0.563777
G1 X159.662 Y111.941 E.00936
;WIDTH:0.5048
G1 X154.52 Y124.355 E.56767
G1 X154.502 Y124.437 E.00354
;WIDTH:0.563782
G1 X154.484 Y124.519 E.00399
G1 X154.367 Y124.677 E.00936
;WIDTH:0.504801
G1 X144.943 Y134.102 E.56308
; stop printing object OV-PAM_n_16_1F.stl id:0 copy 0
;LAYER_CHANGE
;Z:2
;HEIGHT:0.2
;BEFORE_LAYER_CHANGE
G92 E0.0
;2


G1 E-1 F2400
G1 Z2 F720
;AFTER_LAYER_CHANGE
;2
; printing object OV-PAM_n_16_1F.stl id:0 copy 0
G1 X131.921 Y139.555 F4200
G1 E1 F1500
;WIDTH:0.504798
G1 F1200
G1 X118.582 Y139.564 E.56353
;WIDTH:0.562645
G1 X118.37 Y139.613 E.01035
G1 X118.171 Y139.573 E.00964
;WIDTH:0.504799
G1 X105.843 Y134.477 E.56353
;WIDTH:0.555404
G1 X105.629 Y134.441 E.0102
G1 X105.627 Y134.571 E.00611
;WIDTH:0.461771
G1 X105.625 Y134.701 E.00499
;WIDTH:0.368138
G1 X105.624 Y134.832 E.00388
G1 X105.46 Y134.328 F4200
;WIDTH:0.523074
G1 F1200
G1 X96.021 Y124.902 E.58583
G1 X95.929 Y124.844 E.00478
;WIDTH:0.602219
G1 X95.837 Y124.787 E.00557
G1 X95.785 Y124.906 E.00666
;WIDTH:0.508587
G1 X95.734 Y125.026 E.00555
;WIDTH:0.414952
G1 X95.683 Y125.146 E.00443
G1 X95.724 Y124.618 F4200
;WIDTH:0.523077
G1 F1200
G1 X90.611 Y112.297 E.58583
G1 X90.548 Y112.209 E.00478
;WIDTH:0.602219
G1 X90.485 Y112.12 E.00557
G1 X90.391 Y112.211 E.00666
;WIDTH:0.508586
G1 X90.298 Y112.302 E.00555
;WIDTH:0.414954
G1 X90.205 Y112.393 E.00443
G1 X90.445 Y111.921 F4200
;WIDTH:0.504798
G1 F1200
G1 X90.436 Y98.582 E.56353
;WIDTH:0.562645
G1 X90.387 Y98.37 E.01035
G1 X90.427 Y98.171 E.00964
;WIDTH:0.504799
G1 X95.523 Y85.843 E.56353
;WIDTH:0.555404
G1 X95.559 Y85.629 E.0102
G1 X95.429 Y85.627 E.00611
;WIDTH:0.461771
G1 X95.299 Y85.625 E.00499
;WIDTH:0.368138
G1 X95.168 Y85.624 E.00388
G1 X95.672 Y85.46 F4200
;WIDTH:0.504801
G1 F1200
G1 X105.098 Y76.021 E.56354
;WIDTH:0.555404
G1 X105.213 Y75.837 E.0102
G1 X105.094 Y75.785 E.00611
;WIDTH:0.461769
G1 X104.974 Y75.734 E.00499
;WIDTH:0.368135
G1 X104.854 Y75.683 E.00387
G1 X105.382 Y75.724 F4200
;WIDTH:0.5048
G1 F1200
G1 X117.703 Y70.611 E.56354
;WIDTH:0.555402
G1 X117.88 Y70.485 E.0102
G1 X117.789 Y70.391 E.00611
;WIDTH:0.46177
G1 X117.698 Y70.298 E.00499
;WIDTH:0.368138
G1 X117.607 Y70.205 E.00388
G1 X118.079 Y70.445 F4200
;WIDTH:0.523072
G1 F1200
G1 X131.418 Y70.436 E.58583
G1 X131.524 Y70.412 E.00478
;WIDTH:0.602218
G1 X131.63 Y70.387 E.00557
G1 X131.829 Y70.427 E.01038
;WIDTH:0.523072
G1 X144.157 Y75.523 E.58583
G1 X144.264 Y75.541 E.00478
;WIDTH:0.602221
G1 X144.371 Y75.559 E.00557
G1 X144.373 Y75.429 E.00666
;WIDTH:0.508588
G1 X144.375 Y75.299 E.00555
;WIDTH:0.414954
G1 X144.376 Y75.168 E.00443
