; generated by PrusaSlicer 2.5.2+win64 on 2023-10-19 at 01:41:56 UTC


;
;
; 

; external perimeters extrusion width = 0.40mm
; perimeters extrusion width = 0.40mm
; infill extrusion width = 0.40mm
; solid infill extrusion width = 0.40mm
; top infill extrusion width = 0.40mm
; first layer extrusion width = 0.40mm

M73 P0 R26
M73 Q0 S26
M201 X1000 Y1000 Z200 E5000 ; sets maximum accelerations, mm/sec^2
M203 X200 Y200 Z12 E120 ; sets maximum feedrates, mm / sec
M204 P1250 R1250 T1250 ; sets acceleration (P, T) and retract acceleration (R), mm/sec^2
M205 X8.00 Y8.00 Z0.40 E4.50 ; sets the jerk limits, mm/sec
M205 S0 T0 ; sets the minimum extruding and travel feed rate, mm/sec
M107
;TYPE:Custom
M862.3 P "MK3S" ; printer model check
M862.1 P0.4 ; nozzle diameter check
M115 U3.12.2 ; tell printer latest fw version
G90 ; use absolute coordinates
M83 ; extruder relative mode
M104 S230 ; set extruder temp
M140 S50 ; set bed temp
M190 S50 ; wait for bed temp
M109 S230 ; wait for extruder temp
G28 W ; home all without mesh bed level
G80 ; mesh bed leveling

G1 Z0.2 F720
G1 Y-3 F1000 ; go outside print area
G92 E0
G1 X60 E9 F1000 ; intro line
G1 X100 E12.5 F1000 ; intro line

G92 E0
M221 S95

; Don't change E values below. Excessive value can damage the printer.
M907 E430 ; set extruder motor current
G21 ; set units to millimeters
G90 ; use absolute coordinates
M83 ; use relative distances for extrusion
M900 K0 ; Filament gcode
M107
;LAYER_CHANGE
;Z:0.2
;HEIGHT:0.2
;BEFORE_LAYER_CHANGE
G92 E0.0
;0.2


G1 E-1 F2400
G1 Z.2 F720
;AFTER_LAYER_CHANGE
;0.2
G1 X96.709 Y77.938 F4200
G1 E1 F1500
M204 S300
;TYPE:Skirt/Brim
;WIDTH:0.4
G1 F1200
G1 X97.938 Y76.709 E.05676
G1 X114.03 Y67.418 E.6069
G1 X115.709 Y66.968 E.05676
G1 X134.291 Y66.968 E.6069
G1 X135.97 Y67.418 E.05676
G1 X152.062 Y76.709 E.6069
G1 X153.291 Y77.938 E.05676
G1 X162.582 Y94.03 E.6069
G1 X163.032 Y95.709 E.05676
G1 X163.032 Y114.291 E.6069
G1 X162.582 Y115.97 E.05676
G1 X153.291 Y132.062 E.6069
G1 X152.062 Y133.291 E.05676
G1 X135.97 Y142.582 E.6069
G1 X134.291 Y143.032 E.05676
G1 X115.709 Y143.032 E.6069
G1 X114.03 Y142.582 E.05676
G1 X97.938 Y133.291 E.6069
G1 X96.709 Y132.062 E.05676
M73 P1 R26
M73 Q1 S26
G1 X87.418 Y115.97 E.6069
G1 X86.968 Y114.291 E.05676
G1 X86.968 Y95.709 E.6069
G1 X87.418 Y94.03 E.05676
G1 X96.679 Y77.99 E.60494
; printing object OV-PAM_n_12_1F.stl id:0 copy 0
G1 E-1 F2400
G1 X150.191 Y130.264 F4200
G1 E1 F1500
;TYPE:External perimeter
;WIDTH:0.449852
G1 F1200
G1 X134.237 Y139.471 E.68562
G1 X115.816 Y139.475 E.68562
G1 X115.716 Y139.448 E.00385
G1 X99.765 Y130.235 E.68562
G1 X90.552 Y114.284 E.68562
G1 X90.525 Y114.184 E.00385
G1 X90.529 Y95.763 E.68562
G1 X99.765 Y79.765 E.68758
G1 X115.716 Y70.552 E.68562
G1 X115.816 Y70.525 E.00385
G1 X134.237 Y70.529 E.68562
G1 X150.235 Y79.765 E.68758
G1 X159.448 Y95.716 E.68562
G1 X159.475 Y95.816 E.00385
G1 X159.471 Y114.237 E.68562
G1 X150.239 Y130.229 E.68731
G1 X150.294 Y130.651 F4200
; stop printing object OV-PAM_n_12_1F.stl id:0 copy 0
;LAYER_CHANGE
;Z:0.4
;HEIGHT:0.2
;BEFORE_LAYER_CHANGE
G92 E0.0
;0.4


G1 E-1 F2400
M73 P2 R26
M73 Q2 S26
G1 Z.4 F720
;AFTER_LAYER_CHANGE
;0.4
G1 X152.682 Y132.672 F4200
G1 E1 F1500
;TYPE:Skirt/Brim
;WIDTH:0.4
G1 F2100.372
G1 X152.062 Y133.291 E.02861
G1 X135.97 Y142.582 E.6069
G1 X134.291 Y143.032 E.05676
G1 X115.709 Y143.032 E.6069
G1 X114.03 Y142.582 E.05676
G1 X97.938 Y133.291 E.6069
G1 X96.709 Y132.062 E.05676
G1 X87.418 Y115.97 E.6069
G1 X86.968 Y114.291 E.05676
G1 X86.968 Y95.709 E.6069
G1 X87.418 Y94.03 E.05676
G1 X96.709 Y77.938 E.6069
G1 X97.938 Y76.709 E.05676
G1 X114.03 Y67.418 E.6069
G1 X115.709 Y66.968 E.05676
G1 X134.291 Y66.968 E.6069
G1 X135.97 Y67.418 E.05676
G1 X152.062 Y76.709 E.6069
G1 X153.291 Y77.938 E.05676
G1 X162.582 Y94.03 E.6069
G1 X163.032 Y95.709 E.05676
G1 X163.032 Y114.291 E.6069
G1 X162.582 Y115.97 E.05676
G1 X153.291 Y132.062 E.6069
G1 X152.724 Y132.629 E.02619
; printing object OV-PAM_n_12_1F.stl id:0 copy 0
G1 E-1 F2400
G1 X150.269 Y130.368 F4200
G1 X150.201 Y130.257
G1 E1 F1500
;TYPE:External perimeter
;WIDTH:0.449852
G1 F1200
G1 X134.237 Y139.471 E.68608
G1 X115.816 Y139.475 E.68562
G1 X115.716 Y139.448 E.00385
G1 X99.765 Y130.235 E.68562
G1 X90.552 Y114.284 E.68562
G1 X90.525 Y114.184 E.00385
G1 X90.529 Y95.763 E.68562
G1 X99.765 Y79.765 E.68758
G1 X115.716 Y70.552 E.68562
G1 X115.816 Y70.525 E.00385
G1 X134.237 Y70.529 E.68562
G1 X150.235 Y79.765 E.68758
G1 X159.448 Y95.716 E.68562
G1 X159.475 Y95.816 E.00385
M73 P3 R26
M73 Q3 S26
G1 X159.471 Y114.237 E.68562
G1 X150.246 Y130.218 E.68684
G1 X150.305 Y130.644 F4200
; stop printing object OV-PAM_n_12_1F.stl id:0 copy 0
;LAYER_CHANGE
;Z:0.6
;HEIGHT:0.2
;BEFORE_LAYER_CHANGE
G92 E0.0
;0.6


G1 E-1 F2400
G1 Z.6 F720
;AFTER_LAYER_CHANGE
;0.6
G1 X152.69 Y132.663 F4200
G1 E1 F1500
;TYPE:Skirt/Brim
;WIDTH:0.4
G1 F2100.372
G1 X152.062 Y133.291 E.02901
G1 X135.97 Y142.582 E.6069
G1 X134.291 Y143.032 E.05676
G1 X115.709 Y143.032 E.6069
G1 X114.03 Y142.582 E.05676
G1 X97.938 Y133.291 E.6069
G1 X96.709 Y132.062 E.05676
G1 X87.418 Y115.97 E.6069
G1 X86.968 Y114.291 E.05676
G1 X86.968 Y95.709 E.6069
G1 X87.418 Y94.03 E.05676
G1 X96.709 Y77.938 E.6069
G1 X97.938 Y76.709 E.05676
M73 P3 R25
M73 Q3 S25
G1 X114.03 Y67.418 E.6069
G1 X115.709 Y66.968 E.05676
G1 X134.291 Y66.968 E.6069
G1 X135.97 Y67.418 E.05676
G1 X152.062 Y76.709 E.6069
G1 X153.291 Y77.938 E.05676
G1 X162.582 Y94.03 E.6069
G1 X163.032 Y95.709 E.05676
G1 X163.032 Y114.291 E.6069
G1 X162.582 Y115.97 E.05676
G1 X153.291 Y132.062 E.6069
G1 X152.733 Y132.621 E.02579
; printing object OV-PAM_n_12_1F.stl id:0 copy 0
G1 E-1 F2400
G1 X150.29 Y130.356 F4200
G1 X150.221 Y130.244
G1 E1 F1500
;TYPE:External perimeter
;WIDTH:0.449852
G1 F1200
G1 X134.237 Y139.471 E.68697
G1 X115.816 Y139.475 E.68562
G1 X115.716 Y139.448 E.00385
G1 X99.765 Y130.235 E.68562
G1 X90.552 Y114.284 E.68562
G1 X90.525 Y114.184 E.00385
G1 X90.529 Y95.763 E.68562
G1 X99.765 Y79.765 E.68758
G1 X115.716 Y70.552 E.68562
G1 X115.816 Y70.525 E.00385
M73 P4 R25
M73 Q4 S25
G1 X134.237 Y70.529 E.68562
G1 X150.235 Y79.765 E.68758
G1 X159.448 Y95.716 E.68562
G1 X159.475 Y95.816 E.00385
G1 X159.471 Y114.237 E.68562
G1 X150.259 Y130.199 E.68596
G1 X150.325 Y130.63 F4200
; stop printing object OV-PAM_n_12_1F.stl id:0 copy 0
;LAYER_CHANGE
;Z:0.8
;HEIGHT:0.2
;BEFORE_LAYER_CHANGE
G92 E0.0
;0.8


G1 E-1 F2400
G1 Z.8 F720
;AFTER_LAYER_CHANGE
;0.8
; printing object OV-PAM_n_12_1F.stl id:0 copy 0
G1 X150.248 Y130.216 F4200
G1 E1 F1500
G1 F1200
G1 X150.191 Y130.264 E.00277
G1 X134.284 Y139.448 E.68366
G1 X134.184 Y139.475 E.00385
G1 X115.763 Y139.471 E.68562
G1 X99.765 Y130.235 E.68758
G1 X90.552 Y114.284 E.68562
G1 X90.525 Y114.184 E.00385
G1 X90.529 Y95.763 E.68562
G1 X99.765 Y79.765 E.68758
G1 X115.716 Y70.552 E.68562
G1 X115.816 Y70.525 E.00385
G1 X134.237 Y70.529 E.68562
G1 X150.235 Y79.765 E.68758
G1 X159.448 Y95.716 E.68562
G1 X159.475 Y95.816 E.00385
G1 X159.471 Y114.237 E.68562
G1 X150.279 Y130.165 E.6845
G1 X150.275 Y130.285 F4200
; stop printing object OV-PAM_n_12_1F.stl id:0 copy 0
;LAYER_CHANGE
;Z:1
;HEIGHT:0.2
;BEFORE_LAYER_CHANGE
G92 E0.0
;1


M73 P5 R25
M73 Q5 S25
G1 E-1 F2400
G1 Z1 F720
;AFTER_LAYER_CHANGE
;1
; printing object OV-PAM_n_12_1F.stl id:0 copy 0
G1 X150.278 Y130.167 F4200
G1 E1 F1500
G1 F1200
G1 X150.235 Y130.235 E.00298
G1 X150.191 Y130.264 E.00196
G1 X134.284 Y139.448 E.68366
G1 X134.184 Y139.475 E.00385
G1 X115.763 Y139.471 E.68562
G1 X99.765 Y130.235 E.68758
G1 X90.552 Y114.284 E.68562
G1 X90.525 Y114.184 E.00385
G1 X90.529 Y95.763 E.68562
G1 X99.765 Y79.765 E.68758
G1 X115.716 Y70.552 E.68562
G1 X115.816 Y70.525 E.00385
G1 X134.237 Y70.529 E.68562
G1 X150.235 Y79.765 E.68758
G1 X159.448 Y95.716 E.68562
G1 X159.475 Y95.816 E.00385
G1 X159.471 Y114.237 E.68562
G1 X150.308 Y130.115 E.68236
G1 X150.322 Y130.234 F4200
; stop printing object OV-PAM_n_12_1F.stl id:0 copy 0
;LAYER_CHANGE
;Z:1.2
;HEIGHT:0.2
;BEFORE_LAYER_CHANGE
G92 E0.0
;1.2


G1 E-1 F2400
G1 Z1.2 F720
;AFTER_LAYER_CHANGE
;1.2
; printing object OV-PAM_n_12_1F.stl id:0 copy 0
G1 X150.306 Y130.114 F4200
G1 E1 F1500
;WIDTH:0.45407
G1 F1200
G1 X150.233 Y130.233 E.00527
G1 X150.189 Y130.263 E.00201
G1 X134.284 Y139.446 E.69066
G1 X134.183 Y139.473 E.00393
G1 X115.764 Y139.469 E.69266
G1 X99.767 Y130.233 E.69466
G1 X90.554 Y114.284 E.69266
G1 X90.527 Y114.183 E.00393
G1 X90.531 Y95.764 E.69266
G1 X99.767 Y79.767 E.69466
M73 P6 R25
M73 Q6 S25
G1 X115.716 Y70.554 E.69266
G1 X115.817 Y70.527 E.00393
G1 X134.236 Y70.531 E.69266
G1 X150.233 Y79.767 E.69466
G1 X159.446 Y95.716 E.69266
G1 X159.473 Y95.817 E.00393
G1 X159.469 Y114.236 E.69266
G1 X150.336 Y130.062 E.68714
G1 X150.385 Y130.23 F4200
; stop printing object OV-PAM_n_12_1F.stl id:0 copy 0
;LAYER_CHANGE
;Z:1.4
;HEIGHT:0.2
;BEFORE_LAYER_CHANGE
G92 E0.0
;1.4


G1 E-1 F2400
G1 Z1.4 F720
;AFTER_LAYER_CHANGE
;1.4
; printing object OV-PAM_n_12_1F.stl id:0 copy 0
G1 X150.267 Y130.009 F4200
G1 E1 F1500
;WIDTH:0.512805
G1 F1200
G1 X150.17 Y130.17 E.00805
G1 X150.119 Y130.203 E.00262
G1 X134.267 Y139.355 E.78666
G1 X134.152 Y139.386 E.00514
G1 X115.787 Y139.382 E.78928
G1 X99.83 Y130.17 E.79189
G1 X90.618 Y114.213 E.79189
G1 X90.614 Y95.848 E.78928
G1 X90.645 Y95.733 E.00514
G1 X99.83 Y79.83 E.78928
G1 X115.787 Y70.618 E.79189
G1 X134.152 Y70.614 E.78928
G1 X134.267 Y70.645 E.00514
G1 X150.17 Y79.83 E.78928
G1 X159.355 Y95.733 E.78928
G1 X159.386 Y95.848 E.00514
M73 P7 R25
M73 Q7 S25
G1 X159.382 Y114.213 E.78928
G1 X150.297 Y129.957 E.78126
G1 X150.372 Y130.164 F4200
; stop printing object OV-PAM_n_12_1F.stl id:0 copy 0
;LAYER_CHANGE
;Z:1.6
;HEIGHT:0.2
;BEFORE_LAYER_CHANGE
G92 E0.0
;1.6


M73 P7 R24
M73 Q7 S24
G1 E-1 F2400
G1 Z1.6 F720
;AFTER_LAYER_CHANGE
;1.6
; printing object OV-PAM_n_12_1F.stl id:0 copy 0
G1 X150.211 Y129.875 F4200
G1 E1 F1500
;WIDTH:0.527614
G1 F1200
G1 X150.118 Y130.058 E.00911
G1 X150.034 Y130.119 E.00458
G1 X134.224 Y139.259 E.80964
G1 X134.121 Y139.271 E.00458
G1 X115.858 Y139.281 E.80964
G1 X99.942 Y130.118 E.81419
G1 X90.741 Y114.224 E.81419
G1 X90.729 Y114.121 E.00458
G1 X90.719 Y95.858 E.80964
G1 X99.882 Y79.942 E.81419
G1 X115.776 Y70.741 E.81419
G1 X115.879 Y70.729 E.00458
G1 X134.142 Y70.719 E.80964
G1 X150.058 Y79.882 E.81419
G1 X159.259 Y95.776 E.81419
G1 X159.271 Y95.879 E.00458
G1 X159.281 Y114.142 E.80964
G1 X150.241 Y129.823 E.80243
G1 X150.007 Y129.9 F4200
; stop printing object OV-PAM_n_12_1F.stl id:0 copy 0
;LAYER_CHANGE
;Z:1.8
;HEIGHT:0.2
;BEFORE_LAYER_CHANGE
G92 E0.0
;1.8


G1 E-1 F2400
G1 Z1.8 F720
;AFTER_LAYER_CHANGE
;1.8
; printing object OV-PAM_n_12_1F.stl id:0 copy 0
G1 X150.163 Y129.728 F4200
G1 E1 F1500
;WIDTH:0.5048
G1 F1200
G1 X150.114 Y129.843 E.00527
;WIDTH:0.564494
G1 X150.085 Y129.922 E.00402
G1 X149.95 Y130.034 E.00839
;WIDTH:0.5048
G1 X134.392 Y139.017 E.75893
G1 X134.328 Y139.071 E.00356
;WIDTH:0.564494
G1 X134.263 Y139.126 E.00402
G1 X134.09 Y139.155 E.00839
;WIDTH:0.504802
G1 X116.126 Y139.155 E.75893
G1 X116.043 Y139.17 E.00356
;WIDTH:0.564494
G1 X115.959 Y139.185 E.00402
G1 X115.795 Y139.124 E.00839
;WIDTH:0.5048
G1 X100.237 Y130.142 E.75893
G1 X100.157 Y130.114 E.00356
;WIDTH:0.564494
M73 P8 R24
M73 Q8 S24
G1 X100.078 Y130.085 E.00402
G1 X99.966 Y129.95 E.00839
;WIDTH:0.5048
G1 X90.983 Y114.392 E.75893
G1 X90.929 Y114.328 E.00356
;WIDTH:0.564494
G1 X90.874 Y114.263 E.00402
G1 X90.845 Y114.09 E.00839
;WIDTH:0.504802
G1 X90.845 Y96.126 E.75893
G1 X90.83 Y96.043 E.00356
;WIDTH:0.564494
G1 X90.815 Y95.959 E.00402
G1 X90.876 Y95.795 E.00839
;WIDTH:0.5048
G1 X99.858 Y80.237 E.75893
G1 X99.886 Y80.157 E.00356
;WIDTH:0.564494
G1 X99.915 Y80.078 E.00402
G1 X100.05 Y79.966 E.00839
;WIDTH:0.5048
G1 X115.608 Y70.983 E.75893
G1 X115.672 Y70.929 E.00356
;WIDTH:0.564494
G1 X115.737 Y70.874 E.00402
G1 X115.91 Y70.845 E.00839
;WIDTH:0.504802
G1 X133.874 Y70.845 E.75893
G1 X133.957 Y70.83 E.00356
;WIDTH:0.564494
G1 X134.041 Y70.815 E.00402
G1 X134.205 Y70.876 E.00839
;WIDTH:0.5048
G1 X149.763 Y79.858 E.75893
G1 X149.843 Y79.886 E.00356
;WIDTH:0.564494
G1 X149.922 Y79.915 E.00402
G1 X150.034 Y80.05 E.00839
;WIDTH:0.5048
G1 X159.017 Y95.608 E.75893
G1 X159.071 Y95.672 E.00356
;WIDTH:0.564494
G1 X159.126 Y95.737 E.00402
G1 X159.155 Y95.91 E.00839
;WIDTH:0.504802
G1 X159.155 Y113.874 E.75893
G1 X159.17 Y113.957 E.00356
;WIDTH:0.564494
G1 X159.185 Y114.041 E.00402
;WIDTH:0.564494
G1 X159.124 Y114.205 E.00839
;WIDTH:0.5048
G1 X150.193 Y129.676 E.75467
; stop printing object OV-PAM_n_12_1F.stl id:0 copy 0
;LAYER_CHANGE
;Z:2
;HEIGHT:0.2
;BEFORE_LAYER_CHANGE
G92 E0.0
;2


G1 E-1 F2400
G1 Z2 F720
;AFTER_LAYER_CHANGE
;2
; printing object OV-PAM_n_12_1F.stl id:0 copy 0
G1 X150.41 Y129.53 F4200
G1 E1 F1500
;WIDTH:0.537961
G1 F1200
G1 X149.865 Y129.95 E.03116
G1 X134.479 Y138.833 E.80447
G1 X134.37 Y138.936 E.0068
;WIDTH:0.608776
G1 X134.315 Y138.988 E.00389
G1 X134.444 Y139.101 E.00889
;WIDTH:0.509113
G1 X134.573 Y139.214 E.00732
;WIDTH:0.40945
G1 X134.638 Y139.271 E.00288
G1 X134.741 Y138.949 F4200
;WIDTH:0.537962
G1 F1200
G1 X134.059 Y139.04 E.03116
G1 X116.292 Y139.04 E.80447
G1 X116.146 Y139.075 E.0068
;WIDTH:0.608776
G1 X116.073 Y139.092 E.00389
G1 X116.128 Y139.254 E.00889
;WIDTH:0.509111
G1 X116.184 Y139.417 E.00732
;WIDTH:0.409447
G1 X116.211 Y139.498 E.00288
G1 X116.462 Y139.271 F4200
;WIDTH:0.537964
G1 F1200
G1 X115.825 Y139.009 E.03116
G1 X100.439 Y130.126 E.80447
G1 X100.295 Y130.082 E.0068
;WIDTH:0.608775
G1 X100.223 Y130.061 E.00389
G1 X100.19 Y130.229 E.00889
;WIDTH:0.509111
G1 X100.156 Y130.398 E.00732
;WIDTH:0.409447
G1 X100.139 Y130.482 E.00288
G1 X100.47 Y130.41 F4200
;WIDTH:0.537961
G1 F1200
G1 X100.05 Y129.865 E.03116
G1 X91.167 Y114.479 E.80447
G1 X91.064 Y114.37 E.0068
;WIDTH:0.608776
G1 X91.012 Y114.315 E.00389
G1 X90.899 Y114.444 E.00889
;WIDTH:0.509113
G1 X90.786 Y114.573 E.00732
;WIDTH:0.40945
G1 X90.729 Y114.638 E.00288
G1 X91.051 Y114.741 F4200
;WIDTH:0.537962
G1 F1200
G1 X90.96 Y114.059 E.03116
G1 X90.96 Y96.292 E.80447
G1 X90.925 Y96.146 E.0068
;WIDTH:0.608776
G1 X90.908 Y96.073 E.00389
G1 X90.746 Y96.128 E.00889
;WIDTH:0.509111
G1 X90.583 Y96.184 E.00732
;WIDTH:0.409447
G1 X90.502 Y96.211 E.00288
G1 X90.729 Y96.462 F4200
;WIDTH:0.539459
G1 F1200
G1 X90.991 Y95.825 E.03125
G1 X99.874 Y80.439 E.8069
G1 X99.896 Y80.367 E.00341
;WIDTH:0.608774
G1 X99.939 Y80.223 E.00777
G1 X99.855 Y80.206 E.00444
;WIDTH:0.509111
G1 X99.686 Y80.173 E.00732
;WIDTH:0.409447
G1 X99.518 Y80.139 E.00576
G1 X99.59 Y80.47 F4200
;WIDTH:0.539459
G1 F1200
G1 X100.135 Y80.05 E.03125
G1 X115.521 Y71.167 E.8069
G1 X115.576 Y71.115 E.00341
;WIDTH:0.608777
G1 X115.685 Y71.012 E.00777
G1 X115.62 Y70.956 E.00444
;WIDTH:0.509113
G1 X115.491 Y70.842 E.00732
;WIDTH:0.40945
G1 X115.362 Y70.729 E.00576
G1 X115.259 Y71.051 F4200
;WIDTH:0.539458
G1 F1200
G1 X115.941 Y70.96 E.03125
G1 X133.708 Y70.96 E.8069
G1 X133.781 Y70.943 E.00341
;WIDTH:0.608776
M73 P9 R24
M73 Q9 S24
G1 X133.927 Y70.908 E.00777
G1 X133.899 Y70.827 E.00444
;WIDTH:0.509112
G1 X133.844 Y70.664 E.00732
;WIDTH:0.409447
G1 X133.789 Y70.502 E.00576
G1 X133.538 Y70.729 F4200
;WIDTH:0.539459
G1 F1200
G1 X134.175 Y70.991 E.03125
G1 X149.561 Y79.874 E.8069
G1 X149.633 Y79.896 E.00341
;WIDTH:0.608774
G1 X149.777 Y79.939 E.00777
G1 X149.794 Y79.855 E.00444
;WIDTH:0.509111
G1 X149.827 Y79.686 E.00732
;WIDTH:0.409447
G1 X149.861 Y79.518 E.00576
G1 X149.53 Y79.59 F4200
;WIDTH:0.539459
G1 F1200
G1 X149.95 Y80.135 E.03125
G1 X158.833 Y95.521 E.8069
G1 X158.885 Y95.576 E.00341
;WIDTH:0.608777
G1 X158.988 Y95.685 E.00777
G1 X159.044 Y95.62 E.00444
;WIDTH:0.509113
G1 X159.158 Y95.491 E.00732
;WIDTH:0.40945
G1 X159.271 Y95.362 E.00576
G1 X158.949 Y95.259 F4200
;WIDTH:0.539459
G1 F1200
G1 X159.04 Y95.941 E.03125
G1 X159.04 Y113.708 E.8069
G1 X159.057 Y113.781 E.00341
;WIDTH:0.608775
G1 X159.092 Y113.927 E.00777
G1 X159.173 Y113.899 E.00444
;WIDTH:0.509111
G1 X159.336 Y113.844 E.00732
;WIDTH:0.409447
G1 X159.498 Y113.789 E.00576
G1 X159.271 Y113.538 F4200
;WIDTH:0.537964
G1 F1200
G1 X159.009 Y114.175 E.03116
G1 X150.126 Y129.561 E.80447
G1 X150.082 Y129.705 E.0068
