; generated by PrusaSlicer 2.5.2+win64 on 2023-10-19 at 01:41:37 UTC


;
;
; 

; external perimeters extrusion width = 0.40mm
; perimeters extrusion width = 0.40mm
; infill extrusion width = 0.40mm
; solid infill extrusion width = 0.40mm
; top infill extrusion width = 0.40mm
; first layer extrusion width = 0.40mm

M73 P0 R26
M73 Q0 S26
M201 X1000 Y1000 Z200 E5000 ; sets maximum accelerations, mm/sec^2
M203 X200 Y200 Z12 E120 ; sets maximum feedrates, mm / sec
M204 P1250 R1250 T1250 ; sets acceleration (P, T) and retract acceleration (R), mm/sec^2
M205 X8.00 Y8.00 Z0.40 E4.50 ; sets the jerk limits, mm/sec
M205 S0 T0 ; sets the minimum extruding and travel feed rate, mm/sec
M107
;TYPE:Custom
M862.3 P "MK3S" ; printer model check
M862.1 P0.4 ; nozzle diameter check
M115 U3.12.2 ; tell printer latest fw version
G90 ; use absolute coordinates
M83 ; extruder relative mode
M104 S230 ; set extruder temp
M140 S50 ; set bed temp
M190 S50 ; wait for bed temp
M109 S230 ; wait for extruder temp
G28 W ; home all without mesh bed level
G80 ; mesh bed leveling

G1 Z0.2 F720
G1 Y-3 F1000 ; go outside print area
G92 E0
G1 X60 E9 F1000 ; intro line
G1 X100 E12.5 F1000 ; intro line

G92 E0
M221 S95

; Don't change E values below. Excessive value can damage the printer.
M907 E430 ; set extruder motor current
G21 ; set units to millimeters
G90 ; use absolute coordinates
M83 ; use relative distances for extrusion
M900 K0 ; Filament gcode
M107
;LAYER_CHANGE
;Z:0.2
;HEIGHT:0.2
;BEFORE_LAYER_CHANGE
G92 E0.0
;0.2


G1 E-1 F2400
G1 Z.2 F720
;AFTER_LAYER_CHANGE
;0.2
G1 X93.977 Y81.178 F4200
G1 E1 F1500
M204 S300
;TYPE:Skirt/Brim
;WIDTH:0.4
G1 F1200
G1 X111.931 Y68.134 E.72481
G1 X113.904 Y67.493 E.06776
G1 X136.096 Y67.493 E.72481
G1 X138.069 Y68.134 E.06776
G1 X156.023 Y81.178 E.72481
G1 X157.243 Y82.856 E.06776
G1 X164.101 Y103.963 E.72481
G1 X164.101 Y106.037 E.06776
G1 X157.243 Y127.144 E.72481
G1 X156.023 Y128.822 E.06776
G1 X138.069 Y141.866 E.72481
G1 X136.096 Y142.508 E.06776
G1 X113.904 Y142.508 E.72481
G1 X111.931 Y141.866 E.06776
G1 X93.977 Y128.822 E.72481
M73 P1 R26
M73 Q1 S26
G1 X92.757 Y127.144 E.06776
G1 X85.899 Y106.037 E.72481
G1 X85.899 Y103.963 E.06776
G1 X92.757 Y82.856 E.72481
G1 X93.941 Y81.226 E.0658
; printing object OV-PAM_n_10_1F.stl id:0 copy 0
G1 E-1 F2400
G1 X113.956 Y138.936 F4200
G1 E1 F1500
;TYPE:External perimeter
;WIDTH:0.452953
G1 F1200
G1 X96.173 Y126.021 E.82428
G1 X96.124 Y125.979 E.00238
G1 X96.1 Y125.921 E.00238
G1 X89.308 Y105 E.82492
G1 X96.1 Y84.079 E.82492
G1 X96.124 Y84.021 E.00238
G1 X96.173 Y83.979 E.00238
G1 X113.97 Y71.055 E.82492
G1 X136.03 Y71.055 E.8273
G1 X153.876 Y84.021 E.8273
G1 X160.678 Y104.938 E.82492
G1 X160.692 Y105 E.00238
G1 X160.678 Y105.062 E.00238
G1 X153.876 Y125.979 E.82492
G1 X136.084 Y138.912 E.82492
G1 X136.03 Y138.945 E.00238
G1 X135.966 Y138.95 E.00238
G1 X114.013 Y138.949 E.82332
G1 X113.632 Y139.172 F4200
; stop printing object OV-PAM_n_10_1F.stl id:0 copy 0
;LAYER_CHANGE
;Z:0.4
;HEIGHT:0.2
;BEFORE_LAYER_CHANGE
G92 E0.0
;0.4


G1 E-1 F2400
G1 Z.4 F720
;AFTER_LAYER_CHANGE
;0.4
M73 P2 R26
M73 Q2 S26
G1 X112.957 Y142.2 F4200
G1 E1 F1500
;TYPE:Skirt/Brim
;WIDTH:0.4
G1 F2100.372
G1 X111.931 Y141.866 E.03524
G1 X93.977 Y128.822 E.72481
G1 X92.757 Y127.144 E.06776
G1 X85.899 Y106.037 E.72481
G1 X85.899 Y103.963 E.06776
G1 X92.757 Y82.856 E.72481
G1 X93.977 Y81.178 E.06776
G1 X111.931 Y68.134 E.72481
G1 X113.904 Y67.493 E.06776
G1 X136.096 Y67.493 E.72481
G1 X138.069 Y68.134 E.06776
G1 X156.023 Y81.178 E.72481
G1 X157.243 Y82.856 E.06776
G1 X164.101 Y103.963 E.72481
G1 X164.101 Y106.037 E.06776
G1 X157.243 Y127.144 E.72481
G1 X156.023 Y128.822 E.06776
G1 X138.069 Y141.866 E.72481
G1 X136.096 Y142.508 E.06776
G1 X113.904 Y142.508 E.72481
G1 X113.014 Y142.218 E.03056
; printing object OV-PAM_n_10_1F.stl id:0 copy 0
G1 E-1 F2400
G1 X113.928 Y139.075 F4200
G1 X113.928 Y139.075
G1 X113.894 Y139.052
G1 X113.967 Y138.943
G1 E1 F1500
;TYPE:External perimeter
;WIDTH:0.452953
G1 F1200
G1 X96.173 Y126.021 E.82475
G1 X96.124 Y125.979 E.00238
G1 X96.1 Y125.921 E.00238
G1 X89.308 Y105 E.82492
G1 X96.1 Y84.079 E.82492
G1 X96.124 Y84.021 E.00238
G1 X96.173 Y83.979 E.00238
G1 X113.97 Y71.055 E.82492
G1 X136.03 Y71.055 E.8273
G1 X153.876 Y84.021 E.8273
G1 X160.678 Y104.938 E.82492
G1 X160.692 Y105 E.00238
M73 P2 R25
M73 Q2 S25
G1 X160.678 Y105.062 E.00238
G1 X153.876 Y125.979 E.82492
G1 X136.084 Y138.912 E.82492
M73 P3 R25
M73 Q3 S25
G1 X136.03 Y138.945 E.00238
G1 X135.966 Y138.95 E.00238
G1 X114.026 Y138.95 E.82285
G1 X113.643 Y139.178 F4200
; stop printing object OV-PAM_n_10_1F.stl id:0 copy 0
;LAYER_CHANGE
;Z:0.6
;HEIGHT:0.2
;BEFORE_LAYER_CHANGE
G92 E0.0
;0.6


G1 E-1 F2400
G1 Z.6 F720
;AFTER_LAYER_CHANGE
;0.6
G1 X112.969 Y142.204 F4200
G1 E1 F1500
;TYPE:Skirt/Brim
;WIDTH:0.4
G1 F2100.372
G1 X111.931 Y141.866 E.03564
G1 X93.977 Y128.822 E.72481
G1 X92.757 Y127.144 E.06776
G1 X85.899 Y106.037 E.72481
G1 X85.899 Y103.963 E.06776
G1 X92.757 Y82.856 E.72481
G1 X93.977 Y81.178 E.06776
G1 X111.931 Y68.134 E.72481
G1 X113.904 Y67.493 E.06776
G1 X136.096 Y67.493 E.72481
G1 X138.069 Y68.134 E.06776
G1 X156.023 Y81.178 E.72481
G1 X157.243 Y82.856 E.06776
G1 X164.101 Y103.963 E.72481
G1 X164.101 Y106.037 E.06776
G1 X157.243 Y127.144 E.72481
G1 X156.023 Y128.822 E.06776
G1 X138.069 Y141.866 E.72481
G1 X136.096 Y142.508 E.06776
G1 X113.904 Y142.508 E.72481
G1 X113.026 Y142.222 E.03016
; printing object OV-PAM_n_10_1F.stl id:0 copy 0
G1 E-1 F2400
G1 X113.934 Y139.075 F4200
G1 X113.968 Y139.076
G1 X113.973 Y138.946
G1 E1 F1500
;TYPE:External perimeter
;WIDTH:0.452953
G1 F1200
G1 X96.124 Y125.979 E.82739
G1 X89.322 Y105.062 E.82492
G1 X89.308 Y105 E.00238
G1 X89.322 Y104.938 E.00238
G1 X96.124 Y84.021 E.82492
G1 X113.916 Y71.088 E.82492
G1 X113.97 Y71.055 E.00238
G1 X114.034 Y71.05 E.00238
G1 X136.03 Y71.055 E.82492
G1 X153.876 Y84.021 E.8273
G1 X160.678 Y104.938 E.82492
M73 P4 R25
M73 Q4 S25
G1 X160.692 Y105 E.00238
G1 X160.678 Y105.062 E.00238
G1 X153.876 Y125.979 E.82492
G1 X136.084 Y138.912 E.82492
G1 X136.03 Y138.945 E.00238
G1 X135.966 Y138.95 E.00238
G1 X114.033 Y138.95 E.82257
G1 X113.65 Y139.181 F4200
; stop printing object OV-PAM_n_10_1F.stl id:0 copy 0
;LAYER_CHANGE
;Z:0.8
;HEIGHT:0.2
;BEFORE_LAYER_CHANGE
G92 E0.0
;0.8


G1 E-1 F2400
G1 Z.8 F720
;AFTER_LAYER_CHANGE
;0.8
; printing object OV-PAM_n_10_1F.stl id:0 copy 0
G1 X114.011 Y138.949 F4200
G1 E1 F1500
G1 F1200
G1 X113.916 Y138.912 E.00381
G1 X96.124 Y125.979 E.82492
G1 X89.322 Y105.062 E.82492
G1 X89.308 Y105 E.00238
G1 X89.322 Y104.938 E.00238
G1 X96.124 Y84.021 E.82492
G1 X113.916 Y71.088 E.82492
G1 X113.97 Y71.055 E.00238
G1 X114.034 Y71.05 E.00238
G1 X136.03 Y71.055 E.82492
G1 X153.876 Y84.021 E.8273
G1 X160.678 Y104.938 E.82492
G1 X160.692 Y105 E.00238
G1 X160.678 Y105.062 E.00238
G1 X153.9 Y125.921 E.82255
G1 X153.876 Y125.979 E.00238
G1 X153.827 Y126.021 E.00238
G1 X136.03 Y138.945 E.82492
G1 X114.071 Y138.95 E.82353
G1 X113.949 Y139.029 F4200
; stop printing object OV-PAM_n_10_1F.stl id:0 copy 0
;LAYER_CHANGE
;Z:1
;HEIGHT:0.2
;BEFORE_LAYER_CHANGE
G92 E0.0
;1


M73 P5 R25
M73 Q5 S25
G1 E-1 F2400
G1 Z1 F720
;AFTER_LAYER_CHANGE
;1
; printing object OV-PAM_n_10_1F.stl id:0 copy 0
G1 X114.058 Y138.95 F4200
G1 E1 F1500
G1 F1200
G1 X113.97 Y138.945 E.00328
G1 X113.916 Y138.912 E.00238
G1 X96.124 Y125.979 E.82492
G1 X89.322 Y105.062 E.82492
G1 X89.308 Y105 E.00238
G1 X89.322 Y104.938 E.00238
G1 X96.124 Y84.021 E.82492
G1 X113.916 Y71.088 E.82492
G1 X113.97 Y71.055 E.00238
G1 X114.034 Y71.05 E.00238
G1 X136.03 Y71.055 E.82492
G1 X153.876 Y84.021 E.8273
G1 X160.678 Y104.938 E.82492
G1 X160.692 Y105 E.00238
G1 X160.678 Y105.062 E.00238
G1 X153.9 Y125.921 E.82255
G1 X153.876 Y125.979 E.00238
G1 X153.827 Y126.021 E.00238
G1 X136.03 Y138.945 E.82492
G1 X114.118 Y138.95 E.82177
G1 X114.019 Y139.029 F4200
; stop printing object OV-PAM_n_10_1F.stl id:0 copy 0
;LAYER_CHANGE
;Z:1.2
;HEIGHT:0.2
;BEFORE_LAYER_CHANGE
G92 E0.0
;1.2


G1 E-1 F2400
G1 Z1.2 F720
;AFTER_LAYER_CHANGE
;1.2
; printing object OV-PAM_n_10_1F.stl id:0 copy 0
G1 X114.107 Y138.948 F4200
G1 E1 F1500
;WIDTH:0.457202
G1 F1200
G1 X113.971 Y138.943 E.00517
G1 X113.916 Y138.91 E.00243
G1 X96.126 Y125.978 E.83339
G1 X89.325 Y105.062 E.83339
G1 X89.31 Y105 E.00243
G1 X89.325 Y104.938 E.00243
G1 X96.126 Y84.022 E.83339
G1 X113.916 Y71.09 E.83339
G1 X113.971 Y71.057 E.00243
M73 P6 R25
M73 Q6 S25
G1 X114.035 Y71.052 E.00243
G1 X136.029 Y71.057 E.83339
G1 X153.874 Y84.022 E.83582
G1 X160.675 Y104.938 E.83339
G1 X160.69 Y105 E.00243
G1 X160.675 Y105.062 E.00243
G1 X153.898 Y125.919 E.83097
G1 X153.874 Y125.978 E.00243
G1 X153.825 Y126.02 E.00243
G1 X136.029 Y138.943 E.83339
G1 X114.167 Y138.948 E.82838
G1 X114.049 Y139.071 F4200
; stop printing object OV-PAM_n_10_1F.stl id:0 copy 0
;LAYER_CHANGE
;Z:1.4
;HEIGHT:0.2
;BEFORE_LAYER_CHANGE
G92 E0.0
;1.4


G1 E-1 F2400
G1 Z1.4 F720
;AFTER_LAYER_CHANGE
;1.4
; printing object OV-PAM_n_10_1F.stl id:0 copy 0
G1 X114.171 Y138.862 F4200
G1 E1 F1500
;WIDTH:0.516387
G1 F1200
G1 X114 Y138.856 E.00745
G1 X113.937 Y138.818 E.00318
G1 X96.2 Y125.924 E.9496
G1 X89.419 Y105.071 E.9496
G1 X89.402 Y105 E.00318
G1 X89.419 Y104.929 E.00318
G1 X96.2 Y84.076 E.9496
G1 X113.937 Y71.182 E.9496
M73 P6 R24
M73 Q6 S24
G1 X114 Y71.144 E.00318
G1 X114.073 Y71.138 E.00318
G1 X136 Y71.144 E.9496
G1 X153.8 Y84.076 E.95277
G1 X160.581 Y104.929 E.9496
G1 X160.598 Y105 E.00318
G1 X160.581 Y105.071 E.00318
G1 X153.828 Y125.856 E.94643
G1 X153.8 Y125.924 E.00318
M73 P7 R24
M73 Q7 S24
G1 X153.744 Y125.972 E.00318
G1 X136 Y138.856 E.9496
G1 X114.231 Y138.862 E.94273
G1 X114.098 Y139.017 F4200
; stop printing object OV-PAM_n_10_1F.stl id:0 copy 0
;LAYER_CHANGE
;Z:1.6
;HEIGHT:0.2
;BEFORE_LAYER_CHANGE
G92 E0.0
;1.6


G1 E-1 F2400
G1 Z1.6 F720
;AFTER_LAYER_CHANGE
;1.6
; printing object OV-PAM_n_10_1F.stl id:0 copy 0
G1 X114.252 Y138.746 F4200
G1 E1 F1500
;WIDTH:0.527088
G1 F1200
G1 X114.063 Y138.753 E.00837
G1 X113.974 Y138.702 E.00452
G1 X96.312 Y125.878 E.96659
G1 X89.52 Y105.029 E.97108
G1 X89.54 Y104.929 E.00452
G1 X96.279 Y84.168 E.96659
G1 X114.009 Y71.265 E.97108
G1 X135.937 Y71.247 E.97108
G1 X153.688 Y84.122 E.97108
G1 X160.481 Y104.971 E.97108
G1 X160.46 Y105.071 E.00452
G1 X153.721 Y125.832 E.96659
G1 X153.646 Y125.9 E.00452
G1 X135.991 Y138.735 E.96659
G1 X114.312 Y138.746 E.96005
G1 X114.179 Y138.921 F4200
; stop printing object OV-PAM_n_10_1F.stl id:0 copy 0
;LAYER_CHANGE
;Z:1.8
;HEIGHT:0.2
;BEFORE_LAYER_CHANGE
G92 E0.0
;1.8


G1 E-1 F2400
G1 Z1.8 F720
;AFTER_LAYER_CHANGE
;1.8
; printing object OV-PAM_n_10_1F.stl id:0 copy 0
G1 X114.361 Y138.631 F4200
G1 E1 F1500
;WIDTH:0.504802
G1 F1200
G1 X114.321 Y138.631 E.00171
;WIDTH:0.561079
G1 X114.148 Y138.655 E.00827
;WIDTH:0.504801
G1 X114.012 Y138.587 E.00642
G1 X96.592 Y125.931 E.90963
;WIDTH:0.561078
G1 X96.438 Y125.849 E.00827
;WIDTH:0.504801
G1 X96.369 Y125.714 E.00642
G1 X89.715 Y105.236 E.90963
;WIDTH:0.561079
G1 X89.638 Y105.079 E.00827
;WIDTH:0.504802
G1 X89.662 Y104.929 E.00642
G1 X96.315 Y84.451 E.90963
;WIDTH:0.561082
G1 X96.346 Y84.279 E.00827
;WIDTH:0.504802
M73 P8 R24
M73 Q8 S24
G1 X96.453 Y84.171 E.00642
G1 X113.872 Y71.515 E.90963
;WIDTH:0.561082
G1 X113.998 Y71.394 E.00827
;WIDTH:0.504802
G1 X114.148 Y71.369 E.00642
G1 X135.679 Y71.369 E.90963
;WIDTH:0.561079
G1 X135.852 Y71.345 E.00827
;WIDTH:0.504801
G1 X135.988 Y71.413 E.00642
G1 X153.408 Y84.069 E.90963
;WIDTH:0.561078
G1 X153.562 Y84.151 E.00827
;WIDTH:0.504801
G1 X153.631 Y84.286 E.00642
G1 X160.285 Y104.764 E.90963
;WIDTH:0.561079
G1 X160.362 Y104.909 E.00776
;WIDTH:0.561079
G1 X160.362 Y104.921 E.00058
;WIDTH:0.504802
G1 X160.338 Y105.071 E.00642
G1 X153.685 Y125.549 E.90963
;WIDTH:0.561082
G1 X153.654 Y125.721 E.00827
;WIDTH:0.504802
G1 X153.547 Y125.829 E.00642
G1 X136.128 Y138.485 E.90963
;WIDTH:0.561082
G1 X136.002 Y138.606 E.00827
;WIDTH:0.504802
G1 X135.852 Y138.631 E.00642
G1 X114.421 Y138.631 E.90539
G1 X114.341 Y138.666 F4200
; stop printing object OV-PAM_n_10_1F.stl id:0 copy 0
;LAYER_CHANGE
;Z:2
;HEIGHT:0.2
;BEFORE_LAYER_CHANGE
G92 E0.0
;2


G1 E-1 F2400
G1 Z2 F720
;AFTER_LAYER_CHANGE
;2
; printing object OV-PAM_n_10_1F.stl id:0 copy 0
G1 X114.446 Y138.525 F4200
G1 E1 F1500
;WIDTH:0.539181
G1 F1200
G1 X114.414 Y138.533 E.00147
;WIDTH:0.607941
G1 X114.269 Y138.567 E.00773
G1 X114.227 Y138.553 E.00227
;WIDTH:0.539182
G1 X114.05 Y138.471 E.00888
G1 X96.795 Y125.935 E.96807
G1 X96.726 Y125.906 E.00339
;WIDTH:0.607942
G1 X96.588 Y125.849 E.00773
G1 X96.562 Y125.813 E.00227
;WIDTH:0.53918
G1 X96.467 Y125.642 E.00888
G1 X89.876 Y105.359 E.96807
G1 X89.838 Y105.295 E.00339
;WIDTH:0.607941
G1 X89.76 Y105.167 E.00773
G1 X89.76 Y105.123 E.00227
;WIDTH:0.539183
G1 X89.783 Y104.929 E.00888
G1 X96.374 Y84.645 E.96808
G1 X96.38 Y84.57 E.00339
;WIDTH:0.607943
G1 X96.392 Y84.421 E.00773
G1 X96.418 Y84.386 E.00227
;WIDTH:0.539182
G1 X96.551 Y84.242 E.00888
G1 X113.805 Y71.706 E.96807
G1 X113.854 Y71.65 E.00339
;WIDTH:0.607944
G1 X113.951 Y71.536 E.00773
G1 X113.993 Y71.523 E.00227
;WIDTH:0.539181
G1 X114.185 Y71.485 E.00888
G1 X135.513 Y71.485 E.96807
G1 X135.586 Y71.467 E.00339
;WIDTH:0.607941
G1 X135.731 Y71.433 E.00773
G1 X135.773 Y71.447 E.00227
;WIDTH:0.539182
G1 X135.95 Y71.529 E.00888
G1 X153.205 Y84.065 E.96807
G1 X153.274 Y84.094 E.00339
;WIDTH:0.607942
G1 X153.412 Y84.151 E.00773
G1 X153.438 Y84.187 E.00227
;WIDTH:0.53918
G1 X153.533 Y84.358 E.00888
G1 X160.124 Y104.641 E.96807
G1 X160.162 Y104.705 E.00339
;WIDTH:0.607941
M73 P9 R24
M73 Q9 S24
G1 X160.24 Y104.833 E.00773
;WIDTH:0.607941
G1 X160.24 Y104.877 E.00227
;WIDTH:0.539183
G1 X160.217 Y105.071 E.00888
G1 X153.626 Y125.355 E.96808
G1 X153.62 Y125.43 E.00339
;WIDTH:0.607943
G1 X153.608 Y125.579 E.00773
G1 X153.582 Y125.614 E.00227
;WIDTH:0.539182
G1 X153.449 Y125.758 E.00888
G1 X136.195 Y138.294 E.96807
G1 X136.146 Y138.35 E.00339
;WIDTH:0.607944
G1 X136.049 Y138.464 E.00773
G1 X136.007 Y138.477 E.00227
;WIDTH:0.539181
G1 X135.815 Y138.515 E.00888
G1 X114.505 Y138.515 E.96727
G1 X114.434 Y138.555 F4200
; stop printing object OV-PAM_n_10_1F.stl id:0 copy 0
;LAYER_CHANGE
;Z:2.2
;HEIGHT:0.2
;BEFORE_LAYER_CHANGE
G92 E0.0
;2.2


G1 E-1 F2400
G1 Z2.2 F720
;AFTER_LAYER_CHANGE
;2.2
; printing object OV-PAM_n_10_1F.stl id:0 copy 0
G1 X136.404 Y138.298 F4200
G1 E1 F1500
;WIDTH:0.553564
G1 F1200
G1 X135.777 Y138.4 E.02965
G1 X114.654 Y138.4 E.98659
G1 X114.52 Y138.439 E.00651
;WIDTH:0.621064
G1 X114.386 Y138.477 E.00737
G1 X114.473 Y138.731 E.01417
;WIDTH:0.566511
G1 X114.56 Y138.985 E.01283
G1 X114.654 Y138.642 F4200
;WIDTH:0.553564
G1 F1200
G1 X114.087 Y138.356 E.02965
G1 X96.998 Y125.94 E.98659
G1 X96.867 Y125.892 E.00651
;WIDTH:0.621065
G1 X96.736 Y125.845 E.00737
G1 X96.657 Y126.101 E.01417
;WIDTH:0.566512
G1 X96.578 Y126.357 E.01284
G1 X96.856 Y126.135 F4200
;WIDTH:0.553564
G1 F1200
G1 X96.565 Y125.571 E.02965
G1 X90.038 Y105.481 E.98659
G1 X89.96 Y105.366 E.00651
;WIDTH:0.621063
G1 X89.881 Y105.251 E.00737
G1 X89.667 Y105.412 E.01417
;WIDTH:0.56651
G1 X89.452 Y105.572 E.01283
G1 X89.808 Y105.556 F4200
;WIDTH:0.543557
G1 F1200
G1 X89.904 Y104.929 E.02907
G1 X96.432 Y84.839 E.96726
G1 X96.434 Y84.769 E.00319
;WIDTH:0.613167
G1 X96.441 Y84.561 E.0109
G1 X96.173 Y84.565 E.01398
;WIDTH:0.519862
G1 X95.905 Y84.569 E.01169
G1 X96.202 Y84.764 F4200
;WIDTH:0.543556
G1 F1200
G1 X96.649 Y84.314 E.02907
G1 X113.738 Y71.898 E.96726
G1 X113.781 Y71.843 E.00319
;WIDTH:0.613168
G1 X113.909 Y71.678 E.0109
G1 X113.69 Y71.523 E.01398
;WIDTH:0.519863
G1 X113.471 Y71.369 E.01169
G1 X113.596 Y71.702 F4200
;WIDTH:0.543555
G1 F1200
G1 X114.223 Y71.6 E.02907
G1 X135.346 Y71.6 E.96725
G1 X135.413 Y71.581 E.00319
;WIDTH:0.613165
G1 X135.614 Y71.523 E.0109
G1 X135.527 Y71.269 E.01398
;WIDTH:0.519858
G1 X135.44 Y71.015 E.01169
G1 X135.346 Y71.358 F4200
;WIDTH:0.543556
G1 F1200
G1 X135.913 Y71.644 E.02907
G1 X153.002 Y84.06 E.96726
G1 X153.068 Y84.084 E.00319
;WIDTH:0.613166
G1 X153.264 Y84.155 E.0109
G1 X153.343 Y83.899 E.01398
;WIDTH:0.519859
G1 X153.422 Y83.643 E.01169
G1 X153.144 Y83.865 F4200
