; generated by PrusaSlicer 2.5.2+win64 on 2023-10-26 at 06:01:18 UTC


;
;
; 

; external perimeters extrusion width = 0.50mm
; perimeters extrusion width = 0.50mm
; infill extrusion width = 0.50mm
; solid infill extrusion width = 0.50mm
; top infill extrusion width = 0.50mm
; first layer extrusion width = 0.50mm

M73 P0 R26
M73 Q0 S26
M201 X1000 Y1000 Z200 E5000 ; sets maximum accelerations, mm/sec^2
M203 X200 Y200 Z12 E120 ; sets maximum feedrates, mm / sec
M204 P1250 R1250 T1250 ; sets acceleration (P, T) and retract acceleration (R), mm/sec^2
M205 X8.00 Y8.00 Z0.40 E4.50 ; sets the jerk limits, mm/sec
M205 S0 T0 ; sets the minimum extruding and travel feed rate, mm/sec
M107
;TYPE:Custom
M862.3 P "MK3S" ; printer model check
M862.1 P0.4 ; nozzle diameter check
M115 U3.12.2 ; tell printer latest fw version
G90 ; use absolute coordinates
M83 ; extruder relative mode
M104 S240 ; set extruder temp
M140 S60 ; set bed temp
M190 S60 ; wait for bed temp
M109 S240 ; wait for extruder temp
G28 W ; home all without mesh bed level
G80 ; mesh bed leveling

G1 Z0.2 F720
G1 Y-3 F1000 ; go outside print area
G92 E0
G1 X60 E9 F1000 ; intro line
G1 X100 E12.5 F1000 ; intro line

G92 E0
M221 S95

; Don't change E values below. Excessive value can damage the printer.
M907 E430 ; set extruder motor current
G21 ; set units to millimeters
G90 ; use absolute coordinates
M83 ; use relative distances for extrusion
M900 K0 ; Filament gcode
M107
;LAYER_CHANGE
;Z:0.2
;HEIGHT:0.2
;BEFORE_LAYER_CHANGE
G92 E0.0
;0.2


M73 P0 R25
M73 Q0 S25
G1 E-1 F2400
G1 Z.2 F720
;AFTER_LAYER_CHANGE
;0.2
G1 X96.393 Y77.852 F4200
G1 E1 F1500
M204 S300
;TYPE:Skirt/Brim
;WIDTH:0.5
G1 F1200
G1 X97.485 Y76.615 E.06902
G1 X99.455 Y75.998 E.0863
G1 X150.545 Y75.998 E2.13588
G1 X152.148 Y76.393 E.06902
G1 X153.385 Y77.485 E.06902
G1 X154.002 Y79.455 E.0863
G1 X154.002 Y130.545 E2.13588
G1 X153.607 Y132.148 E.06902
G1 X152.515 Y133.385 E.06902
G1 X150.545 Y134.002 E.0863
G1 X99.455 Y134.002 E2.13588
G1 X97.852 Y133.607 E.06902
M73 P1 R25
M73 Q1 S25
G1 X96.615 Y132.515 E.06902
G1 X95.998 Y130.545 E.0863
G1 X95.998 Y79.455 E2.13588
G1 X96.378 Y77.91 E.06651
; printing object OV-PAM_n_4_1F.stl id:0 copy 0
G1 E-1 F2400
G1 X150.284 Y130.095 F4200
G1 E1 F1500
;TYPE:External perimeter
;WIDTH:0.628706
G1 F1200
G1 X150.252 Y130.252 E.00857
G1 X150.148 Y130.273 E.00567
;WIDTH:0.54292
G1 X150.045 Y130.295 E.00484
G1 X99.955 Y130.295 E2.29071
;WIDTH:0.628706
G1 X99.748 Y130.252 E.01133
G1 X99.727 Y130.148 E.00567
;WIDTH:0.54292
G1 X99.705 Y130.045 E.00484
G1 X99.705 Y79.955 E2.29071
;WIDTH:0.628707
G1 X99.748 Y79.748 E.01133
;WIDTH:0.628706
G1 X99.852 Y79.727 E.00567
;WIDTH:0.54292
G1 X99.955 Y79.705 E.00484
G1 X150.045 Y79.705 E2.29071
;WIDTH:0.628706
G1 X150.252 Y79.748 E.01133
G1 X150.273 Y79.852 E.00567
;WIDTH:0.54292
G1 X150.295 Y79.955 E.00484
G1 X150.295 Y130.036 E2.29033
G1 X150.411 Y130.193 F4200
; stop printing object OV-PAM_n_4_1F.stl id:0 copy 0
;LAYER_CHANGE
;Z:0.4
;HEIGHT:0.2
;BEFORE_LAYER_CHANGE
G92 E0.0
;0.4


G1 E-1 F2400
G1 Z.4 F720
;AFTER_LAYER_CHANGE
;0.4
G1 X154.002 Y130.036 F4200
G1 E1 F1500
;TYPE:Skirt/Brim
;WIDTH:0.5
G1 F1200
G1 X154.002 Y130.545 E.02126
G1 X153.607 Y132.148 E.06902
G1 X152.515 Y133.385 E.06902
G1 X150.545 Y134.002 E.0863
G1 X99.455 Y134.002 E2.13588
G1 X97.852 Y133.607 E.06902
M73 P2 R25
M73 Q2 S25
G1 X96.615 Y132.515 E.06902
G1 X95.998 Y130.545 E.0863
G1 X95.998 Y79.455 E2.13588
G1 X96.393 Y77.852 E.06902
G1 X97.485 Y76.615 E.06902
G1 X99.455 Y75.998 E.0863
G1 X150.545 Y75.998 E2.13588
G1 X152.148 Y76.393 E.06902
G1 X153.385 Y77.485 E.06902
G1 X154.002 Y79.455 E.0863
G1 X154.002 Y129.976 E2.11212
; printing object OV-PAM_n_4_1F.stl id:0 copy 0
G1 E-1 F2400
G1 X150.123 Y130.074 F4200
G1 X150.123 Y130.079
G1 X150.288 Y130.079
G1 E1 F1500
;TYPE:External perimeter
;WIDTH:0.628706
G1 F1200
G1 X150.252 Y130.252 E.00946
G1 X150.148 Y130.273 E.00567
;WIDTH:0.54292
G1 X150.045 Y130.295 E.00484
G1 X99.955 Y130.295 E2.29071
;WIDTH:0.628706
G1 X99.748 Y130.252 E.01133
G1 X99.727 Y130.148 E.00567
;WIDTH:0.54292
G1 X99.705 Y130.045 E.00484
G1 X99.705 Y79.955 E2.29071
;WIDTH:0.628707
G1 X99.748 Y79.748 E.01133
;WIDTH:0.628706
M73 P3 R25
M73 Q3 S25
G1 X99.852 Y79.727 E.00567
;WIDTH:0.54292
G1 X99.955 Y79.705 E.00484
G1 X150.045 Y79.705 E2.29071
;WIDTH:0.628706
G1 X150.252 Y79.748 E.01133
G1 X150.273 Y79.852 E.00567
;WIDTH:0.54292
G1 X150.295 Y79.955 E.00484
G1 X150.295 Y130.02 E2.28957
G1 X150.427 Y130.187 F4200
; stop printing object OV-PAM_n_4_1F.stl id:0 copy 0
;LAYER_CHANGE
;Z:0.6
;HEIGHT:0.2
;BEFORE_LAYER_CHANGE
G92 E0.0
;0.6


G1 E-1 F2400
G1 Z.6 F720
;AFTER_LAYER_CHANGE
;0.6
G1 X154.002 Y130.02 F4200
G1 E1 F1500
;TYPE:Skirt/Brim
;WIDTH:0.5
G1 F1200
G1 X154.002 Y130.545 E.02195
G1 X153.607 Y132.148 E.06902
G1 X152.515 Y133.385 E.06902
G1 X150.545 Y134.002 E.0863
G1 X99.455 Y134.002 E2.13588
G1 X97.852 Y133.607 E.06902
G1 X96.615 Y132.515 E.06902
G1 X95.998 Y130.545 E.0863
G1 X95.998 Y79.455 E2.13588
G1 X96.393 Y77.852 E.06902
G1 X97.485 Y76.615 E.06902
G1 X99.455 Y75.998 E.0863
G1 X150.545 Y75.998 E2.13588
G1 X152.148 Y76.393 E.06902
G1 X153.385 Y77.485 E.06902
G1 X154.002 Y79.455 E.0863
G1 X154.002 Y129.96 E2.11143
; printing object OV-PAM_n_4_1F.stl id:0 copy 0
G1 E-1 F2400
M73 P4 R24
M73 Q4 S24
G1 X150.457 Y130.056 F4200
G1 X150.457 Y130.065
G1 X150.291 Y130.061
G1 E1 F1500
;TYPE:External perimeter
;WIDTH:0.628706
G1 F1200
G1 X150.252 Y130.252 E.01045
G1 X150.148 Y130.273 E.00567
;WIDTH:0.54292
G1 X150.045 Y130.295 E.00484
G1 X99.955 Y130.295 E2.29071
;WIDTH:0.628706
G1 X99.748 Y130.252 E.01133
G1 X99.727 Y130.148 E.00567
;WIDTH:0.54292
G1 X99.705 Y130.045 E.00484
G1 X99.705 Y79.955 E2.29071
;WIDTH:0.628707
G1 X99.748 Y79.748 E.01133
;WIDTH:0.628706
G1 X99.852 Y79.727 E.00567
;WIDTH:0.54292
G1 X99.955 Y79.705 E.00484
G1 X150.045 Y79.705 E2.29071
;WIDTH:0.628706
G1 X150.252 Y79.748 E.01133
G1 X150.273 Y79.852 E.00567
;WIDTH:0.54292
G1 X150.295 Y79.955 E.00484
G1 X150.295 Y130.001 E2.28872
G1 X150.445 Y130.18 F4200
; stop printing object OV-PAM_n_4_1F.stl id:0 copy 0
;LAYER_CHANGE
;Z:0.8
;HEIGHT:0.2
;BEFORE_LAYER_CHANGE
G92 E0.0
;0.8


G1 E-1 F2400
G1 Z.8 F720
;AFTER_LAYER_CHANGE
;0.8
; printing object OV-PAM_n_4_1F.stl id:0 copy 0
G1 X150.295 Y130.041 F4200
G1 E1 F1500
G1 F1200
G1 X150.295 Y130.045 E.00016
;WIDTH:0.628706
G1 X150.252 Y130.252 E.01133
G1 X150.148 Y130.273 E.00567
;WIDTH:0.54292
G1 X150.045 Y130.295 E.00484
G1 X99.955 Y130.295 E2.29071
;WIDTH:0.628706
G1 X99.748 Y130.252 E.01133
G1 X99.727 Y130.148 E.00567
;WIDTH:0.54292
G1 X99.705 Y130.045 E.00484
G1 X99.705 Y79.955 E2.29071
;WIDTH:0.628707
G1 X99.748 Y79.748 E.01133
;WIDTH:0.628706
M73 P5 R24
M73 Q5 S24
G1 X99.852 Y79.727 E.00567
;WIDTH:0.54292
G1 X99.955 Y79.705 E.00484
G1 X150.045 Y79.705 E2.29071
;WIDTH:0.628706
G1 X150.252 Y79.748 E.01133
G1 X150.273 Y79.852 E.00567
;WIDTH:0.54292
G1 X150.295 Y79.955 E.00484
G1 X150.295 Y129.981 E2.28781
G1 X150.298 Y130.043 F4200
; stop printing object OV-PAM_n_4_1F.stl id:0 copy 0
;LAYER_CHANGE
;Z:1
;HEIGHT:0.2
;BEFORE_LAYER_CHANGE
G92 E0.0
;1


G1 E-1 F2400
G1 Z1 F720
;AFTER_LAYER_CHANGE
;1
; printing object OV-PAM_n_4_1F.stl id:0 copy 0
G1 X150.295 Y130.011 F4200
G1 E1 F1500
G1 F1200
G1 X150.295 Y130.045 E.00152
;WIDTH:0.628706
G1 X150.252 Y130.252 E.01133
G1 X150.148 Y130.273 E.00567
;WIDTH:0.54292
G1 X150.045 Y130.295 E.00484
G1 X99.955 Y130.295 E2.29071
;WIDTH:0.628706
G1 X99.748 Y130.252 E.01133
G1 X99.727 Y130.148 E.00567
;WIDTH:0.54292
G1 X99.705 Y130.045 E.00484
G1 X99.705 Y79.955 E2.29071
;WIDTH:0.628707
G1 X99.748 Y79.748 E.01133
;WIDTH:0.628706
G1 X99.852 Y79.727 E.00567
;WIDTH:0.54292
G1 X99.955 Y79.705 E.00484
G1 X150.045 Y79.705 E2.29071
;WIDTH:0.628706
G1 X150.252 Y79.748 E.01133
G1 X150.273 Y79.852 E.00567
;WIDTH:0.54292
G1 X150.295 Y79.955 E.00484
G1 X150.295 Y129.951 E2.28645
G1 X150.323 Y130.028 F4200
; stop printing object OV-PAM_n_4_1F.stl id:0 copy 0
;LAYER_CHANGE
;Z:1.2
;HEIGHT:0.2
;BEFORE_LAYER_CHANGE
G92 E0.0
;1.2


M73 P6 R24
M73 Q6 S24
G1 E-1 F2400
G1 Z1.2 F720
;AFTER_LAYER_CHANGE
;1.2
; printing object OV-PAM_n_4_1F.stl id:0 copy 0
G1 X150.285 Y129.968 F4200
G1 E1 F1500
;WIDTH:0.562536
G1 F1200
G1 X150.285 Y130.025 E.0027
;WIDTH:0.651688
G1 X150.24 Y130.24 E.01224
G1 X150.133 Y130.263 E.00612
;WIDTH:0.562536
G1 X150.025 Y130.285 E.00522
G1 X99.975 Y130.285 E2.37872
;WIDTH:0.651688
G1 X99.76 Y130.24 E.01224
G1 X99.737 Y130.133 E.00612
;WIDTH:0.562536
G1 X99.715 Y130.025 E.00522
G1 X99.715 Y79.975 E2.37872
;WIDTH:0.651688
G1 X99.76 Y79.76 E.01224
G1 X99.867 Y79.737 E.00612
;WIDTH:0.562536
G1 X99.975 Y79.715 E.00522
G1 X150.025 Y79.715 E2.37872
;WIDTH:0.651688
G1 X150.24 Y79.76 E.01224
G1 X150.263 Y79.867 E.00612
;WIDTH:0.562536
G1 X150.285 Y79.975 E.00522
G1 X150.285 Y129.908 E2.37317
G1 X150.334 Y129.997 F4200
; stop printing object OV-PAM_n_4_1F.stl id:0 copy 0
;LAYER_CHANGE
;Z:1.4
;HEIGHT:0.2
;BEFORE_LAYER_CHANGE
G92 E0.0
;1.4


G1 E-1 F2400
G1 Z1.4 F720
;AFTER_LAYER_CHANGE
;1.4
; printing object OV-PAM_n_4_1F.stl id:0 copy 0
G1 X150.198 Y129.87 F4200
G1 E1 F1500
;WIDTH:0.620272
G1 F1200
G1 X150.198 Y129.91 E.00209
;WIDTH:0.719328
G1 F1108.798
G1 X150.149 Y130.149 E.01511
G1 X150.029 Y130.173 E.00755
;WIDTH:0.620272
G1 F1200
G1 X149.91 Y130.198 E.00645
G1 X100.09 Y130.198 E2.63083
;WIDTH:0.719328
G1 F1108.798
G1 X99.851 Y130.149 E.01511
G1 X99.827 Y130.029 E.00755
;WIDTH:0.620272
G1 F1200
G1 X99.802 Y129.91 E.00645
G1 X99.802 Y80.09 E2.63083
;WIDTH:0.71933
G1 F1108.795
M73 P7 R24
M73 Q7 S24
G1 X99.851 Y79.851 E.01511
;WIDTH:0.719328
G1 X99.971 Y79.827 E.00755
;WIDTH:0.620272
G1 F1200
G1 X100.09 Y79.802 E.00645
G1 X149.91 Y79.802 E2.63083
;WIDTH:0.719328
G1 F1108.798
G1 X150.149 Y79.851 E.01511
G1 X150.173 Y79.971 E.00755
;WIDTH:0.620272
G1 F1200
G1 X150.198 Y80.09 E.00645
G1 X150.198 Y129.81 E2.62557
G1 X150.232 Y129.89 F4200
; stop printing object OV-PAM_n_4_1F.stl id:0 copy 0
;LAYER_CHANGE
;Z:1.6
;HEIGHT:0.2
;BEFORE_LAYER_CHANGE
G92 E0.0
;1.6


G1 E-1 F2400
G1 Z1.6 F720
;AFTER_LAYER_CHANGE
;1.6
; printing object OV-PAM_n_4_1F.stl id:0 copy 0
G1 X150.083 Y129.769 F4200
G1 E1 F1500
G1 F1200
G1 X150.083 Y129.794 E.00131
;WIDTH:0.719328
G1 F1108.798
G1 X150.033 Y130.033 E.01511
G1 X149.914 Y130.058 E.00755
;WIDTH:0.620272
G1 F1200
G1 X149.794 Y130.083 E.00645
G1 X100.206 Y130.083 E2.61863
;WIDTH:0.719328
G1 F1108.798
G1 X99.967 Y130.033 E.01511
G1 X99.942 Y129.914 E.00755
;WIDTH:0.620272
G1 F1200
G1 X99.917 Y129.794 E.00645
G1 X99.917 Y80.206 E2.61863
;WIDTH:0.71933
G1 F1108.795
G1 X99.967 Y79.967 E.01511
;WIDTH:0.719328
G1 X100.086 Y79.942 E.00755
;WIDTH:0.620272
G1 F1200
G1 X100.206 Y79.917 E.00645
G1 X149.794 Y79.917 E2.61863
;WIDTH:0.719328
G1 F1108.798
M73 P7 R23
M73 Q7 S23
G1 X150.033 Y79.967 E.01511
G1 X150.058 Y80.086 E.00755
;WIDTH:0.620272
G1 F1200
G1 X150.083 Y80.206 E.00645
G1 X150.083 Y129.709 E2.61415
G1 X150.104 Y129.782 F4200
; stop printing object OV-PAM_n_4_1F.stl id:0 copy 0
;LAYER_CHANGE
;Z:1.8
;HEIGHT:0.2
;BEFORE_LAYER_CHANGE
G92 E0.0
;1.8


M73 P8 R23
M73 Q8 S23
G1 E-1 F2400
G1 Z1.8 F720
;AFTER_LAYER_CHANGE
;1.8
; printing object OV-PAM_n_4_1F.stl id:0 copy 0
G1 X149.967 Y129.666 F4200
G1 E1 F1500
G1 F1200
G1 X149.967 Y129.679 E.00067
;WIDTH:0.719328
G1 F1108.798
G1 X149.918 Y129.918 E.01511
G1 X149.798 Y129.942 E.00755
;WIDTH:0.620272
G1 F1200
G1 X149.679 Y129.967 E.00645
G1 X100.321 Y129.967 E2.60644
;WIDTH:0.719328
G1 F1108.798
G1 X100.082 Y129.918 E.01511
G1 X100.058 Y129.798 E.00755
;WIDTH:0.620272
G1 F1200
G1 X100.033 Y129.679 E.00645
G1 X100.033 Y80.321 E2.60644
;WIDTH:0.71933
G1 F1108.795
G1 X100.082 Y80.082 E.01511
;WIDTH:0.719328
G1 X100.202 Y80.058 E.00755
;WIDTH:0.620272
G1 F1200
G1 X100.321 Y80.033 E.00645
G1 X149.679 Y80.033 E2.60644
;WIDTH:0.719328
G1 F1108.798
G1 X149.918 Y80.082 E.01511
G1 X149.942 Y80.202 E.00755
;WIDTH:0.620272
G1 F1200
G1 X149.967 Y80.321 E.00645
G1 X149.967 Y129.606 E2.6026
G1 X149.978 Y129.672 F4200
; stop printing object OV-PAM_n_4_1F.stl id:0 copy 0
;LAYER_CHANGE
;Z:2
;HEIGHT:0.2
;BEFORE_LAYER_CHANGE
G92 E0.0
;2


G1 E-1 F2400
G1 Z2 F720
;AFTER_LAYER_CHANGE
;2
; printing object OV-PAM_n_4_1F.stl id:0 copy 0
G1 X149.852 Y129.56 F4200
G1 E1 F1500
G1 F1200
G1 X149.852 Y129.563 E.00017
;WIDTH:0.719328
G1 F1108.798
G1 X149.802 Y129.802 E.01511
G1 X149.683 Y129.827 E.00755
;WIDTH:0.620272
G1 F1200
G1 X149.563 Y129.852 E.00645
G1 X100.437 Y129.852 E2.59424
;WIDTH:0.719328
G1 F1108.798
G1 X100.198 Y129.802 E.01511
G1 X100.173 Y129.683 E.00755
;WIDTH:0.620272
G1 F1200
G1 X100.148 Y129.563 E.00645
G1 X100.148 Y80.437 E2.59424
;WIDTH:0.71933
G1 F1108.795
M73 P9 R23
M73 Q9 S23
G1 X100.198 Y80.198 E.01511
;WIDTH:0.719328
G1 X100.317 Y80.173 E.00755
;WIDTH:0.620272
G1 F1200
G1 X100.437 Y80.148 E.00645
G1 X149.563 Y80.148 E2.59424
;WIDTH:0.719328
G1 F1108.798
G1 X149.802 Y80.198 E.01511
G1 X149.827 Y80.317 E.00755
;WIDTH:0.620272
G1 F1200
G1 X149.852 Y80.437 E.00645
G1 X149.852 Y129.5 E2.5909
G1 X149.855 Y129.561 F4200
; stop printing object OV-PAM_n_4_1F.stl id:0 copy 0
;LAYER_CHANGE
;Z:2.2
;HEIGHT:0.2
;BEFORE_LAYER_CHANGE
G92 E0.0
;2.2


G1 E-1 F2400
G1 Z2.2 F720
;AFTER_LAYER_CHANGE
;2.2
; printing object OV-PAM_n_4_1F.stl id:0 copy 0
G1 X149.735 Y129.454 F4200
G1 E1 F1500
;WIDTH:0.719328
G1 F1108.798
G1 X149.687 Y129.687 E.01468
G1 X149.567 Y129.712 E.00755
;WIDTH:0.620272
G1 F1200
G1 X149.448 Y129.736 E.00645
G1 X100.552 Y129.736 E2.58205
;WIDTH:0.719328
G1 F1108.798
G1 X100.313 Y129.687 E.01511
G1 X100.288 Y129.567 E.00755
;WIDTH:0.620272
G1 F1200
G1 X100.264 Y129.448 E.00645
G1 X100.264 Y80.552 E2.58205
;WIDTH:0.71933
G1 F1108.795
G1 X100.313 Y80.313 E.01511
;WIDTH:0.719328
G1 X100.433 Y80.288 E.00755
;WIDTH:0.620272
G1 F1200
G1 X100.552 Y80.264 E.00645
G1 X149.448 Y80.264 E2.58205
;WIDTH:0.719328
G1 F1108.798
G1 X149.687 Y80.313 E.01511
G1 X149.712 Y80.433 E.00755
;WIDTH:0.620272
G1 F1200
G1 X149.736 Y80.552 E.00645
G1 X149.736 Y129.395 E2.57925
G1 X149.922 Y129.6 F4200
; stop printing object OV-PAM_n_4_1F.stl id:0 copy 0
;LAYER_CHANGE
;Z:2.4
;HEIGHT:0.2
;BEFORE_LAYER_CHANGE
G92 E0.0
;2.4


M73 P10 R23
M73 Q10 S23
G1 E-1 F2400
G1 Z2.4 F720
;AFTER_LAYER_CHANGE
;2.4
; printing object OV-PAM_n_4_1F.stl id:0 copy 0
G1 X149.617 Y129.349 F4200
G1 E1 F1500
G1 F1200
G1 X149.596 Y129.452 E.00554
;WIDTH:0.71933
G1 F1108.795
G1 X149.571 Y129.571 E.00755
;WIDTH:0.719328
G1 X149.332 Y129.621 E.01511
;WIDTH:0.620272
G1 F1200
G1 X100.668 Y129.621 E2.56985
G1 X100.548 Y129.596 E.00645
;WIDTH:0.71933
G1 F1108.795
G1 X100.429 Y129.571 E.00755
G1 X100.379 Y129.332 E.01511
;WIDTH:0.620272
G1 F1200
G1 X100.379 Y80.668 E2.56985
G1 X100.404 Y80.548 E.00645
;WIDTH:0.71933
G1 F1108.795
G1 X100.429 Y80.429 E.00755
G1 X100.668 Y80.379 E.01511
;WIDTH:0.620272
G1 F1200
G1 X149.332 Y80.379 E2.56985
G1 X149.452 Y80.404 E.00645
;WIDTH:0.71933
G1 F1108.795
G1 X149.571 Y80.429 E.00755
G1 X149.621 Y80.668 E.01511
;WIDTH:0.620272
G1 F1200
G1 X149.621 Y129.289 E2.56759
; stop printing object OV-PAM_n_4_1F.stl id:0 copy 0
;LAYER_CHANGE
;Z:2.6
;HEIGHT:0.2
;BEFORE_LAYER_CHANGE
G92 E0.0
;2.6


G1 E-1 F2400
G1 Z2.6 F720
;AFTER_LAYER_CHANGE
;2.6
; printing object OV-PAM_n_4_1F.stl id:0 copy 0
G1 X149.502 Y129.234 F4200
G1 E1 F1500
G1 F1200
G1 X149.481 Y129.336 E.0055
;WIDTH:0.71933
G1 F1108.795
G1 X149.456 Y129.456 E.00755
;WIDTH:0.719328
G1 X149.217 Y129.505 E.01511
;WIDTH:0.620272
G1 F1200
G1 X100.783 Y129.505 E2.55766
G1 X100.664 Y129.481 E.00645
;WIDTH:0.71933
G1 F1108.795
G1 X100.544 Y129.456 E.00755
G1 X100.495 Y129.217 E.01511
;WIDTH:0.620272
G1 F1200
G1 X100.495 Y80.783 E2.55766
G1 X100.519 Y80.664 E.00645
;WIDTH:0.71933
M73 P11 R23
M73 Q11 S23
G1 F1108.795
G1 X100.544 Y80.544 E.00755
G1 X100.783 Y80.495 E.01511
;WIDTH:0.620272
G1 F1200
G1 X149.217 Y80.495 E2.55766
G1 X149.336 Y80.519 E.00645
;WIDTH:0.71933
G1 F1108.795
G1 X149.456 Y80.544 E.00755
G1 X149.505 Y80.783 E.01511
;WIDTH:0.620272
G1 F1200
G1 X149.505 Y129.175 E2.55544
; stop printing object OV-PAM_n_4_1F.stl id:0 copy 0
;LAYER_CHANGE
;Z:2.8
;HEIGHT:0.2
;BEFORE_LAYER_CHANGE
G92 E0.0
;2.8


G1 E-1 F2400
