; generated by PrusaSlicer 2.5.2+win64 on 2023-10-26 at 06:01:36 UTC


;
;
; 

; external perimeters extrusion width = 0.50mm
; perimeters extrusion width = 0.50mm
; infill extrusion width = 0.50mm
; solid infill extrusion width = 0.50mm
; top infill extrusion width = 0.50mm
; first layer extrusion width = 0.50mm

M73 P0 R29
M73 Q0 S29
M201 X1000 Y1000 Z200 E5000 ; sets maximum accelerations, mm/sec^2
M203 X200 Y200 Z12 E120 ; sets maximum feedrates, mm / sec
M204 P1250 R1250 T1250 ; sets acceleration (P, T) and retract acceleration (R), mm/sec^2
M205 X8.00 Y8.00 Z0.40 E4.50 ; sets the jerk limits, mm/sec
M205 S0 T0 ; sets the minimum extruding and travel feed rate, mm/sec
M107
;TYPE:Custom
M862.3 P "MK3S" ; printer model check
M862.1 P0.4 ; nozzle diameter check
M115 U3.12.2 ; tell printer latest fw version
G90 ; use absolute coordinates
M83 ; extruder relative mode
M104 S240 ; set extruder temp
M140 S60 ; set bed temp
M190 S60 ; wait for bed temp
M109 S240 ; wait for extruder temp
G28 W ; home all without mesh bed level
G80 ; mesh bed leveling

G1 Z0.2 F720
G1 Y-3 F1000 ; go outside print area
G92 E0
G1 X60 E9 F1000 ; intro line
G1 X100 E12.5 F1000 ; intro line

G92 E0
M221 S95

; Don't change E values below. Excessive value can damage the printer.
M907 E430 ; set extruder motor current
G21 ; set units to millimeters
G90 ; use absolute coordinates
M83 ; use relative distances for extrusion
M900 K0 ; Filament gcode
M107
;LAYER_CHANGE
;Z:0.2
;HEIGHT:0.2
;BEFORE_LAYER_CHANGE
G92 E0.0
;0.2


G1 E-1 F2400
G1 Z.2 F720
;AFTER_LAYER_CHANGE
;0.2
G1 X104.021 Y72.121 F4200
G1 E1 F1500
M204 S300
;TYPE:Skirt/Brim
;WIDTH:0.5
G1 F1200
G1 X105.164 Y70.929 E.06902
G1 X107.015 Y70.392 E.08057
G1 X142.985 Y70.392 E1.50379
G1 X144.588 Y70.786 E.06902
M73 P0 R28
M73 Q0 S28
G1 X145.979 Y72.121 E.08057
G1 X163.964 Y103.271 E1.50379
G1 X164.424 Y104.857 E.06902
G1 X163.964 Y106.729 E.08057
G1 X145.979 Y137.879 E1.50379
G1 X144.836 Y139.071 E.06902
G1 X142.985 Y139.608 E.08057
G1 X107.015 Y139.608 E1.50379
G1 X105.412 Y139.214 E.06902
G1 X104.021 Y137.879 E.08057
G1 X86.036 Y106.729 E1.50379
G1 X85.576 Y105.143 E.06902
G1 X86.036 Y103.271 E.08057
G1 X103.991 Y72.173 E1.50128
; printing object OV-PAM_n_6_1F.stl id:0 copy 0
M73 P1 R28
M73 Q1 S28
G1 E-1 F2400
G1 X142.913 Y135.776 F4200
G1 E1 F1500
;TYPE:External perimeter
;WIDTH:0.578817
G1 F1200
G1 X142.83 Y135.883 E.00663
G1 X142.696 Y135.901 E.00663
G1 X107.304 Y135.901 E1.7348
G1 X107.17 Y135.883 E.00663
G1 X107.087 Y135.776 E.00663
G1 X89.391 Y105.125 E1.7348
G1 X89.34 Y105 E.00663
G1 X89.391 Y104.875 E.00663
G1 X107.087 Y74.224 E1.7348
G1 X107.17 Y74.117 E.00663
G1 X107.304 Y74.099 E.00663
G1 X142.696 Y74.099 E1.7348
G1 X142.83 Y74.117 E.00663
G1 X142.913 Y74.224 E.00663
G1 X160.609 Y104.875 E1.7348
G1 X160.66 Y105 E.00663
G1 X160.609 Y105.125 E.00663
G1 X142.943 Y135.724 E1.73186
G1 X142.97 Y135.898 F4200
; stop printing object OV-PAM_n_6_1F.stl id:0 copy 0
;LAYER_CHANGE
;Z:0.4
;HEIGHT:0.2
;BEFORE_LAYER_CHANGE
G92 E0.0
;0.4


G1 E-1 F2400
G1 Z.4 F720
;AFTER_LAYER_CHANGE
;0.4
G1 X142.924 Y135.713 F4200
G1 X142.897 Y135.76
G1 X145.6 Y138.274
G1 E1 F1500
;TYPE:Skirt/Brim
;WIDTH:0.5
G1 F1200
G1 X144.836 Y139.071 E.04617
G1 X142.985 Y139.608 E.08057
G1 X107.015 Y139.608 E1.50379
G1 X105.412 Y139.214 E.06902
G1 X104.021 Y137.879 E.08057
G1 X86.036 Y106.729 E1.50379
G1 X85.576 Y105.143 E.06902
M73 P2 R28
M73 Q2 S28
G1 X86.036 Y103.271 E.08057
G1 X104.021 Y72.121 E1.50379
G1 X105.164 Y70.929 E.06902
G1 X107.015 Y70.392 E.08057
G1 X142.985 Y70.392 E1.50379
G1 X144.588 Y70.786 E.06902
G1 X145.979 Y72.121 E.08057
G1 X163.964 Y103.271 E1.50379
G1 X164.424 Y104.857 E.06902
G1 X163.964 Y106.729 E.08057
G1 X145.979 Y137.879 E1.50379
G1 X145.642 Y138.23 E.02034
; printing object OV-PAM_n_6_1F.stl id:0 copy 0
G1 E-1 F2400
G1 X143.019 Y135.908 F4200
G1 X143.045 Y135.873
G1 X142.913 Y135.776
G1 E1 F1500
;TYPE:External perimeter
;WIDTH:0.578817
G1 F1200
G1 X142.83 Y135.883 E.00663
G1 X142.696 Y135.901 E.00663
G1 X107.304 Y135.901 E1.7348
G1 X107.17 Y135.883 E.00663
G1 X107.087 Y135.776 E.00663
G1 X89.391 Y105.125 E1.7348
G1 X89.34 Y105 E.00663
G1 X89.391 Y104.875 E.00663
G1 X107.087 Y74.224 E1.7348
G1 X107.17 Y74.117 E.00663
G1 X107.304 Y74.099 E.00663
G1 X142.696 Y74.099 E1.7348
G1 X142.83 Y74.117 E.00663
G1 X142.913 Y74.224 E.00663
G1 X160.609 Y104.875 E1.7348
G1 X160.66 Y105 E.00663
M73 P3 R28
M73 Q3 S28
G1 X160.609 Y105.125 E.00663
G1 X142.943 Y135.724 E1.73186
G1 X142.97 Y135.898 F4200
; stop printing object OV-PAM_n_6_1F.stl id:0 copy 0
;LAYER_CHANGE
;Z:0.6
;HEIGHT:0.2
;BEFORE_LAYER_CHANGE
G92 E0.0
;0.6


G1 E-1 F2400
G1 Z.6 F720
;AFTER_LAYER_CHANGE
;0.6
G1 X142.924 Y135.713 F4200
G1 X142.897 Y135.76
G1 X145.6 Y138.274
G1 E1 F1500
;TYPE:Skirt/Brim
;WIDTH:0.5
G1 F1200
G1 X144.836 Y139.071 E.04617
G1 X142.985 Y139.608 E.08057
G1 X107.015 Y139.608 E1.50379
G1 X105.412 Y139.214 E.06902
G1 X104.021 Y137.879 E.08057
G1 X86.036 Y106.729 E1.50379
G1 X85.576 Y105.143 E.06902
G1 X86.036 Y103.271 E.08057
G1 X104.021 Y72.121 E1.50379
G1 X105.164 Y70.929 E.06902
G1 X107.015 Y70.392 E.08057
G1 X142.985 Y70.392 E1.50379
G1 X144.588 Y70.786 E.06902
G1 X145.979 Y72.121 E.08057
G1 X163.964 Y103.271 E1.50379
G1 X164.424 Y104.857 E.06902
G1 X163.964 Y106.729 E.08057
G1 X145.979 Y137.879 E1.50379
G1 X145.642 Y138.23 E.02034
; printing object OV-PAM_n_6_1F.stl id:0 copy 0
G1 E-1 F2400
G1 X143.019 Y135.908 F4200
G1 X143.045 Y135.873
G1 X142.913 Y135.776
G1 E1 F1500
;TYPE:External perimeter
;WIDTH:0.578817
G1 F1200
G1 X142.83 Y135.883 E.00663
G1 X142.696 Y135.901 E.00663
G1 X107.304 Y135.901 E1.7348
G1 X107.17 Y135.883 E.00663
M73 P3 R27
M73 Q3 S27
G1 X107.087 Y135.776 E.00663
G1 X89.391 Y105.125 E1.7348
G1 X89.34 Y105 E.00663
M73 P4 R27
M73 Q4 S27
G1 X89.391 Y104.875 E.00663
G1 X107.087 Y74.224 E1.7348
G1 X107.17 Y74.117 E.00663
G1 X107.304 Y74.099 E.00663
G1 X142.696 Y74.099 E1.7348
G1 X142.83 Y74.117 E.00663
G1 X142.913 Y74.224 E.00663
G1 X160.609 Y104.875 E1.7348
G1 X160.66 Y105 E.00663
G1 X160.609 Y105.125 E.00663
G1 X142.943 Y135.724 E1.73186
G1 X142.97 Y135.898 F4200
; stop printing object OV-PAM_n_6_1F.stl id:0 copy 0
;LAYER_CHANGE
;Z:0.8
;HEIGHT:0.2
;BEFORE_LAYER_CHANGE
G92 E0.0
;0.8


G1 E-1 F2400
G1 Z.8 F720
;AFTER_LAYER_CHANGE
;0.8
; printing object OV-PAM_n_6_1F.stl id:0 copy 0
G1 X142.913 Y135.776 F4200
G1 E1 F1500
G1 F1200
G1 X142.83 Y135.883 E.00663
G1 X142.696 Y135.901 E.00663
G1 X107.304 Y135.901 E1.7348
G1 X107.17 Y135.883 E.00663
G1 X107.087 Y135.776 E.00663
G1 X89.391 Y105.125 E1.7348
G1 X89.34 Y105 E.00663
G1 X89.391 Y104.875 E.00663
G1 X107.087 Y74.224 E1.7348
G1 X107.17 Y74.117 E.00663
G1 X107.304 Y74.099 E.00663
G1 X142.696 Y74.099 E1.7348
G1 X142.83 Y74.117 E.00663
G1 X142.913 Y74.224 E.00663
G1 X160.609 Y104.875 E1.7348
G1 X160.66 Y105 E.00663
G1 X160.609 Y105.125 E.00663
G1 X142.943 Y135.724 E1.73186
G1 X142.97 Y135.898 F4200
; stop printing object OV-PAM_n_6_1F.stl id:0 copy 0
;LAYER_CHANGE
;Z:1
;HEIGHT:0.2
;BEFORE_LAYER_CHANGE
G92 E0.0
;1


M73 P5 R27
M73 Q5 S27
G1 E-1 F2400
G1 Z1 F720
;AFTER_LAYER_CHANGE
;1
; printing object OV-PAM_n_6_1F.stl id:0 copy 0
G1 X142.913 Y135.776 F4200
G1 E1 F1500
G1 F1200
G1 X142.83 Y135.883 E.00663
G1 X142.696 Y135.901 E.00663
G1 X107.304 Y135.901 E1.7348
G1 X107.17 Y135.883 E.00663
G1 X107.087 Y135.776 E.00663
G1 X89.391 Y105.125 E1.7348
G1 X89.34 Y105 E.00663
G1 X89.391 Y104.875 E.00663
G1 X107.087 Y74.224 E1.7348
G1 X107.17 Y74.117 E.00663
G1 X107.304 Y74.099 E.00663
G1 X142.696 Y74.099 E1.7348
G1 X142.83 Y74.117 E.00663
G1 X142.913 Y74.224 E.00663
G1 X160.609 Y104.875 E1.7348
G1 X160.66 Y105 E.00663
G1 X160.609 Y105.125 E.00663
G1 X142.943 Y135.724 E1.73186
G1 X142.97 Y135.898 F4200
; stop printing object OV-PAM_n_6_1F.stl id:0 copy 0
;LAYER_CHANGE
;Z:1.2
;HEIGHT:0.2
;BEFORE_LAYER_CHANGE
G92 E0.0
;1.2


G1 E-1 F2400
G1 Z1.2 F720
;AFTER_LAYER_CHANGE
;1.2
; printing object OV-PAM_n_6_1F.stl id:0 copy 0
G1 X142.91 Y135.761 F4200
G1 E1 F1500
;WIDTH:0.599841
G1 F1200
G1 X142.824 Y135.872 E.00716
G1 X142.685 Y135.891 E.00716
G1 X107.315 Y135.891 E1.8017
G1 X107.176 Y135.872 E.00716
G1 X107.09 Y135.761 E.00716
G1 X89.405 Y105.13 E1.8017
G1 X89.352 Y105 E.00716
G1 X89.405 Y104.87 E.00716
G1 X107.09 Y74.239 E1.8017
G1 X107.176 Y74.128 E.00716
M73 P6 R27
M73 Q6 S27
G1 X107.315 Y74.109 E.00716
G1 X142.685 Y74.109 E1.8017
G1 X142.824 Y74.128 E.00716
G1 X142.91 Y74.239 E.00716
G1 X160.595 Y104.87 E1.8017
G1 X160.648 Y105 E.00716
G1 X160.595 Y105.13 E.00716
G1 X142.94 Y135.709 E1.79864
G1 X142.969 Y135.888 F4200
; stop printing object OV-PAM_n_6_1F.stl id:0 copy 0
;LAYER_CHANGE
;Z:1.4
;HEIGHT:0.2
;BEFORE_LAYER_CHANGE
G92 E0.0
;1.4


G1 E-1 F2400
G1 Z1.4 F720
;AFTER_LAYER_CHANGE
;1.4
; printing object OV-PAM_n_6_1F.stl id:0 copy 0
G1 X142.868 Y135.66 F4200
G1 E1 F1500
;WIDTH:0.661722
G1 F1200
G1 X142.773 Y135.784 E.00883
G1 X142.618 Y135.804 E.00883
G1 X107.382 Y135.804 E1.99435
G1 X107.227 Y135.784 E.00883
G1 X107.132 Y135.66 E.00883
G1 X89.514 Y105.144 E1.99435
G1 X89.454 Y105 E.00883
G1 X89.514 Y104.856 E.00883
G1 X107.132 Y74.34 E1.99435
G1 X107.227 Y74.216 E.00883
G1 X107.382 Y74.196 E.00883
G1 X142.618 Y74.196 E1.99435
G1 X142.773 Y74.216 E.00883
G1 X142.868 Y74.34 E.00883
G1 X160.486 Y104.856 E1.99435
G1 X160.546 Y105 E.00883
G1 X160.486 Y105.144 E.00883
G1 X142.898 Y135.608 E1.99095
G1 X142.934 Y135.802 F4200
; stop printing object OV-PAM_n_6_1F.stl id:0 copy 0
;LAYER_CHANGE
;Z:1.6
;HEIGHT:0.2
;BEFORE_LAYER_CHANGE
G92 E0.0
;1.6


G1 E-1 F2400
G1 Z1.6 F720
;AFTER_LAYER_CHANGE
;1.6
; printing object OV-PAM_n_6_1F.stl id:0 copy 0
G1 X142.802 Y135.545 F4200
G1 E1 F1500
;WIDTH:0.661722
G1 F1200
G1 X142.706 Y135.668 E.00883
G1 X142.552 Y135.689 E.00883
G1 X107.448 Y135.689 E1.9868
G1 X107.294 Y135.668 E.00883
M73 P7 R27
M73 Q7 S27
G1 X107.198 Y135.545 E.00883
G1 X89.647 Y105.144 E1.9868
G1 X89.587 Y105 E.00883
G1 X89.647 Y104.856 E.00883
G1 X107.198 Y74.455 E1.9868
G1 X107.294 Y74.332 E.00883
G1 X107.448 Y74.311 E.00883
G1 X142.552 Y74.311 E1.9868
G1 X142.706 Y74.332 E.00883
M73 P7 R26
M73 Q7 S26
G1 X142.802 Y74.455 E.00883
G1 X160.353 Y104.856 E1.9868
G1 X160.413 Y105 E.00883
G1 X160.353 Y105.144 E.00883
G1 X142.832 Y135.493 E1.98341
G1 X142.646 Y135.531 F4200
; stop printing object OV-PAM_n_6_1F.stl id:0 copy 0
;LAYER_CHANGE
;Z:1.8
;HEIGHT:0.2
;BEFORE_LAYER_CHANGE
G92 E0.0
;1.8


G1 E-1 F2400
G1 Z1.8 F720
;AFTER_LAYER_CHANGE
;1.8
; printing object OV-PAM_n_6_1F.stl id:0 copy 0
G1 X142.735 Y135.429 F4200
G1 E1 F1500
;WIDTH:0.665607
G1 F1200
G1 X142.647 Y135.551 E.00856
G1 X142.485 Y135.573 E.0093
G1 X107.515 Y135.573 E1.99168
G1 X107.366 Y135.558 E.00856
G1 X107.265 Y135.429 E.0093
G1 X89.78 Y105.144 E1.99168
G1 X89.719 Y105.007 E.00856
G1 X89.78 Y104.856 E.0093
G1 X107.265 Y74.571 E1.99168
G1 X107.353 Y74.449 E.00856
G1 X107.515 Y74.427 E.0093
G1 X142.485 Y74.427 E1.99168
G1 X142.634 Y74.442 E.00856
M73 P8 R26
M73 Q8 S26
G1 X142.735 Y74.571 E.0093
G1 X160.22 Y104.856 E1.99168
G1 X160.281 Y104.993 E.00856
G1 X160.22 Y105.144 E.0093
G1 X142.765 Y135.377 E1.98826
G1 X142.801 Y135.564 F4200
; stop printing object OV-PAM_n_6_1F.stl id:0 copy 0
;LAYER_CHANGE
;Z:2
;HEIGHT:0.2
;BEFORE_LAYER_CHANGE
G92 E0.0
;2


G1 E-1 F2400
G1 Z2 F720
;AFTER_LAYER_CHANGE
;2
; printing object OV-PAM_n_6_1F.stl id:0 copy 0
G1 X142.677 Y135.299 F4200
G1 E1 F1500
;WIDTH:0.620753
G1 F1200
G1 X142.668 Y135.314 E.00088
;WIDTH:0.682216
G1 F1173.165
G1 X142.607 Y135.427 E.00752
G1 X142.513 Y135.442 E.0056
;WIDTH:0.620752
G1 F1200
G1 X142.418 Y135.458 E.00506
G1 X107.582 Y135.458 E1.84116
;WIDTH:0.682216
G1 F1173.166
G1 X107.453 Y135.462 E.00752
G1 X107.392 Y135.388 E.0056
;WIDTH:0.620753
G1 F1200
G1 X107.332 Y135.314 E.00506
G1 X89.913 Y105.144 E1.84117
;WIDTH:0.682217
G1 F1173.164
G1 X89.846 Y105.035 E.00752
G1 X89.88 Y104.945 E.0056
;WIDTH:0.620753
G1 F1200
G1 X89.914 Y104.856 E.00506
G1 X107.332 Y74.686 E1.84117
;WIDTH:0.682216
G1 F1173.165
G1 X107.393 Y74.573 E.00752
G1 X107.487 Y74.558 E.0056
;WIDTH:0.620752
G1 F1200
G1 X107.582 Y74.542 E.00506
G1 X142.418 Y74.542 E1.84116
;WIDTH:0.682216
G1 F1173.166
G1 X142.547 Y74.538 E.00752
G1 X142.608 Y74.612 E.0056
;WIDTH:0.620753
G1 F1200
G1 X142.668 Y74.686 E.00506
G1 X160.087 Y104.856 E1.84117
;WIDTH:0.682216
G1 F1173.166
G1 X160.154 Y104.965 E.00752
;WIDTH:0.682217
G1 X160.12 Y105.055 E.0056
;WIDTH:0.620753
G1 F1200
G1 X160.086 Y105.144 E.00506
G1 X142.707 Y135.247 E1.83711
G1 X142.685 Y135.314 F4200
; stop printing object OV-PAM_n_6_1F.stl id:0 copy 0
;LAYER_CHANGE
;Z:2.2
;HEIGHT:0.2
;BEFORE_LAYER_CHANGE
G92 E0.0
;2.2


G1 E-1 F2400
G1 Z2.2 F720
;AFTER_LAYER_CHANGE
;2.2
; printing object OV-PAM_n_6_1F.stl id:0 copy 0
G1 X142.612 Y135.204 F4200
G1 E1 F1500
;WIDTH:0.71105
G1 F1122.536
G1 X142.581 Y135.297 E.006
G1 X142.466 Y135.32 E.00713
;WIDTH:0.643846
G1 F1200
G1 X142.352 Y135.342 E.00641
G1 X107.648 Y135.354 E1.90742
;WIDTH:0.711051
G1 F1122.535
G1 X107.552 Y135.374 E.006
G1 X107.475 Y135.286 E.00713
;WIDTH:0.643847
G1 F1200
G1 X107.398 Y135.198 E.00641
G1 X90.037 Y105.15 E1.90742
;WIDTH:0.711051
G1 F1122.535
M73 P9 R26
M73 Q9 S26
G1 X89.972 Y105.077 E.006
G1 X90.009 Y104.966 E.00713
;WIDTH:0.643848
G1 F1200
G1 X90.047 Y104.856 E.00641
G1 X107.388 Y74.796 E1.90743
;WIDTH:0.71105
G1 F1122.536
G1 X107.419 Y74.703 E.006
G1 X107.534 Y74.68 E.00713
;WIDTH:0.643846
G1 F1200
G1 X107.648 Y74.658 E.00641
G1 X142.352 Y74.646 E1.90742
;WIDTH:0.71105
G1 F1122.536
G1 X142.448 Y74.626 E.006
G1 X142.525 Y74.714 E.00713
;WIDTH:0.643847
G1 F1200
G1 X142.602 Y74.802 E.00641
G1 X159.963 Y104.85 E1.90742
;WIDTH:0.71105
G1 F1122.537
G1 X160.028 Y104.923 E.006
;WIDTH:0.711051
G1 X159.991 Y105.034 E.00713
;WIDTH:0.643848
G1 F1200
G1 X159.953 Y105.144 E.00641
G1 X142.636 Y135.149 E1.90414
G1 X142.672 Y135.282 F4200
; stop printing object OV-PAM_n_6_1F.stl id:0 copy 0
;LAYER_CHANGE
;Z:2.4
;HEIGHT:0.2
;BEFORE_LAYER_CHANGE
G92 E0.0
;2.4


G1 E-1 F2400
G1 Z2.4 F720
;AFTER_LAYER_CHANGE
;2.4
; printing object OV-PAM_n_6_1F.stl id:0 copy 0
G1 X142.57 Y135.103 F4200
G1 E1 F1500
;WIDTH:0.707933
G1 F1127.798
G1 X142.56 Y135.161 E.00359
G1 X142.377 Y135.205 E.01149
;WIDTH:0.620272
G1 F1200
G1 X142.285 Y135.227 E.00499
G1 X107.932 Y135.227 E1.81411
;WIDTH:0.707933
G1 F1127.797
G1 X107.66 Y135.288 E.01696
G1 X107.53 Y135.151 E.01149
;WIDTH:0.620273
G1 F1200
G1 X107.465 Y135.083 E.00499
G1 X90.289 Y105.332 E1.81411
;WIDTH:0.707935
G1 F1127.795
G1 X90.099 Y105.127 E.01696
G1 X90.153 Y104.946 E.01149
;WIDTH:0.620272
G1 F1200
G1 X90.18 Y104.856 E.00499
G1 X107.357 Y75.105 E1.81411
;WIDTH:0.707933
G1 F1127.798
G1 X107.44 Y74.839 E.01696
G1 X107.623 Y74.795 E.01149
;WIDTH:0.620272
G1 F1200
G1 X107.715 Y74.773 E.00499
G1 X142.068 Y74.773 E1.81411
;WIDTH:0.707933
G1 F1127.797
G1 X142.34 Y74.712 E.01696
G1 X142.47 Y74.849 E.01149
;WIDTH:0.620273
G1 F1200
G1 X142.535 Y74.917 E.00499
G1 X159.711 Y104.668 E1.81411
;WIDTH:0.701582
G1 F1138.673
G1 X159.855 Y104.835 E.01328
;WIDTH:0.751765
G1 F1058.06
G1 X159.901 Y104.873 E.00383
;WIDTH:0.707935
G1 F1127.795
G1 X159.847 Y105.054 E.01149
;WIDTH:0.620272
G1 F1200
G1 X159.82 Y105.144 E.00499
G1 X142.643 Y134.895 E1.81411
;WIDTH:0.707933
G1 F1127.798
M73 P10 R26
M73 Q10 S26
G1 X142.59 Y135.046 E.00976
; stop printing object OV-PAM_n_6_1F.stl id:0 copy 0
;LAYER_CHANGE
;Z:2.6
;HEIGHT:0.2
;BEFORE_LAYER_CHANGE
G92 E0.0
;2.6


G1 E-1 F2400
G1 Z2.6 F720
;AFTER_LAYER_CHANGE
;2.6
; printing object OV-PAM_n_6_1F.stl id:0 copy 0
G1 X142.462 Y135.043 F4200
G1 E1 F1500
;WIDTH:0.757484
G1 F1049.591
G1 X142.381 Y135.066 E.00552
;WIDTH:0.663693
G1 F1200
G1 X142.218 Y135.112 E.00959
G1 X108.098 Y135.112 E1.9373
G1 X108.019 Y135.133 E.00466
;WIDTH:0.750534
G1 F1059.901
G1 X107.861 Y135.177 E.01063
;WIDTH:0.80322
G1 F986.453
G1 X107.773 Y135.203 E.00635
G1 X107.713 Y135.144 E.00587
;WIDTH:0.711746
G1 F1121.368
G1 X107.592 Y135.026 E.01033
;WIDTH:0.620272
G1 F1200
G1 X107.532 Y134.967 E.00446
G1 X90.472 Y105.419 E1.80179
;WIDTH:0.707114
G1 F1129.188
G1 X90.355 Y105.303 E.00997
;WIDTH:0.757484
G1 F1049.591
G1 X90.23 Y105.183 E.01133
