; generated by PrusaSlicer 2.5.2+win64 on 2023-10-26 at 06:02:11 UTC


;
;
; 

; external perimeters extrusion width = 0.50mm
; perimeters extrusion width = 0.50mm
; infill extrusion width = 0.50mm
; solid infill extrusion width = 0.50mm
; top infill extrusion width = 0.50mm
; first layer extrusion width = 0.50mm

M73 P0 R27
M73 Q0 S27
M201 X1000 Y1000 Z200 E5000 ; sets maximum accelerations, mm/sec^2
M203 X200 Y200 Z12 E120 ; sets maximum feedrates, mm / sec
M204 P1250 R1250 T1250 ; sets acceleration (P, T) and retract acceleration (R), mm/sec^2
M205 X8.00 Y8.00 Z0.40 E4.50 ; sets the jerk limits, mm/sec
M205 S0 T0 ; sets the minimum extruding and travel feed rate, mm/sec
M107
;TYPE:Custom
M862.3 P "MK3S" ; printer model check
M862.1 P0.4 ; nozzle diameter check
M115 U3.12.2 ; tell printer latest fw version
G90 ; use absolute coordinates
M83 ; extruder relative mode
M104 S240 ; set extruder temp
M140 S60 ; set bed temp
M190 S60 ; wait for bed temp
M109 S240 ; wait for extruder temp
G28 W ; home all without mesh bed level
G80 ; mesh bed leveling

G1 Z0.2 F720
G1 Y-3 F1000 ; go outside print area
G92 E0
G1 X60 E9 F1000 ; intro line
G1 X100 E12.5 F1000 ; intro line

G92 E0
M221 S95

; Don't change E values below. Excessive value can damage the printer.
M907 E430 ; set extruder motor current
G21 ; set units to millimeters
G90 ; use absolute coordinates
M83 ; use relative distances for extrusion
M900 K0 ; Filament gcode
M107
;LAYER_CHANGE
;Z:0.2
;HEIGHT:0.2
;BEFORE_LAYER_CHANGE
G92 E0.0
;0.2


M73 P0 R26
M73 Q0 S26
G1 E-1 F2400
G1 Z.2 F720
;AFTER_LAYER_CHANGE
;0.2
G1 X93.918 Y81.097 F4200
G1 E1 F1500
M204 S300
;TYPE:Skirt/Brim
;WIDTH:0.5
G1 F1200
G1 X111.872 Y68.053 E.92779
G1 X113.904 Y67.393 E.08932
G1 X136.096 Y67.393 E.92779
G1 X138.128 Y68.053 E.08932
G1 X156.082 Y81.097 E.92779
G1 X157.338 Y82.826 E.08932
G1 X164.196 Y103.932 E.92779
G1 X164.196 Y106.068 E.08932
G1 X157.338 Y127.174 E.92779
G1 X156.082 Y128.903 E.08932
G1 X138.128 Y141.947 E.92779
G1 X136.096 Y142.608 E.08932
G1 X113.904 Y142.608 E.92779
G1 X111.872 Y141.947 E.08932
G1 X93.918 Y128.903 E.92779
G1 X92.662 Y127.174 E.08932
M73 P1 R26
M73 Q1 S26
G1 X85.804 Y106.068 E.92779
G1 X85.804 Y103.932 E.08932
G1 X92.662 Y82.826 E.92779
G1 X93.883 Y81.146 E.08682
; printing object OV-PAM_n_10_1F.stl id:0 copy 0
G1 E-1 F2400
G1 X89.362 Y105 F4200
G1 E1 F1500
;TYPE:External perimeter
;WIDTH:0.55546
G1 F1200
G1 X96.168 Y84.052 E1.03256
G1 X113.919 Y71.147 E1.02885
G1 X113.987 Y71.106 E.00372
G1 X114.066 Y71.1 E.00372
G1 X136.013 Y71.106 E1.02885
G1 X153.772 Y84.001 E1.02885
G1 X153.832 Y84.052 E.00372
G1 X153.863 Y84.126 E.00372
G1 X160.638 Y105 E1.02885
G1 X153.832 Y125.948 E1.03256
G1 X136.081 Y138.853 E1.02885
G1 X136.013 Y138.894 E.00372
G1 X135.934 Y138.9 E.00372
G1 X113.987 Y138.894 E1.02885
G1 X96.228 Y125.999 E1.02885
G1 X96.168 Y125.948 E.00372
G1 X96.137 Y125.874 E.00372
G1 X89.376 Y105.058 E1.02604
G1 X89.038 Y104.765 F4200
; stop printing object OV-PAM_n_10_1F.stl id:0 copy 0
;LAYER_CHANGE
;Z:0.4
;HEIGHT:0.2
;BEFORE_LAYER_CHANGE
G92 E0.0
;0.4


G1 E-1 F2400
G1 Z.4 F720
;AFTER_LAYER_CHANGE
;0.4
G1 X85.804 Y105.058 F4200
G1 E1 F1500
;TYPE:Skirt/Brim
;WIDTH:0.5
G1 F1200
G1 X85.804 Y103.932 E.0471
G1 X92.662 Y82.826 E.92779
G1 X93.918 Y81.097 E.08932
M73 P2 R26
M73 Q2 S26
G1 X111.872 Y68.053 E.92779
G1 X113.904 Y67.393 E.08932
G1 X136.096 Y67.393 E.92779
G1 X138.128 Y68.053 E.08932
G1 X156.082 Y81.097 E.92779
G1 X157.338 Y82.826 E.08932
G1 X164.196 Y103.932 E.92779
G1 X164.196 Y106.068 E.08932
G1 X157.338 Y127.174 E.92779
G1 X156.082 Y128.903 E.08932
G1 X138.128 Y141.947 E.92779
G1 X136.096 Y142.608 E.08932
G1 X113.904 Y142.608 E.92779
G1 X111.872 Y141.947 E.08932
G1 X93.918 Y128.903 E.92779
G1 X92.662 Y127.174 E.08932
G1 X85.804 Y106.068 E.92779
G1 X85.804 Y105.118 E.03971
; printing object OV-PAM_n_10_1F.stl id:0 copy 0
G1 E-1 F2400
G1 X89.192 Y105.015 F4200
G1 X89.203 Y105.057
G1 X89.364 Y105.011
G1 E1 F1500
;TYPE:External perimeter
;WIDTH:0.55546
G1 F1200
G1 X96.168 Y84.052 E1.03303
G1 X113.919 Y71.147 E1.02885
G1 X113.987 Y71.106 E.00372
G1 X114.066 Y71.1 E.00372
G1 X136.013 Y71.106 E1.02885
G1 X153.772 Y84.001 E1.02885
G1 X153.832 Y84.052 E.00372
M73 P3 R26
M73 Q3 S26
G1 X153.863 Y84.126 E.00372
G1 X160.638 Y105 E1.02885
G1 X153.832 Y125.948 E1.03256
G1 X136.081 Y138.853 E1.02885
G1 X136.013 Y138.894 E.00372
G1 X135.934 Y138.9 E.00372
G1 X113.987 Y138.894 E1.02885
G1 X96.228 Y125.999 E1.02885
G1 X96.168 Y125.948 E.00372
G1 X96.137 Y125.874 E.00372
G1 X89.378 Y105.07 E1.02549
G1 X89.041 Y104.776 F4200
; stop printing object OV-PAM_n_10_1F.stl id:0 copy 0
;LAYER_CHANGE
;Z:0.6
;HEIGHT:0.2
;BEFORE_LAYER_CHANGE
G92 E0.0
;0.6


G1 E-1 F2400
G1 Z.6 F720
;AFTER_LAYER_CHANGE
;0.6
G1 X89.398 Y105.063 F4200
G1 X89.398 Y105.063
G1 X85.804 Y105.07
G1 E1 F1500
;TYPE:Skirt/Brim
;WIDTH:0.5
G1 F1200
G1 X85.804 Y103.932 E.04758
G1 X92.662 Y82.826 E.92779
G1 X93.918 Y81.097 E.08932
G1 X111.872 Y68.053 E.92779
G1 X113.904 Y67.393 E.08932
G1 X136.096 Y67.393 E.92779
G1 X138.128 Y68.053 E.08932
G1 X156.082 Y81.097 E.92779
G1 X157.338 Y82.826 E.08932
M73 P3 R25
M73 Q3 S25
G1 X164.196 Y103.932 E.92779
G1 X164.196 Y106.068 E.08932
G1 X157.338 Y127.174 E.92779
G1 X156.082 Y128.903 E.08932
G1 X138.128 Y141.947 E.92779
G1 X136.096 Y142.608 E.08932
G1 X113.904 Y142.608 E.92779
G1 X111.872 Y141.947 E.08932
M73 P4 R25
M73 Q4 S25
G1 X93.918 Y128.903 E.92779
G1 X92.662 Y127.174 E.08932
G1 X85.804 Y106.068 E.92779
G1 X85.804 Y105.13 E.03924
; printing object OV-PAM_n_10_1F.stl id:0 copy 0
G1 E-1 F2400
G1 X89.197 Y105.033 F4200
G1 X89.209 Y105.076
G1 X89.369 Y105.031
G1 E1 F1500
;TYPE:External perimeter
;WIDTH:0.55546
G1 F1200
G1 X89.38 Y104.923 E.0051
G1 X96.168 Y84.052 E1.02885
G1 X113.919 Y71.147 E1.02885
G1 X113.987 Y71.106 E.00372
G1 X114.066 Y71.1 E.00372
G1 X136.013 Y71.106 E1.02885
G1 X153.772 Y84.001 E1.02885
G1 X153.832 Y84.052 E.00372
G1 X153.863 Y84.126 E.00372
G1 X160.638 Y105 E1.02885
G1 X153.832 Y125.948 E1.03256
G1 X136.081 Y138.853 E1.02885
G1 X136.013 Y138.894 E.00372
G1 X135.934 Y138.9 E.00372
G1 X114.066 Y138.9 E1.02513
G1 X113.987 Y138.894 E.00372
G1 X113.919 Y138.853 E.00372
G1 X96.168 Y125.948 E1.02885
G1 X89.384 Y105.089 E1.02827
G1 X89.268 Y104.99 F4200
; stop printing object OV-PAM_n_10_1F.stl id:0 copy 0
;LAYER_CHANGE
;Z:0.8
;HEIGHT:0.2
;BEFORE_LAYER_CHANGE
G92 E0.0
;0.8


G1 E-1 F2400
G1 Z.8 F720
;AFTER_LAYER_CHANGE
;0.8
; printing object OV-PAM_n_10_1F.stl id:0 copy 0
G1 X89.374 Y105.054 F4200
G1 E1 F1500
G1 F1200
G1 X89.362 Y105 E.00258
G1 X89.38 Y104.923 E.00372
G1 X96.168 Y84.052 E1.02885
G1 X113.919 Y71.147 E1.02885
G1 X113.987 Y71.106 E.00372
M73 P5 R25
M73 Q5 S25
G1 X114.066 Y71.1 E.00372
G1 X136.013 Y71.106 E1.02885
G1 X153.772 Y84.001 E1.02885
G1 X153.832 Y84.052 E.00372
G1 X153.863 Y84.126 E.00372
G1 X160.638 Y105 E1.02885
G1 X153.832 Y125.948 E1.03256
G1 X136.081 Y138.853 E1.02885
G1 X136.013 Y138.894 E.00372
G1 X135.934 Y138.9 E.00372
G1 X114.066 Y138.9 E1.02513
G1 X113.987 Y138.894 E.00372
G1 X113.919 Y138.853 E.00372
G1 X96.168 Y125.948 E1.02885
G1 X89.391 Y105.111 E1.02718
G1 X89.32 Y105.045 F4200
; stop printing object OV-PAM_n_10_1F.stl id:0 copy 0
;LAYER_CHANGE
;Z:1
;HEIGHT:0.2
;BEFORE_LAYER_CHANGE
G92 E0.0
;1


G1 E-1 F2400
G1 Z1 F720
;AFTER_LAYER_CHANGE
;1
; printing object OV-PAM_n_10_1F.stl id:0 copy 0
G1 X89.382 Y105.084 F4200
G1 E1 F1500
G1 F1200
G1 X89.362 Y105 E.00407
G1 X89.38 Y104.923 E.00372
G1 X96.168 Y84.052 E1.02885
G1 X113.919 Y71.147 E1.02885
G1 X113.987 Y71.106 E.00372
G1 X114.066 Y71.1 E.00372
G1 X136.013 Y71.106 E1.02885
G1 X153.772 Y84.001 E1.02885
G1 X153.832 Y84.052 E.00372
G1 X153.863 Y84.126 E.00372
G1 X160.638 Y105 E1.02885
G1 X153.832 Y125.948 E1.03256
G1 X136.081 Y138.853 E1.02885
M73 P6 R25
M73 Q6 S25
G1 X136.013 Y138.894 E.00372
G1 X135.934 Y138.9 E.00372
G1 X114.066 Y138.9 E1.02513
G1 X113.987 Y138.894 E.00372
G1 X113.919 Y138.853 E.00372
G1 X96.168 Y125.948 E1.02885
G1 X89.401 Y105.141 E1.02569
G1 X89.297 Y105.071 F4200
; stop printing object OV-PAM_n_10_1F.stl id:0 copy 0
;LAYER_CHANGE
;Z:1.2
;HEIGHT:0.2
;BEFORE_LAYER_CHANGE
G92 E0.0
;1.2


G1 E-1 F2400
G1 Z1.2 F720
;AFTER_LAYER_CHANGE
;1.2
; printing object OV-PAM_n_10_1F.stl id:0 copy 0
G1 X89.403 Y105.116 F4200
G1 E1 F1500
;WIDTH:0.575567
G1 F1200
G1 X89.372 Y105 E.00584
G1 X89.391 Y104.92 E.00402
G1 X96.176 Y84.058 E1.06874
G1 X113.92 Y71.159 E1.06874
G1 X113.99 Y71.116 E.00402
G1 X114.073 Y71.109 E.00402
G1 X136.01 Y71.116 E1.06874
G1 X153.761 Y84.005 E1.06874
G1 X153.824 Y84.058 E.00402
G1 X153.855 Y84.135 E.00402
G1 X160.628 Y105 E1.06874
G1 X153.824 Y125.942 E1.07275
G1 X136.08 Y138.841 E1.06874
G1 X136.01 Y138.884 E.00402
G1 X135.927 Y138.891 E.00402
G1 X114.073 Y138.891 E1.06473
G1 X113.99 Y138.884 E.00402
G1 X113.92 Y138.841 E.00402
G1 X96.176 Y125.942 E1.06874
G1 X89.421 Y105.173 E1.06399
G1 X89.284 Y105.099 F4200
; stop printing object OV-PAM_n_10_1F.stl id:0 copy 0
;LAYER_CHANGE
;Z:1.4
;HEIGHT:0.2
;BEFORE_LAYER_CHANGE
G92 E0.0
;1.4


G1 E-1 F2400
G1 Z1.4 F720
;AFTER_LAYER_CHANGE
;1.4
; printing object OV-PAM_n_10_1F.stl id:0 copy 0
G1 X89.501 Y105.136 F4200
G1 E1 F1500
;WIDTH:0.634754
G1 F1200
G1 X89.464 Y105 E.00764
G1 X89.485 Y104.911 E.00497
G1 X96.251 Y84.112 E1.18393
G1 X113.941 Y71.251 E1.18393
M73 P7 R25
M73 Q7 S25
G1 X114.019 Y71.203 E.00497
G1 X114.11 Y71.196 E.00497
G1 X135.981 Y71.203 E1.18393
G1 X153.68 Y84.053 E1.18393
G1 X153.749 Y84.112 E.00497
G1 X153.784 Y84.197 E.00497
G1 X160.536 Y105 E1.18393
G1 X153.749 Y125.888 E1.18888
G1 X136.059 Y138.749 E1.18393
G1 X135.981 Y138.797 E.00497
M73 P7 R24
M73 Q7 S24
G1 X135.89 Y138.804 E.00497
G1 X114.11 Y138.804 E1.17898
G1 X114.019 Y138.797 E.00497
G1 X113.941 Y138.749 E.00497
G1 X96.251 Y125.888 E1.18393
G1 X89.519 Y105.193 E1.178
G1 X89.361 Y105.117 F4200
; stop printing object OV-PAM_n_10_1F.stl id:0 copy 0
;LAYER_CHANGE
;Z:1.6
;HEIGHT:0.2
;BEFORE_LAYER_CHANGE
G92 E0.0
;1.6


G1 E-1 F2400
G1 Z1.6 F720
;AFTER_LAYER_CHANGE
;1.6
; printing object OV-PAM_n_10_1F.stl id:0 copy 0
G1 X89.628 Y105.154 F4200
G1 E1 F1500
;WIDTH:0.641036
G1 F1200
G1 X89.583 Y105.018 E.00784
G1 X89.607 Y104.911 E.00602
G1 X96.336 Y84.197 E1.19149
G1 X114.038 Y71.322 E1.19748
G1 X114.148 Y71.311 E.00602
G1 X135.927 Y71.311 E1.19149
G1 X153.642 Y84.168 E1.19748
G1 X160.417 Y104.982 E1.19748
G1 X153.664 Y125.803 E1.19748
M73 P8 R24
M73 Q8 S24
G1 X135.962 Y138.678 E1.19748
G1 X135.852 Y138.689 E.00602
G1 X114.073 Y138.689 E1.19149
G1 X113.978 Y138.633 E.00602
G1 X96.358 Y125.832 E1.19149
G1 X89.646 Y105.211 E1.18636
G1 X89.485 Y105.14 F4200
; stop printing object OV-PAM_n_10_1F.stl id:0 copy 0
;LAYER_CHANGE
;Z:1.8
;HEIGHT:0.2
;BEFORE_LAYER_CHANGE
G92 E0.0
;1.8


G1 E-1 F2400
G1 Z1.8 F720
;AFTER_LAYER_CHANGE
;1.8
; printing object OV-PAM_n_10_1F.stl id:0 copy 0
G1 X89.752 Y105.178 F4200
G1 E1 F1500
;WIDTH:0.665787
G1 F1200
G1 X89.7 Y105.072 E.00671
G1 X89.728 Y104.911 E.00933
G1 X96.37 Y84.469 E1.22454
G1 X96.399 Y84.309 E.00922
G1 X96.517 Y84.196 E.00933
G1 X113.906 Y71.562 E1.22454
G1 X114.023 Y71.45 E.00922
G1 X114.185 Y71.427 E.00933
G1 X135.679 Y71.427 E1.22454
G1 X135.84 Y71.405 E.00922
G1 X135.984 Y71.482 E.00933
G1 X153.374 Y84.116 E1.22454
G1 X153.516 Y84.193 E.00922
G1 X153.588 Y84.34 E.00933
G1 X160.23 Y104.782 E1.22454
G1 X160.3 Y104.928 E.00922
G1 X160.272 Y105.089 E.00933
G1 X153.63 Y125.531 E1.22454
G1 X153.601 Y125.691 E.00922
G1 X153.483 Y125.804 E.00933
G1 X136.094 Y138.438 E1.22454
G1 X135.977 Y138.55 E.00922
G1 X135.815 Y138.573 E.00933
G1 X114.321 Y138.573 E1.22454
G1 X114.16 Y138.595 E.00922
G1 X114.016 Y138.518 E.00933
G1 X96.626 Y125.884 E1.22454
G1 X96.484 Y125.807 E.00922
G1 X96.412 Y125.66 E.00933
G1 X89.775 Y105.233 E1.22364
G1 X89.635 Y105.164 F4200
; stop printing object OV-PAM_n_10_1F.stl id:0 copy 0
;LAYER_CHANGE
;Z:2
;HEIGHT:0.2
;BEFORE_LAYER_CHANGE
G92 E0.0
;2


M73 P9 R24
M73 Q9 S24
G1 E-1 F2400
G1 Z2 F720
;AFTER_LAYER_CHANGE
;2
; printing object OV-PAM_n_10_1F.stl id:0 copy 0
G1 X89.859 Y105.21 F4200
G1 E1 F1500
;WIDTH:0.68122
G1 F1174.996
G1 X89.821 Y105.141 E.00463
G1 X89.835 Y105.005 E.008
;WIDTH:0.620272
G1 F1200
G1 X89.85 Y104.911 E.00502
G1 X96.429 Y84.663 E1.12428
;WIDTH:0.681223
G1 F1174.992
G1 X96.456 Y84.436 E.01334
G1 X96.548 Y84.334 E.008
;WIDTH:0.620272
G1 F1200
G1 X96.615 Y84.267 E.00502
G1 X113.839 Y71.753 E1.12428
;WIDTH:0.681222
G1 F1174.992
G1 X113.995 Y71.586 E.01334
G1 X114.129 Y71.558 E.008
;WIDTH:0.62027
G1 F1200
G1 X114.223 Y71.542 E.00502
G1 X135.513 Y71.542 E1.12427
;WIDTH:0.681223
G1 F1174.991
G1 X135.737 Y71.499 E.01334
G1 X135.862 Y71.555 E.008
;WIDTH:0.620272
G1 F1200
G1 X135.947 Y71.598 E.00502
G1 X153.171 Y84.112 E1.12428
;WIDTH:0.681222
G1 F1174.993
G1 X153.378 Y84.208 E.01333
G1 X153.446 Y84.327 E.008
;WIDTH:0.62027
G1 F1200
G1 X153.49 Y84.411 E.00502
G1 X160.069 Y104.659 E1.12427
;WIDTH:0.707348
G1 F1128.791
G1 X160.179 Y104.859 E.01388
;WIDTH:0.68122
G1 F1174.996
G1 X160.165 Y104.995 E.008
;WIDTH:0.620272
G1 F1200
G1 X160.15 Y105.089 E.00502
G1 X153.571 Y125.337 E1.12428
;WIDTH:0.681223
G1 F1174.992
G1 X153.544 Y125.564 E.01334
G1 X153.452 Y125.666 E.008
;WIDTH:0.620272
G1 F1200
G1 X153.385 Y125.733 E.00502
G1 X136.161 Y138.247 E1.12428
;WIDTH:0.681222
G1 F1174.992
G1 X136.005 Y138.414 E.01334
G1 X135.871 Y138.442 E.008
;WIDTH:0.62027
G1 F1200
G1 X135.777 Y138.458 E.00502
G1 X114.487 Y138.458 E1.12427
;WIDTH:0.681223
G1 F1174.992
G1 X114.263 Y138.501 E.01334
G1 X114.138 Y138.445 E.008
;WIDTH:0.620272
G1 F1200
G1 X114.053 Y138.402 E.00502
G1 X96.829 Y125.888 E1.12428
;WIDTH:0.681222
G1 F1174.993
G1 X96.622 Y125.792 E.01333
G1 X96.554 Y125.673 E.008
;WIDTH:0.62027
G1 F1200
G1 X96.51 Y125.589 E.00502
G1 X89.931 Y105.341 E1.12427
;WIDTH:0.68122
G1 F1174.996
G1 X89.888 Y105.263 E.0052
; stop printing object OV-PAM_n_10_1F.stl id:0 copy 0
;LAYER_CHANGE
;Z:2.2
;HEIGHT:0.2
;BEFORE_LAYER_CHANGE
G92 E0.0
;2.2


G1 E-1 F2400
G1 Z2.2 F720
;AFTER_LAYER_CHANGE
;2.2
; printing object OV-PAM_n_10_1F.stl id:0 copy 0
G1 X89.951 Y105.233 F4200
G1 E1 F1500
;WIDTH:0.718331
G1 F1110.435
G1 X89.942 Y105.099 E.00831
;WIDTH:0.665328
G1 F1200
G1 X89.971 Y104.911 E.01082
G1 X96.487 Y84.857 E1.20039
G1 X96.494 Y84.761 E.00545
;WIDTH:0.718334
G1 F1110.431
G1 X96.509 Y84.57 E.01184
G1 X96.58 Y84.473 E.00742
;WIDTH:0.665326
G1 F1200
G1 X96.713 Y84.338 E.01082
G1 X113.772 Y71.944 E1.20039
G1 X113.834 Y71.871 E.00545
;WIDTH:0.718332
G1 F1110.434
G1 X113.958 Y71.725 E.01184
G1 X114.073 Y71.688 E.00742
;WIDTH:0.665326
G1 F1200
G1 X114.26 Y71.658 E.01082
G1 X135.346 Y71.658 E1.20039
G1 X135.439 Y71.635 E.00545
;WIDTH:0.718331
G1 F1110.436
G1 X135.626 Y71.59 E.01184
G1 X135.74 Y71.627 E.00742
;WIDTH:0.665329
G1 F1200
G1 X135.909 Y71.713 E.01082
G1 X152.968 Y84.107 E1.20039
G1 X153.057 Y84.143 E.00545
;WIDTH:0.718334
M73 P10 R24
M73 Q10 S24
G1 F1110.431
G1 X153.234 Y84.216 E.01184
G1 X153.305 Y84.314 E.00742
;WIDTH:0.665327
G1 F1200
G1 X153.391 Y84.483 E.01082
G1 X159.907 Y104.536 E1.20039
G1 X159.958 Y104.618 E.00545
;WIDTH:0.755442
G1 F1052.6
G1 X160.058 Y104.781 E.01249
;WIDTH:0.718331
G1 F1110.435
G1 X160.058 Y104.901 E.00742
;WIDTH:0.665328
G1 F1200
G1 X160.029 Y105.089 E.01082
G1 X153.513 Y125.143 E1.20039
G1 X153.506 Y125.239 E.00545
;WIDTH:0.718334
G1 F1110.431
G1 X153.491 Y125.43 E.01184
G1 X153.42 Y125.527 E.00742
;WIDTH:0.665326
G1 F1200
G1 X153.287 Y125.662 E.01082
G1 X136.228 Y138.056 E1.20039
G1 X136.166 Y138.129 E.00545
;WIDTH:0.718332
G1 F1110.434
G1 X136.042 Y138.275 E.01184
G1 X135.927 Y138.312 E.00742
;WIDTH:0.665326
G1 F1200
G1 X135.74 Y138.342 E.01082
G1 X114.654 Y138.342 E1.20039
G1 X114.561 Y138.365 E.00545
;WIDTH:0.718331
G1 F1110.436
G1 X114.374 Y138.41 E.01184
G1 X114.26 Y138.373 E.00742
;WIDTH:0.665329
G1 F1200
G1 X114.091 Y138.287 E.01082
G1 X97.032 Y125.893 E1.20039
G1 X96.943 Y125.857 E.00545
;WIDTH:0.718334
G1 F1110.431
G1 X96.766 Y125.784 E.01184
G1 X96.695 Y125.686 E.00742
;WIDTH:0.665327
G1 F1200
G1 X96.609 Y125.517 E.01082
G1 X90.093 Y105.464 E1.20039
G1 X90.042 Y105.382 E.00545
;WIDTH:0.718331
G1 F1110.435
