; generated by PrusaSlicer 2.5.2+win64 on 2023-10-26 at 06:02:37 UTC


;
;
; 

; external perimeters extrusion width = 0.50mm
; perimeters extrusion width = 0.50mm
; infill extrusion width = 0.50mm
; solid infill extrusion width = 0.50mm
; top infill extrusion width = 0.50mm
; first layer extrusion width = 0.50mm

M73 P0 R27
M73 Q0 S27
M201 X1000 Y1000 Z200 E5000 ; sets maximum accelerations, mm/sec^2
M203 X200 Y200 Z12 E120 ; sets maximum feedrates, mm / sec
M204 P1250 R1250 T1250 ; sets acceleration (P, T) and retract acceleration (R), mm/sec^2
M205 X8.00 Y8.00 Z0.40 E4.50 ; sets the jerk limits, mm/sec
M205 S0 T0 ; sets the minimum extruding and travel feed rate, mm/sec
M107
;TYPE:Custom
M862.3 P "MK3S" ; printer model check
M862.1 P0.4 ; nozzle diameter check
M115 U3.12.2 ; tell printer latest fw version
G90 ; use absolute coordinates
M83 ; extruder relative mode
M104 S240 ; set extruder temp
M140 S60 ; set bed temp
M190 S60 ; wait for bed temp
M109 S240 ; wait for extruder temp
G28 W ; home all without mesh bed level
G80 ; mesh bed leveling

G1 Z0.2 F720
G1 Y-3 F1000 ; go outside print area
G92 E0
G1 X60 E9 F1000 ; intro line
G1 X100 E12.5 F1000 ; intro line

G92 E0
M221 S95

; Don't change E values below. Excessive value can damage the printer.
M907 E430 ; set extruder motor current
G21 ; set units to millimeters
G90 ; use absolute coordinates
M83 ; use relative distances for extrusion
M900 K0 ; Filament gcode
M107
;LAYER_CHANGE
;Z:0.2
;HEIGHT:0.2
;BEFORE_LAYER_CHANGE
G92 E0.0
;0.2


G1 E-1 F2400
G1 Z.2 F720
;AFTER_LAYER_CHANGE
;0.2
G1 X92.715 Y82.617 F4200
G1 E1 F1500
M204 S300
;TYPE:Skirt/Brim
;WIDTH:0.5
G1 F1200
G1 X102.617 Y72.715 E.58543
G1 X103.738 Y71.966 E.05639
G1 X116.675 Y66.607 E.58543
G1 X117.998 Y66.344 E.05639
G1 X132.002 Y66.344 E.58543
G1 X133.325 Y66.607 E.05639
G1 X146.262 Y71.966 E.58543
G1 X147.383 Y72.715 E.05639
G1 X157.285 Y82.617 E.58543
G1 X158.034 Y83.738 E.05639
G1 X163.393 Y96.675 E.58543
G1 X163.656 Y97.998 E.05639
G1 X163.656 Y112.002 E.58543
G1 X163.393 Y113.325 E.05639
G1 X158.034 Y126.262 E.58543
G1 X157.285 Y127.383 E.05639
G1 X147.383 Y137.285 E.58543
G1 X146.262 Y138.034 E.05639
G1 X133.325 Y143.393 E.58543
G1 X132.002 Y143.656 E.05639
G1 X117.998 Y143.656 E.58543
G1 X116.675 Y143.393 E.05639
G1 X103.738 Y138.034 E.58543
G1 X102.617 Y137.285 E.05639
M73 P1 R27
M73 Q1 S27
G1 X92.715 Y127.383 E.58543
G1 X91.966 Y126.262 E.05639
G1 X86.607 Y113.325 E.58543
G1 X86.344 Y112.002 E.05639
G1 X86.344 Y97.998 E.58543
G1 X86.607 Y96.675 E.05639
G1 X91.966 Y83.738 E.58543
G1 X92.682 Y82.667 E.05388
; printing object OV-PAM_n_16_1F.stl id:0 copy 0
G1 E-1 F2400
G1 X118.127 Y70.051 F4200
G1 E1 F1500
;TYPE:External perimeter
;WIDTH:0.547767
G1 F1200
G1 X131.951 Y70.053 E.63837
G1 X144.796 Y75.374 E.64197
G1 X154.626 Y85.204 E.64197
G1 X159.947 Y98.049 E.64197
G1 X159.947 Y111.951 E.64197
G1 X154.626 Y124.796 E.64197
G1 X144.796 Y134.626 E.64197
G1 X131.951 Y139.947 E.64197
G1 X118.049 Y139.947 E.64197
G1 X105.204 Y134.626 E.64197
G1 X95.374 Y124.796 E.64197
G1 X90.053 Y111.951 E.64197
M73 P1 R26
M73 Q1 S26
G1 X90.053 Y98.049 E.64197
G1 X95.374 Y85.204 E.64197
G1 X105.204 Y75.374 E.64197
G1 X118.067 Y70.052 E.64275
G1 X118.255 Y69.672 F4200
; stop printing object OV-PAM_n_16_1F.stl id:0 copy 0
;LAYER_CHANGE
;Z:0.4
;HEIGHT:0.2
;BEFORE_LAYER_CHANGE
G92 E0.0
;0.4


G1 E-1 F2400
G1 Z.4 F720
;AFTER_LAYER_CHANGE
;0.4
G1 X117.354 Y66.472 F4200
G1 E1 F1500
;TYPE:Skirt/Brim
;WIDTH:0.5
G1 F1200
G1 X117.998 Y66.344 E.02745
G1 X132.002 Y66.344 E.58543
G1 X133.325 Y66.607 E.05639
G1 X146.262 Y71.966 E.58543
M73 P2 R26
M73 Q2 S26
G1 X147.383 Y72.715 E.05639
G1 X157.285 Y82.617 E.58543
G1 X158.034 Y83.738 E.05639
G1 X163.393 Y96.675 E.58543
G1 X163.656 Y97.998 E.05639
G1 X163.656 Y112.002 E.58543
G1 X163.393 Y113.325 E.05639
G1 X158.034 Y126.262 E.58543
G1 X157.285 Y127.383 E.05639
G1 X147.383 Y137.285 E.58543
G1 X146.262 Y138.034 E.05639
G1 X133.325 Y143.393 E.58543
G1 X132.002 Y143.656 E.05639
G1 X117.998 Y143.656 E.58543
G1 X116.675 Y143.393 E.05639
G1 X103.738 Y138.034 E.58543
G1 X102.617 Y137.285 E.05639
G1 X92.715 Y127.383 E.58543
G1 X91.966 Y126.262 E.05639
G1 X86.607 Y113.325 E.58543
G1 X86.344 Y112.002 E.05639
G1 X86.344 Y97.998 E.58543
G1 X86.607 Y96.675 E.05639
G1 X91.966 Y83.738 E.58543
G1 X92.715 Y82.617 E.05639
G1 X102.617 Y72.715 E.58543
G1 X103.738 Y71.966 E.05639
G1 X116.675 Y66.607 E.58543
G1 X117.296 Y66.484 E.02643
; printing object OV-PAM_n_16_1F.stl id:0 copy 0
G1 E-1 F2400
G1 X118.061 Y69.884 F4200
G1 X118.097 Y69.883
G1 X118.099 Y70.051
G1 E1 F1500
;TYPE:External perimeter
;WIDTH:0.547767
G1 F1200
G1 X131.951 Y70.053 E.63964
G1 X144.796 Y75.374 E.64197
G1 X154.626 Y85.204 E.64197
G1 X159.947 Y98.049 E.64197
G1 X159.947 Y111.951 E.64197
G1 X154.626 Y124.796 E.64197
G1 X144.796 Y134.626 E.64197
G1 X131.951 Y139.947 E.64197
M73 P3 R26
M73 Q3 S26
G1 X118.049 Y139.947 E.64197
G1 X105.204 Y134.626 E.64197
G1 X95.374 Y124.796 E.64197
G1 X90.053 Y111.951 E.64197
G1 X90.053 Y98.049 E.64197
G1 X95.374 Y85.204 E.64197
G1 X105.204 Y75.374 E.64197
G1 X118.04 Y70.056 E.64153
G1 X118.228 Y69.672 F4200
; stop printing object OV-PAM_n_16_1F.stl id:0 copy 0
;LAYER_CHANGE
;Z:0.6
;HEIGHT:0.2
;BEFORE_LAYER_CHANGE
G92 E0.0
;0.6


G1 E-1 F2400
G1 Z.6 F720
;AFTER_LAYER_CHANGE
;0.6
G1 X117.328 Y66.477 F4200
G1 E1 F1500
;TYPE:Skirt/Brim
;WIDTH:0.5
G1 F1200
G1 X117.998 Y66.344 E.02859
G1 X132.002 Y66.344 E.58543
G1 X133.325 Y66.607 E.05639
G1 X146.262 Y71.966 E.58543
G1 X147.383 Y72.715 E.05639
G1 X157.285 Y82.617 E.58543
G1 X158.034 Y83.738 E.05639
G1 X163.393 Y96.675 E.58543
G1 X163.656 Y97.998 E.05639
G1 X163.656 Y112.002 E.58543
G1 X163.393 Y113.325 E.05639
G1 X158.034 Y126.262 E.58543
G1 X157.285 Y127.383 E.05639
G1 X147.383 Y137.285 E.58543
G1 X146.262 Y138.034 E.05639
G1 X133.325 Y143.393 E.58543
G1 X132.002 Y143.656 E.05639
G1 X117.998 Y143.656 E.58543
G1 X116.675 Y143.393 E.05639
G1 X103.738 Y138.034 E.58543
G1 X102.617 Y137.285 E.05639
G1 X92.715 Y127.383 E.58543
G1 X91.966 Y126.262 E.05639
G1 X86.607 Y113.325 E.58543
G1 X86.344 Y112.002 E.05639
G1 X86.344 Y97.998 E.58543
G1 X86.607 Y96.675 E.05639
M73 P4 R26
M73 Q4 S26
G1 X91.966 Y83.738 E.58543
G1 X92.715 Y82.617 E.05639
G1 X102.617 Y72.715 E.58543
G1 X103.738 Y71.966 E.05639
G1 X116.675 Y66.607 E.58543
G1 X117.269 Y66.489 E.0253
; printing object OV-PAM_n_16_1F.stl id:0 copy 0
G1 E-1 F2400
G1 X118.03 Y69.884 F4200
G1 X118.066 Y69.883
G1 X118.068 Y70.052
G1 E1 F1500
;TYPE:External perimeter
;WIDTH:0.547767
G1 F1200
G1 X131.951 Y70.053 E.64106
G1 X144.796 Y75.374 E.64197
G1 X154.626 Y85.204 E.64197
G1 X159.947 Y98.049 E.64197
G1 X159.947 Y111.951 E.64197
G1 X154.626 Y124.796 E.64197
G1 X144.796 Y134.626 E.64197
G1 X131.951 Y139.947 E.64197
G1 X118.049 Y139.947 E.64197
G1 X105.204 Y134.626 E.64197
G1 X95.374 Y124.796 E.64197
G1 X90.053 Y111.951 E.64197
G1 X90.053 Y98.049 E.64197
G1 X95.374 Y85.204 E.64197
G1 X105.204 Y75.374 E.64197
G1 X118.011 Y70.067 E.64011
G1 X118.197 Y69.674 F4200
; stop printing object OV-PAM_n_16_1F.stl id:0 copy 0
;LAYER_CHANGE
;Z:0.8
;HEIGHT:0.2
;BEFORE_LAYER_CHANGE
G92 E0.0
;0.8


G1 E-1 F2400
G1 Z.8 F720
;AFTER_LAYER_CHANGE
;0.8
; printing object OV-PAM_n_16_1F.stl id:0 copy 0
G1 X118.015 Y70.065 F4200
G1 E1 F1500
G1 F1200
G1 X118.098 Y70.051 E.00389
G1 X131.951 Y70.053 E.6397
G1 X144.796 Y75.374 E.64197
G1 X154.626 Y85.204 E.64197
G1 X159.947 Y98.049 E.64197
M73 P5 R26
M73 Q5 S26
G1 X159.947 Y111.951 E.64197
G1 X154.626 Y124.796 E.64197
G1 X144.796 Y134.626 E.64197
G1 X131.951 Y139.947 E.64197
G1 X118.049 Y139.947 E.64197
G1 X105.204 Y134.626 E.64197
G1 X95.374 Y124.796 E.64197
G1 X90.053 Y111.951 E.64197
G1 X90.053 Y98.049 E.64197
M73 P5 R25
M73 Q5 S25
G1 X95.374 Y85.204 E.64197
G1 X105.204 Y75.374 E.64197
G1 X117.959 Y70.088 E.63755
G1 X118.033 Y69.983 F4200
; stop printing object OV-PAM_n_16_1F.stl id:0 copy 0
;LAYER_CHANGE
;Z:1
;HEIGHT:0.2
;BEFORE_LAYER_CHANGE
G92 E0.0
;1


G1 E-1 F2400
G1 Z1 F720
;AFTER_LAYER_CHANGE
;1
; printing object OV-PAM_n_16_1F.stl id:0 copy 0
G1 X117.955 Y70.09 F4200
G1 E1 F1500
G1 F1200
G1 X118.098 Y70.051 E.00685
G1 X131.951 Y70.053 E.6397
G1 X144.796 Y75.374 E.64197
G1 X154.626 Y85.204 E.64197
G1 X159.947 Y98.049 E.64197
G1 X159.947 Y111.951 E.64197
G1 X154.626 Y124.796 E.64197
G1 X144.796 Y134.626 E.64197
G1 X131.951 Y139.947 E.64197
G1 X118.049 Y139.947 E.64197
G1 X105.204 Y134.626 E.64197
G1 X95.374 Y124.796 E.64197
G1 X90.053 Y111.951 E.64197
M73 P6 R25
M73 Q6 S25
G1 X90.053 Y98.049 E.64197
G1 X95.374 Y85.204 E.64197
G1 X105.204 Y75.374 E.64197
G1 X117.899 Y70.113 E.63455
G1 X117.977 Y69.943 F4200
; stop printing object OV-PAM_n_16_1F.stl id:0 copy 0
;LAYER_CHANGE
;Z:1.2
;HEIGHT:0.2
;BEFORE_LAYER_CHANGE
G92 E0.0
;1.2


G1 E-1 F2400
G1 Z1.2 F720
;AFTER_LAYER_CHANGE
;1.2
; printing object OV-PAM_n_16_1F.stl id:0 copy 0
G1 X117.896 Y70.125 F4200
G1 E1 F1500
;WIDTH:0.567573
G1 F1200
G1 X118.051 Y70.063 E.00799
G1 X118.102 Y70.061 E.00246
G1 X131.949 Y70.063 E.66451
G1 X144.79 Y75.382 E.66697
G1 X154.618 Y85.21 E.66697
G1 X159.937 Y98.051 E.66697
G1 X159.937 Y111.949 E.66697
G1 X154.618 Y124.79 E.66697
G1 X144.79 Y134.618 E.66697
G1 X131.949 Y139.937 E.66697
G1 X118.051 Y139.937 E.66697
G1 X105.21 Y134.618 E.66697
G1 X95.382 Y124.79 E.66697
G1 X90.063 Y111.949 E.66697
G1 X90.063 Y98.051 E.66697
G1 X95.382 Y85.21 E.66697
G1 X105.21 Y75.382 E.66697
G1 X117.84 Y70.147 E.6561
G1 X117.908 Y69.959 F4200
; stop printing object OV-PAM_n_16_1F.stl id:0 copy 0
;LAYER_CHANGE
;Z:1.4
;HEIGHT:0.2
;BEFORE_LAYER_CHANGE
G92 E0.0
;1.4


G1 E-1 F2400
G1 Z1.4 F720
;AFTER_LAYER_CHANGE
;1.4
; printing object OV-PAM_n_16_1F.stl id:0 copy 0
G1 X117.86 Y70.233 F4200
G1 E1 F1500
;WIDTH:0.625867
G1 F1200
G1 X118.068 Y70.15 E.01193
G1 X118.125 Y70.147 E.00304
G1 X131.932 Y70.15 E.7362
G1 X144.741 Y75.456 E.73923
G1 X154.544 Y85.259 E.73923
M73 P7 R25
M73 Q7 S25
G1 X159.85 Y98.068 E.73923
G1 X159.85 Y111.932 E.73923
G1 X154.544 Y124.741 E.73923
G1 X144.741 Y134.544 E.73923
G1 X131.932 Y139.85 E.73923
G1 X118.068 Y139.85 E.73923
G1 X105.259 Y134.544 E.73923
G1 X95.456 Y124.741 E.73923
G1 X90.15 Y111.932 E.73923
G1 X90.15 Y98.068 E.73923
G1 X95.456 Y85.259 E.73923
G1 X105.259 Y75.456 E.73923
G1 X117.805 Y70.256 E.7241
G1 X117.877 Y70.01 F4200
; stop printing object OV-PAM_n_16_1F.stl id:0 copy 0
;LAYER_CHANGE
;Z:1.6
;HEIGHT:0.2
;BEFORE_LAYER_CHANGE
G92 E0.0
;1.6


G1 E-1 F2400
G1 Z1.6 F720
;AFTER_LAYER_CHANGE
;1.6
; printing object OV-PAM_n_16_1F.stl id:0 copy 0
G1 X117.824 Y70.373 F4200
G1 E1 F1500
;WIDTH:0.64042
G1 F1200
G1 X118.04 Y70.273 E.01301
G1 X118.148 Y70.263 E.00592
G1 X131.859 Y70.253 E.74934
G1 X144.634 Y75.523 E.75523
G1 X154.42 Y85.28 E.75523
G1 X159.727 Y98.04 E.75523
G1 X159.747 Y111.859 E.75523
G1 X154.477 Y124.634 E.75523
G1 X144.72 Y134.42 E.75523
G1 X131.96 Y139.727 E.75523
G1 X118.141 Y139.747 E.75523
G1 X105.366 Y134.477 E.75523
M73 P8 R25
M73 Q8 S25
G1 X95.58 Y124.72 E.75523
G1 X90.273 Y111.96 E.75523
G1 X90.253 Y98.141 E.75523
G1 X95.523 Y85.366 E.75523
G1 X105.28 Y75.58 E.75523
G1 X117.768 Y70.396 E.73895
G1 X118.026 Y70.5 F4200
; stop printing object OV-PAM_n_16_1F.stl id:0 copy 0
;LAYER_CHANGE
;Z:1.8
;HEIGHT:0.2
;BEFORE_LAYER_CHANGE
G92 E0.0
;1.8


G1 E-1 F2400
G1 Z1.8 F720
;AFTER_LAYER_CHANGE
;1.8
; printing object OV-PAM_n_16_1F.stl id:0 copy 0
G1 X117.78 Y70.516 F4200
G1 E1 F1500
;WIDTH:0.620272
G1 F1200
G1 X117.909 Y70.449 E.0077
;WIDTH:0.671752
G1 F1192.689
G1 X117.984 Y70.404 E.00501
G1 X118.171 Y70.378 E.01085
;WIDTH:0.620266
G1 F1200
G1 X131.585 Y70.378 E.70836
G1 X131.671 Y70.365 E.0046
;WIDTH:0.67175
G1 F1192.691
G1 X131.757 Y70.352 E.00501
G1 X131.935 Y70.398 E.01054
;WIDTH:0.620318
G1 F1200
G1 X144.333 Y75.534 E.70872
G1 X144.417 Y75.555 E.0046
;WIDTH:0.671756
G1 F1192.681
G1 X144.502 Y75.576 E.00501
G1 X144.652 Y75.69 E.01085
;WIDTH:0.620273
G1 F1200
G1 X154.138 Y85.175 E.70837
G1 X154.208 Y85.227 E.0046
;WIDTH:0.671755
G1 F1192.683
G1 X154.278 Y85.279 E.00501
G1 X154.373 Y85.441 E.01085
;WIDTH:0.620272
G1 F1200
G1 X159.506 Y97.834 E.70837
G1 X159.551 Y97.909 E.0046
;WIDTH:0.671752
G1 F1192.689
G1 X159.596 Y97.984 E.00501
G1 X159.622 Y98.171 E.01085
;WIDTH:0.620266
G1 F1200
G1 X159.622 Y111.585 E.70836
G1 X159.635 Y111.671 E.0046
;WIDTH:0.67175
G1 F1192.691
G1 X159.648 Y111.757 E.00501
;WIDTH:0.671751
G1 X159.6 Y111.94 E.01085
;WIDTH:0.62027
G1 F1200
G1 X154.466 Y124.333 E.70837
G1 X154.445 Y124.417 E.0046
;WIDTH:0.671756
G1 F1192.681
G1 X154.424 Y124.502 E.00501
G1 X154.31 Y124.652 E.01085
;WIDTH:0.620273
G1 F1200
G1 X144.825 Y134.138 E.70837
G1 X144.773 Y134.208 E.0046
;WIDTH:0.671755
G1 F1192.683
G1 X144.721 Y134.278 E.00501
G1 X144.559 Y134.373 E.01085
;WIDTH:0.620272
G1 F1200
G1 X132.166 Y139.506 E.70837
G1 X132.091 Y139.551 E.0046
;WIDTH:0.671752
G1 F1192.689
G1 X132.016 Y139.596 E.00501
G1 X131.829 Y139.622 E.01085
;WIDTH:0.620266
G1 F1200
G1 X118.415 Y139.622 E.70836
G1 X118.329 Y139.635 E.0046
;WIDTH:0.67175
G1 F1192.691
G1 X118.243 Y139.648 E.00501
G1 X118.06 Y139.6 E.01085
;WIDTH:0.62027
G1 F1200
G1 X105.667 Y134.466 E.70837
G1 X105.583 Y134.445 E.0046
;WIDTH:0.671756
G1 F1192.681
G1 X105.498 Y134.424 E.00501
G1 X105.348 Y134.31 E.01085
;WIDTH:0.620273
G1 F1200
G1 X95.862 Y124.825 E.70837
G1 X95.792 Y124.773 E.0046
;WIDTH:0.671755
G1 F1192.683
G1 X95.722 Y124.721 E.00501
G1 X95.627 Y124.559 E.01085
;WIDTH:0.620272
G1 F1200
G1 X90.494 Y112.166 E.70837
G1 X90.449 Y112.091 E.0046
;WIDTH:0.671752
G1 F1192.689
G1 X90.404 Y112.016 E.00501
G1 X90.378 Y111.829 E.01085
;WIDTH:0.620266
G1 F1200
G1 X90.378 Y98.415 E.70836
G1 X90.365 Y98.329 E.0046
;WIDTH:0.67175
G1 F1192.691
G1 X90.352 Y98.243 E.00501
G1 X90.4 Y98.06 E.01085
;WIDTH:0.62027
G1 F1200
G1 X95.534 Y85.667 E.70837
G1 X95.555 Y85.583 E.0046
;WIDTH:0.671756
G1 F1192.681
G1 X95.576 Y85.498 E.00501
G1 X95.69 Y85.348 E.01085
;WIDTH:0.620273
G1 F1200
G1 X105.175 Y75.862 E.70837
G1 X105.227 Y75.792 E.0046
;WIDTH:0.671755
G1 F1192.683
G1 X105.279 Y75.722 E.00501
G1 X105.441 Y75.627 E.01085
;WIDTH:0.620272
G1 F1200
G1 X117.724 Y70.539 E.70208
; stop printing object OV-PAM_n_16_1F.stl id:0 copy 0
;LAYER_CHANGE
;Z:2
;HEIGHT:0.2
;BEFORE_LAYER_CHANGE
G92 E0.0
;2


G1 E-1 F2400
G1 Z2 F720
;AFTER_LAYER_CHANGE
;2
; printing object OV-PAM_n_16_1F.stl id:0 copy 0
G1 X117.703 Y70.488 F4200
G1 X105.101 Y75.858
G1 X95.287 Y86.116
M73 P9 R24
M73 Q9 S24
G1 X90.322 Y98.464
G1 X90.637 Y112.658
G1 X95.858 Y124.899
G1 X106.116 Y134.713
G1 X118.464 Y139.678
G1 X131.634 Y139.678
G1 X131.934 Y139.654
G1 X131.921 Y139.495
G1 E1 F1500
;WIDTH:0.659653
G1 F1200
G1 X118.582 Y139.506 E.75247
G1 X118.357 Y139.55 E.01293
G1 X118.083 Y139.484 E.01587
G1 X105.865 Y134.424 E.74599
G1 X105.641 Y134.378 E.01293
G1 X105.634 Y134.489 E.00629
;WIDTH:0.562987
G1 X105.628 Y134.601 E.00531
;WIDTH:0.466321
G1 X105.622 Y134.712 E.00432
;WIDTH:0.369655
G1 X105.616 Y134.823 E.00333
G1 X105.502 Y134.286 F4200
;WIDTH:0.643115
G1 F1200
G1 X96.062 Y124.861 E.73229
G1 X95.967 Y124.797 E.00629
;WIDTH:0.707984
G1 F1127.712
G1 X95.872 Y124.733 E.00697
G1 X95.823 Y124.834 E.00679
;WIDTH:0.611318
G1 F1200
G1 X95.775 Y124.934 E.0058
;WIDTH:0.514652
G1 X95.727 Y125.035 E.00481
;WIDTH:0.417985
G1 X95.678 Y125.135 E.00383
G1 X95.779 Y124.595 F4200
;WIDTH:0.643115
G1 F1200
G1 X90.664 Y112.275 E.73229
G1 X90.601 Y112.18 E.00629
;WIDTH:0.70798
G1 F1127.718
G1 X90.538 Y112.084 E.00697
G1 X90.454 Y112.159 E.00679
;WIDTH:0.611317
G1 F1200
G1 X90.371 Y112.233 E.0058
;WIDTH:0.514651
G1 X90.288 Y112.307 E.00481
;WIDTH:0.417986
G1 X90.205 Y112.382 E.00383
G1 X90.505 Y111.921 F4200
;WIDTH:0.659653
G1 F1200
G1 X90.494 Y98.582 E.75247
G1 X90.45 Y98.357 E.01293
G1 X90.516 Y98.083 E.01587
G1 X95.576 Y85.865 E.74599
G1 X95.622 Y85.641 E.01293
G1 X95.511 Y85.634 E.00629
;WIDTH:0.562987
G1 X95.399 Y85.628 E.00531
;WIDTH:0.466321
G1 X95.288 Y85.622 E.00432
;WIDTH:0.369655
G1 X95.177 Y85.616 E.00333
G1 X95.714 Y85.502 F4200
;WIDTH:0.659652
G1 F1200
G1 X105.139 Y76.062 E.75247
G1 X105.267 Y75.872 E.01293
G1 X105.166 Y75.823 E.00629
;WIDTH:0.562985
G1 X105.066 Y75.775 E.00531
