; generated by PrusaSlicer 2.5.2+win64 on 2023-10-26 at 06:02:24 UTC


;
;
; 

; external perimeters extrusion width = 0.50mm
; perimeters extrusion width = 0.50mm
; infill extrusion width = 0.50mm
; solid infill extrusion width = 0.50mm
; top infill extrusion width = 0.50mm
; first layer extrusion width = 0.50mm

M73 P0 R27
M73 Q0 S27
M201 X1000 Y1000 Z200 E5000 ; sets maximum accelerations, mm/sec^2
M203 X200 Y200 Z12 E120 ; sets maximum feedrates, mm / sec
M204 P1250 R1250 T1250 ; sets acceleration (P, T) and retract acceleration (R), mm/sec^2
M205 X8.00 Y8.00 Z0.40 E4.50 ; sets the jerk limits, mm/sec
M205 S0 T0 ; sets the minimum extruding and travel feed rate, mm/sec
M107
;TYPE:Custom
M862.3 P "MK3S" ; printer model check
M862.1 P0.4 ; nozzle diameter check
M115 U3.12.2 ; tell printer latest fw version
G90 ; use absolute coordinates
M83 ; extruder relative mode
M104 S240 ; set extruder temp
M140 S60 ; set bed temp
M190 S60 ; wait for bed temp
M109 S240 ; wait for extruder temp
G28 W ; home all without mesh bed level
G80 ; mesh bed leveling

G1 Z0.2 F720
G1 Y-3 F1000 ; go outside print area
G92 E0
G1 X60 E9 F1000 ; intro line
G1 X100 E12.5 F1000 ; intro line

G92 E0
M221 S95

; Don't change E values below. Excessive value can damage the printer.
M907 E430 ; set extruder motor current
G21 ; set units to millimeters
G90 ; use absolute coordinates
M83 ; use relative distances for extrusion
M900 K0 ; Filament gcode
M107
;LAYER_CHANGE
;Z:0.2
;HEIGHT:0.2
;BEFORE_LAYER_CHANGE
G92 E0.0
;0.2


G1 E-1 F2400
M73 P0 R26
M73 Q0 S26
G1 Z.2 F720
;AFTER_LAYER_CHANGE
;0.2
G1 X96.622 Y77.888 F4200
G1 E1 F1500
M204 S300
;TYPE:Skirt/Brim
;WIDTH:0.5
G1 F1200
G1 X97.888 Y76.622 E.07481
G1 X113.98 Y67.331 E.77687
G1 X115.709 Y66.868 E.07481
G1 X134.291 Y66.868 E.77687
G1 X136.02 Y67.331 E.07481
G1 X152.112 Y76.622 E.77687
G1 X153.378 Y77.888 E.07481
G1 X162.669 Y93.98 E.77687
G1 X163.132 Y95.709 E.07481
G1 X163.132 Y114.291 E.77687
G1 X162.669 Y116.02 E.07481
G1 X153.378 Y132.112 E.77687
G1 X152.112 Y133.378 E.07481
G1 X136.02 Y142.669 E.77687
G1 X134.291 Y143.132 E.07481
G1 X115.709 Y143.132 E.77687
G1 X113.98 Y142.669 E.07481
G1 X97.888 Y133.378 E.77687
G1 X96.622 Y132.112 E.07481
M73 P1 R26
M73 Q1 S26
G1 X87.331 Y116.02 E.77687
G1 X86.868 Y114.291 E.07481
G1 X86.868 Y95.709 E.77687
G1 X87.331 Y93.98 E.07481
G1 X96.592 Y77.94 E.77436
; printing object OV-PAM_n_12_1F.stl id:0 copy 0
G1 E-1 F2400
G1 X150.17 Y130.216 F4200
G1 E1 F1500
;TYPE:External perimeter
;WIDTH:0.551587
G1 F1200
G1 X134.223 Y139.421 E.85668
G1 X115.843 Y139.425 E.85514
G1 X115.777 Y139.421 E.00307
G1 X115.718 Y139.391 E.00307
G1 X99.802 Y130.198 E.85514
G1 X90.609 Y114.282 E.85514
G1 X90.579 Y114.223 E.00307
G1 X90.575 Y114.157 E.00307
G1 X90.579 Y95.777 E.85514
G1 X99.802 Y79.802 E.85821
G1 X115.718 Y70.609 E.85514
G1 X115.777 Y70.579 E.00307
G1 X115.843 Y70.575 E.00307
G1 X134.223 Y70.579 E.85514
G1 X150.198 Y79.802 E.85821
G1 X159.391 Y95.718 E.85514
G1 X159.421 Y95.777 E.00307
G1 X159.425 Y95.843 E.00307
G1 X159.421 Y114.223 E.85514
G1 X150.213 Y130.175 E.85695
G1 X150.274 Y130.602 F4200
; stop printing object OV-PAM_n_12_1F.stl id:0 copy 0
;LAYER_CHANGE
;Z:0.4
;HEIGHT:0.2
;BEFORE_LAYER_CHANGE
G92 E0.0
;0.4


G1 E-1 F2400
G1 Z.4 F720
;AFTER_LAYER_CHANGE
;0.4
G1 X152.764 Y132.726 F4200
G1 E1 F1500
;TYPE:Skirt/Brim
;WIDTH:0.5
M73 P2 R26
M73 Q2 S26
G1 F1200
G1 X152.112 Y133.378 E.03852
G1 X136.02 Y142.669 E.77687
G1 X134.291 Y143.132 E.07481
G1 X115.709 Y143.132 E.77687
G1 X113.98 Y142.669 E.07481
G1 X97.888 Y133.378 E.77687
G1 X96.622 Y132.112 E.07481
G1 X87.331 Y116.02 E.77687
G1 X86.868 Y114.291 E.07481
G1 X86.868 Y95.709 E.77687
G1 X87.331 Y93.98 E.07481
G1 X96.622 Y77.888 E.77687
G1 X97.888 Y76.622 E.07481
G1 X113.98 Y67.331 E.77687
G1 X115.709 Y66.868 E.07481
G1 X134.291 Y66.868 E.77687
G1 X136.02 Y67.331 E.07481
G1 X152.112 Y76.622 E.77687
G1 X153.378 Y77.888 E.07481
G1 X162.669 Y93.98 E.77687
G1 X163.132 Y95.709 E.07481
G1 X163.132 Y114.291 E.77687
G1 X162.669 Y116.02 E.07481
G1 X153.378 Y132.112 E.77687
G1 X152.806 Y132.684 E.03379
; printing object OV-PAM_n_12_1F.stl id:0 copy 0
G1 E-1 F2400
G1 X150.272 Y130.35 F4200
G1 X150.184 Y130.207
G1 E1 F1500
;TYPE:External perimeter
;WIDTH:0.551587
G1 F1200
G1 X134.223 Y139.421 E.85746
G1 X115.843 Y139.425 E.85514
G1 X115.777 Y139.421 E.00307
G1 X115.718 Y139.391 E.00307
G1 X99.802 Y130.198 E.85514
G1 X90.609 Y114.282 E.85514
G1 X90.579 Y114.223 E.00307
M73 P3 R26
M73 Q3 S26
G1 X90.575 Y114.157 E.00307
G1 X90.579 Y95.777 E.85514
G1 X99.802 Y79.802 E.85821
G1 X115.718 Y70.609 E.85514
G1 X115.777 Y70.579 E.00307
G1 X115.843 Y70.575 E.00307
G1 X134.223 Y70.579 E.85514
G1 X150.198 Y79.802 E.85821
G1 X159.391 Y95.718 E.85514
G1 X159.421 Y95.777 E.00307
G1 X159.425 Y95.843 E.00307
G1 X159.421 Y114.223 E.85514
G1 X150.222 Y130.161 E.85617
G1 X150.288 Y130.593 F4200
; stop printing object OV-PAM_n_12_1F.stl id:0 copy 0
;LAYER_CHANGE
;Z:0.6
;HEIGHT:0.2
;BEFORE_LAYER_CHANGE
G92 E0.0
;0.6


G1 E-1 F2400
G1 Z.6 F720
;AFTER_LAYER_CHANGE
;0.6
G1 X152.776 Y132.715 F4200
G1 E1 F1500
;TYPE:Skirt/Brim
;WIDTH:0.5
G1 F1200
G1 X152.112 Y133.378 E.03921
G1 X136.02 Y142.669 E.77687
G1 X134.291 Y143.132 E.07481
G1 X115.709 Y143.132 E.77687
G1 X113.98 Y142.669 E.07481
G1 X97.888 Y133.378 E.77687
G1 X96.622 Y132.112 E.07481
G1 X87.331 Y116.02 E.77687
G1 X86.868 Y114.291 E.07481
G1 X86.868 Y95.709 E.77687
G1 X87.331 Y93.98 E.07481
G1 X96.622 Y77.888 E.77687
G1 X97.888 Y76.622 E.07481
G1 X113.98 Y67.331 E.77687
G1 X115.709 Y66.868 E.07481
G1 X134.291 Y66.868 E.77687
G1 X136.02 Y67.331 E.07481
M73 P3 R25
M73 Q3 S25
G1 X152.112 Y76.622 E.77687
G1 X153.378 Y77.888 E.07481
M73 P4 R25
M73 Q4 S25
G1 X162.669 Y93.98 E.77687
G1 X163.132 Y95.709 E.07481
G1 X163.132 Y114.291 E.77687
G1 X162.669 Y116.02 E.07481
G1 X153.378 Y132.112 E.77687
G1 X152.818 Y132.672 E.0331
; printing object OV-PAM_n_12_1F.stl id:0 copy 0
G1 E-1 F2400
G1 X150.341 Y130.286 F4200
G1 X150.198 Y130.198
G1 E1 F1500
;TYPE:External perimeter
;WIDTH:0.551587
G1 F1200
G1 X134.282 Y139.391 E.85514
G1 X134.223 Y139.421 E.00307
G1 X134.157 Y139.425 E.00307
G1 X115.777 Y139.421 E.85514
G1 X99.802 Y130.198 E.85821
G1 X90.609 Y114.282 E.85514
G1 X90.579 Y114.223 E.00307
G1 X90.575 Y114.157 E.00307
G1 X90.579 Y95.777 E.85514
G1 X99.802 Y79.802 E.85821
G1 X115.718 Y70.609 E.85514
G1 X115.777 Y70.579 E.00307
G1 X115.843 Y70.575 E.00307
G1 X134.223 Y70.579 E.85514
G1 X150.198 Y79.802 E.85821
G1 X159.391 Y95.718 E.85514
G1 X159.421 Y95.777 E.00307
G1 X159.425 Y95.843 E.00307
G1 X159.421 Y114.223 E.85514
G1 X150.231 Y130.148 E.85542
G1 X150.301 Y130.584 F4200
; stop printing object OV-PAM_n_12_1F.stl id:0 copy 0
;LAYER_CHANGE
;Z:0.8
;HEIGHT:0.2
;BEFORE_LAYER_CHANGE
G92 E0.0
;0.8


G1 E-1 F2400
G1 Z.8 F720
;AFTER_LAYER_CHANGE
;0.8
; printing object OV-PAM_n_12_1F.stl id:0 copy 0
G1 X150.22 Y130.164 F4200
G1 E1 F1500
G1 F1200
G1 X150.143 Y130.234 E.00487
G1 X134.282 Y139.391 E.85208
G1 X134.223 Y139.421 E.00307
M73 P5 R25
M73 Q5 S25
G1 X134.157 Y139.425 E.00307
G1 X115.777 Y139.421 E.85514
G1 X99.802 Y130.198 E.85821
G1 X90.609 Y114.282 E.85514
G1 X90.579 Y114.223 E.00307
G1 X90.575 Y114.157 E.00307
G1 X90.579 Y95.777 E.85514
G1 X99.802 Y79.802 E.85821
G1 X115.718 Y70.609 E.85514
G1 X115.777 Y70.579 E.00307
G1 X115.843 Y70.575 E.00307
G1 X134.223 Y70.579 E.85514
G1 X150.198 Y79.802 E.85821
G1 X159.391 Y95.718 E.85514
G1 X159.421 Y95.777 E.00307
G1 X159.425 Y95.843 E.00307
G1 X159.421 Y114.223 E.85514
G1 X150.252 Y130.113 E.85353
G1 X150.261 Y130.26 F4200
; stop printing object OV-PAM_n_12_1F.stl id:0 copy 0
;LAYER_CHANGE
;Z:1
;HEIGHT:0.2
;BEFORE_LAYER_CHANGE
G92 E0.0
;1


G1 E-1 F2400
G1 Z1 F720
;AFTER_LAYER_CHANGE
;1
; printing object OV-PAM_n_12_1F.stl id:0 copy 0
G1 X150.249 Y130.118 F4200
G1 E1 F1500
G1 F1200
G1 X150.198 Y130.198 E.0044
G1 X150.143 Y130.234 E.00307
G1 X134.282 Y139.391 E.85208
G1 X134.223 Y139.421 E.00307
G1 X134.157 Y139.425 E.00307
G1 X115.777 Y139.421 E.85514
G1 X99.802 Y130.198 E.85821
G1 X90.609 Y114.282 E.85514
G1 X90.579 Y114.223 E.00307
G1 X90.575 Y114.157 E.00307
G1 X90.579 Y95.777 E.85514
G1 X99.802 Y79.802 E.85821
G1 X115.718 Y70.609 E.85514
G1 X115.777 Y70.579 E.00307
M73 P6 R25
M73 Q6 S25
G1 X115.843 Y70.575 E.00307
G1 X134.223 Y70.579 E.85514
G1 X150.198 Y79.802 E.85821
G1 X159.391 Y95.718 E.85514
G1 X159.421 Y95.777 E.00307
G1 X159.425 Y95.843 E.00307
G1 X159.421 Y114.223 E.85514
G1 X150.279 Y130.066 E.85102
G1 X150.301 Y130.197 F4200
; stop printing object OV-PAM_n_12_1F.stl id:0 copy 0
;LAYER_CHANGE
;Z:1.2
;HEIGHT:0.2
;BEFORE_LAYER_CHANGE
G92 E0.0
;1.2


G1 E-1 F2400
G1 Z1.2 F720
;AFTER_LAYER_CHANGE
;1.2
; printing object OV-PAM_n_12_1F.stl id:0 copy 0
G1 X150.269 Y130.063 F4200
G1 E1 F1500
;WIDTH:0.571543
G1 F1200
G1 X150.19 Y130.19 E.00721
G1 X150.133 Y130.228 E.00331
G1 X134.282 Y139.38 E.885
G1 X134.22 Y139.411 E.00331
G1 X134.152 Y139.415 E.00331
G1 X115.78 Y139.411 E.88831
G1 X99.81 Y130.19 E.89162
G1 X90.62 Y114.282 E.88831
G1 X90.589 Y114.22 E.00331
G1 X90.585 Y114.152 E.00331
G1 X90.589 Y95.78 E.88831
G1 X99.81 Y79.81 E.89162
G1 X115.718 Y70.62 E.88831
G1 X115.78 Y70.589 E.00331
G1 X115.848 Y70.585 E.00331
G1 X134.22 Y70.589 E.88831
G1 X150.19 Y79.81 E.89162
G1 X159.38 Y95.718 E.88831
G1 X159.411 Y95.78 E.00331
G1 X159.415 Y95.848 E.00331
G1 X159.411 Y114.22 E.88831
G1 X150.299 Y130.012 E.88151
G1 X150.352 Y130.187 F4200
; stop printing object OV-PAM_n_12_1F.stl id:0 copy 0
;LAYER_CHANGE
;Z:1.4
;HEIGHT:0.2
;BEFORE_LAYER_CHANGE
G92 E0.0
;1.4


M73 P7 R25
M73 Q7 S25
G1 E-1 F2400
G1 Z1.4 F720
;AFTER_LAYER_CHANGE
;1.4
; printing object OV-PAM_n_12_1F.stl id:0 copy 0
G1 X150.227 Y129.963 F4200
G1 E1 F1500
;WIDTH:0.630278
G1 F1200
G1 X150.127 Y130.127 E.01032
G1 X150.063 Y130.169 E.00409
G1 X134.265 Y139.29 E.98001
G1 X134.197 Y139.324 E.00409
G1 X134.121 Y139.329 E.00409
G1 X115.803 Y139.324 E.98409
G1 X99.873 Y130.127 E.98817
G1 X90.676 Y114.197 E.98817
G1 X90.671 Y95.879 E.98409
G1 X90.676 Y95.803 E.00409
G1 X90.71 Y95.735 E.00409
G1 X99.873 Y79.873 E.98409
G1 X115.803 Y70.676 E.98817
G1 X134.121 Y70.671 E.98409
G1 X134.197 Y70.676 E.00409
G1 X134.265 Y70.71 E.00409
G1 X150.127 Y79.873 E.98409
G1 X159.29 Y95.735 E.98409
G1 X159.324 Y95.803 E.00409
G1 X159.329 Y95.879 E.00409
G1 X159.324 Y114.197 E.98409
G1 X150.257 Y129.911 E.97464
G1 X150.334 Y130.122 F4200
; stop printing object OV-PAM_n_12_1F.stl id:0 copy 0
;LAYER_CHANGE
;Z:1.6
;HEIGHT:0.2
;BEFORE_LAYER_CHANGE
G92 E0.0
;1.6


M73 P7 R24
M73 Q7 S24
G1 E-1 F2400
G1 Z1.6 F720
;AFTER_LAYER_CHANGE
;1.6
; printing object OV-PAM_n_12_1F.stl id:0 copy 0
G1 X150.167 Y129.836 F4200
G1 E1 F1500
;WIDTH:0.639916
G1 F1200
G1 X150.066 Y130.023 E.01155
G1 X149.979 Y130.084 E.00584
G1 X134.197 Y139.203 E.99529
G1 X134.09 Y139.213 E.00584
G1 X115.863 Y139.219 E.99529
G1 X99.977 Y130.066 E1.0011
G1 X90.797 Y114.197 E1.0011
G1 X90.787 Y114.09 E.00584
G1 X90.781 Y95.863 E.99529
G1 X99.934 Y79.977 E1.0011
M73 P8 R24
M73 Q8 S24
G1 X115.803 Y70.797 E1.0011
G1 X115.91 Y70.787 E.00584
G1 X134.137 Y70.781 E.99529
G1 X150.023 Y79.934 E1.0011
G1 X159.203 Y95.803 E1.0011
G1 X159.213 Y95.91 E.00584
G1 X159.219 Y114.137 E.99529
G1 X150.197 Y129.785 E.98628
G1 X149.956 Y129.859 F4200
; stop printing object OV-PAM_n_12_1F.stl id:0 copy 0
;LAYER_CHANGE
;Z:1.8
;HEIGHT:0.2
;BEFORE_LAYER_CHANGE
G92 E0.0
;1.8


G1 E-1 F2400
G1 Z1.8 F720
;AFTER_LAYER_CHANGE
;1.8
; printing object OV-PAM_n_12_1F.stl id:0 copy 0
G1 X150.116 Y129.694 F4200
G1 E1 F1500
;WIDTH:0.669924
G1 F1196.166
G1 X150.029 Y129.893 E.01247
G1 X149.894 Y130 E.00985
G1 X134.363 Y138.967 E1.02847
G1 X134.229 Y139.073 E.00981
G1 X134.059 Y139.098 E.00985
G1 X116.126 Y139.098 E1.02847
G1 X115.956 Y139.122 E.00981
G1 X115.797 Y139.059 E.00985
G1 X100.266 Y130.092 E1.02847
G1 X100.107 Y130.029 E.00981
G1 X100 Y129.894 E.00985
G1 X91.033 Y114.363 E1.02847
G1 X90.927 Y114.229 E.00981
G1 X90.902 Y114.059 E.00985
G1 X90.902 Y96.126 E1.02847
G1 X90.878 Y95.956 E.00981
G1 X90.941 Y95.797 E.00985
G1 X99.908 Y80.266 E1.02847
G1 X99.971 Y80.107 E.00981
G1 X100.106 Y80 E.00985
G1 X115.637 Y71.033 E1.02847
G1 X115.771 Y70.927 E.00981
G1 X115.941 Y70.902 E.00985
G1 X133.874 Y70.902 E1.02847
G1 X134.044 Y70.878 E.00981
G1 X134.203 Y70.941 E.00985
G1 X149.734 Y79.908 E1.02847
G1 X149.893 Y79.971 E.00981
G1 X150 Y80.106 E.00985
G1 X158.967 Y95.637 E1.02847
G1 X159.073 Y95.771 E.00981
G1 X159.098 Y95.941 E.00985
G1 X159.098 Y113.874 E1.02847
M73 Q9 S24
G1 X159.122 Y114.044 E.00981
M73 P9 R24
G1 X159.059 Y114.203 E.00985
G1 X150.146 Y129.642 E1.02235
G1 X149.899 Y129.711 F4200
; stop printing object OV-PAM_n_12_1F.stl id:0 copy 0
;LAYER_CHANGE
;Z:2
;HEIGHT:0.2
;BEFORE_LAYER_CHANGE
G92 E0.0
;2


G1 E-1 F2400
G1 Z2 F720
;AFTER_LAYER_CHANGE
;2
; printing object OV-PAM_n_12_1F.stl id:0 copy 0
G1 X150.057 Y129.586 F4200
G1 E1 F1500
;WIDTH:0.620271
G1 F1200
G1 X150.038 Y129.643 E.00316
;WIDTH:0.710844
G1 F1122.882
G1 X150 Y129.753 E.00712
G1 X149.81 Y129.915 E.0153
;WIDTH:0.620271
G1 F1200
G1 X134.45 Y138.783 E.93659
G1 X134.362 Y138.86 E.00616
;WIDTH:0.710846
G1 F1122.88
G1 X134.275 Y138.937 E.00712
G1 X134.028 Y138.982 E.0153
;WIDTH:0.620272
G1 F1200
G1 X116.292 Y138.982 E.93659
G1 X116.178 Y139.005 E.00616
;WIDTH:0.710846
G1 F1122.879
G1 X116.064 Y139.027 E.00712
G1 X115.828 Y138.943 E.0153
;WIDTH:0.620271
G1 F1200
G1 X100.468 Y130.076 E.93659
G1 X100.357 Y130.038 E.00616
;WIDTH:0.710844
G1 F1122.882
G1 X100.247 Y130 E.00712
G1 X100.085 Y129.81 E.0153
;WIDTH:0.620271
G1 F1200
G1 X91.217 Y114.45 E.93659
G1 X91.14 Y114.362 E.00616
;WIDTH:0.710846
G1 F1122.88
G1 X91.063 Y114.275 E.00712
G1 X91.018 Y114.028 E.0153
;WIDTH:0.620272
G1 F1200
G1 X91.018 Y96.292 E.93659
G1 X90.995 Y96.178 E.00616
;WIDTH:0.710846
G1 F1122.879
G1 X90.973 Y96.064 E.00712
G1 X91.057 Y95.828 E.0153
;WIDTH:0.620271
G1 F1200
G1 X99.924 Y80.468 E.93659
G1 X99.962 Y80.357 E.00616
;WIDTH:0.710844
G1 F1122.882
G1 X100 Y80.247 E.00712
G1 X100.19 Y80.085 E.0153
;WIDTH:0.620271
G1 F1200
G1 X115.55 Y71.217 E.93659
G1 X115.638 Y71.14 E.00616
;WIDTH:0.710846
G1 F1122.88
G1 X115.725 Y71.063 E.00712
G1 X115.972 Y71.018 E.0153
;WIDTH:0.620272
G1 F1200
G1 X133.708 Y71.018 E.93659
G1 X133.822 Y70.995 E.00616
;WIDTH:0.710846
G1 F1122.879
G1 X133.936 Y70.973 E.00712
G1 X134.172 Y71.057 E.0153
;WIDTH:0.620271
G1 F1200
G1 X149.532 Y79.924 E.93659
G1 X149.643 Y79.962 E.00616
;WIDTH:0.710844
G1 F1122.882
G1 X149.753 Y80 E.00712
G1 X149.915 Y80.19 E.0153
;WIDTH:0.620271
G1 F1200
G1 X158.783 Y95.55 E.93659
G1 X158.86 Y95.638 E.00616
;WIDTH:0.710846
G1 F1122.88
G1 X158.937 Y95.725 E.00712
G1 X158.982 Y95.972 E.0153
;WIDTH:0.620272
G1 F1200
G1 X158.982 Y113.708 E.93659
G1 X159.005 Y113.822 E.00616
;WIDTH:0.710846
G1 F1122.879
G1 X159.027 Y113.936 E.00712
;WIDTH:0.710845
G1 X158.943 Y114.172 E.0153
;WIDTH:0.620271
G1 F1200
G1 X150.077 Y129.529 E.93641
; stop printing object OV-PAM_n_12_1F.stl id:0 copy 0
;LAYER_CHANGE
;Z:2.2
;HEIGHT:0.2
;BEFORE_LAYER_CHANGE
G92 E0.0
;2.2


G1 E-1 F2400
G1 Z2.2 F720
;AFTER_LAYER_CHANGE
;2.2
; printing object OV-PAM_n_12_1F.stl id:0 copy 0
G1 X150.149 Y129.517 F4200
G1 X159.038 Y113.658
G1 X158.807 Y95.479
G1 X149.517 Y79.851
G1 X133.658 Y70.962
G1 X133.346 Y70.962
G1 X133.346 Y70.845
G1 E1 F1500
;WIDTH:0.665536
G1 F1200
G1 X134.142 Y71.172 E.04898
G1 X149.33 Y79.941 E.99877
G1 X149.422 Y79.968 E.00547
;WIDTH:0.756072
G1 F1051.67
G1 X149.607 Y80.022 E.01253
G1 X149.621 Y79.946 E.00507
;WIDTH:0.668651
G1 F1198.598
G1 X149.651 Y79.793 E.0089
;WIDTH:0.581231
G1 F1200
G1 X149.68 Y79.64 E.00766
;WIDTH:0.493811
G1 X149.71 Y79.488 E.00642
G1 X149.306 Y79.594 F4200
;WIDTH:0.665538
G1 F1200
G1 X149.831 Y80.275 E.04898
G1 X158.6 Y95.463 E.99877
G1 X158.666 Y95.533 E.00547
;WIDTH:0.756074
M73 P10 R24
M73 Q10 S24
G1 F1051.667
G1 X158.799 Y95.672 E.01253
G1 X158.85 Y95.613 E.00507
;WIDTH:0.668653
G1 F1198.596
G1 X158.952 Y95.496 E.0089
;WIDTH:0.581232
G1 F1200
G1 X159.053 Y95.378 E.00766
;WIDTH:0.493811
G1 X159.155 Y95.261 E.00642
G1 X158.752 Y95.15 F4200
;WIDTH:0.665539
G1 F1200
G1 X158.867 Y96.003 E.04898
