; generated by PrusaSlicer 2.5.2+win64 on 2023-08-31 at 05:14:23 UTC


;
;
; 

; external perimeters extrusion width = 0.60mm
; perimeters extrusion width = 0.60mm
; infill extrusion width = 0.60mm
; solid infill extrusion width = 0.60mm
; top infill extrusion width = 0.60mm
; first layer extrusion width = 0.60mm

M73 P0 R26
M73 Q0 S26
M201 X1000 Y1000 Z200 E5000 ; sets maximum accelerations, mm/sec^2
M203 X200 Y200 Z12 E120 ; sets maximum feedrates, mm / sec
M204 P1250 R1250 T1250 ; sets acceleration (P, T) and retract acceleration (R), mm/sec^2
M205 X8.00 Y8.00 Z0.40 E4.50 ; sets the jerk limits, mm/sec
M205 S0 T0 ; sets the minimum extruding and travel feed rate, mm/sec
M107
;TYPE:Custom
M862.3 P "MK3S" ; printer model check
M862.1 P0.4 ; nozzle diameter check
M115 U3.12.2 ; tell printer latest fw version
G90 ; use absolute coordinates
M83 ; extruder relative mode
M104 S240 ; set extruder temp
M140 S50 ; set bed temp
M190 S50 ; wait for bed temp
M109 S240 ; wait for extruder temp
G28 W ; home all without mesh bed level
G80 ; mesh bed leveling

G1 Z0.2 F720
G1 Y-3 F1000 ; go outside print area
G92 E0
G1 X60 E9 F1000 ; intro line
G1 X100 E12.5 F1000 ; intro line

G92 E0
M221 S95

; Don't change E values below. Excessive value can damage the printer.
M907 E430 ; set extruder motor current
G21 ; set units to millimeters
G90 ; use absolute coordinates
M83 ; use relative distances for extrusion
M900 K0 ; Filament gcode
M107
;LAYER_CHANGE
;Z:0.2
;HEIGHT:0.2
;BEFORE_LAYER_CHANGE
G92 E0.0
;0.2


G1 E-1 F2400
G1 Z.2 F720
;AFTER_LAYER_CHANGE
;0.2
G1 X89.093 Y88.653 F4200
G1 E1 F1500
M204 S300
;TYPE:Skirt/Brim
;WIDTH:0.6
G1 F1200
G1 X108.653 Y69.093 E1.40951
G1 X110.083 Y68.221 E.08535
G1 X111.169 Y68.051 E.05597
G1 X138.831 Y68.051 E1.40951
G1 X140.459 Y68.445 E.08535
G1 X141.347 Y69.093 E.05597
G1 X160.907 Y88.653 E1.40951
G1 X161.779 Y90.083 E.08535
G1 X161.949 Y91.169 E.05597
G1 X161.949 Y118.831 E1.40951
G1 X161.555 Y120.459 E.08535
G1 X160.907 Y121.347 E.05597
G1 X141.347 Y140.907 E1.40951
G1 X139.917 Y141.779 E.08535
G1 X138.831 Y141.949 E.05597
G1 X111.169 Y141.949 E1.40951
G1 X109.541 Y141.555 E.08535
M73 P1 R26
M73 Q1 S26
G1 X108.653 Y140.907 E.05597
G1 X89.093 Y121.347 E1.40951
G1 X88.221 Y119.917 E.08535
G1 X88.051 Y118.831 E.05597
G1 X88.051 Y91.169 E1.40951
G1 X88.445 Y89.541 E.08535
G1 X89.058 Y88.702 E.05291
; printing object OV-PAM_q_3mm_1F.stl id:0 copy 0
G1 E-1 F2400
G1 X111.465 Y137.988 F4200
G1 E1 F1500
;TYPE:External perimeter
;WIDTH:0.874574
G1 F901.818
G1 X111.341 Y137.976 E.00946
G1 X111.217 Y137.875 E.01216
G1 X92.125 Y118.783 E2.05382
G1 X92.024 Y118.659 E.01216
G1 X92.008 Y118.5 E.01216
G1 X92.008 Y91.5 E2.05382
G1 X92.024 Y91.341 E.01216
G1 X92.125 Y91.217 E.01216
G1 X111.217 Y72.125 E2.05382
G1 X111.341 Y72.024 E.01216
G1 X111.5 Y72.008 E.01216
G1 X138.5 Y72.008 E2.05382
G1 X138.659 Y72.024 E.01216
G1 X138.783 Y72.125 E.01216
G1 X157.875 Y91.217 E2.05382
G1 X157.976 Y91.341 E.01216
G1 X157.992 Y91.5 E.01216
G1 X157.992 Y118.5 E2.05382
G1 X157.976 Y118.659 E.01216
G1 X157.875 Y118.783 E.01216
G1 X138.783 Y137.875 E2.05382
G1 X138.659 Y137.976 E.01216
M73 P2 R26
M73 Q2 S26
G1 X138.5 Y137.992 E.01216
G1 X111.524 Y137.992 E2.05196
G1 X111.395 Y138.092 F4200
; stop printing object OV-PAM_q_3mm_1F.stl id:0 copy 0
;LAYER_CHANGE
;Z:0.4
;HEIGHT:0.2
;BEFORE_LAYER_CHANGE
G92 E0.0
;0.4


G1 E-1 F2400
G1 Z.4 F720
;AFTER_LAYER_CHANGE
;0.4
G1 X110.599 Y141.811 F4200
G1 E1 F1500
;TYPE:Skirt/Brim
;WIDTH:0.6
G1 F1346.307
G1 X109.541 Y141.555 E.0555
G1 X108.653 Y140.907 E.05597
G1 X89.093 Y121.347 E1.40951
G1 X88.221 Y119.917 E.08535
G1 X88.051 Y118.831 E.05597
G1 X88.051 Y91.169 E1.40951
G1 X88.445 Y89.541 E.08535
G1 X89.093 Y88.653 E.05597
G1 X108.653 Y69.093 E1.40951
G1 X110.083 Y68.221 E.08535
G1 X111.169 Y68.051 E.05597
G1 X138.831 Y68.051 E1.40951
G1 X140.459 Y68.445 E.08535
M73 P2 R25
M73 Q2 S25
G1 X141.347 Y69.093 E.05597
G1 X160.907 Y88.653 E1.40951
G1 X161.779 Y90.083 E.08535
G1 X161.949 Y91.169 E.05597
G1 X161.949 Y118.831 E1.40951
G1 X161.555 Y120.459 E.08535
G1 X160.907 Y121.347 E.05597
G1 X141.347 Y140.907 E1.40951
G1 X139.917 Y141.779 E.08535
G1 X138.831 Y141.949 E.05597
G1 X111.169 Y141.949 E1.40951
G1 X110.658 Y141.825 E.02679
; printing object OV-PAM_q_3mm_1F.stl id:0 copy 0
G1 E-1 F2400
G1 X111.43 Y138.188 F4200
G1 X111.458 Y138.191
G1 X111.474 Y137.989
G1 E1 F1500
;TYPE:External perimeter
;WIDTH:0.874574
G1 F901.818
G1 X111.341 Y137.976 E.0102
G1 X111.217 Y137.875 E.01216
G1 X92.125 Y118.783 E2.05382
G1 X92.024 Y118.659 E.01216
M73 P3 R25
M73 Q3 S25
G1 X92.008 Y118.5 E.01216
G1 X92.008 Y91.5 E2.05382
G1 X92.024 Y91.341 E.01216
G1 X92.125 Y91.217 E.01216
G1 X111.217 Y72.125 E2.05382
G1 X111.341 Y72.024 E.01216
G1 X111.5 Y72.008 E.01216
G1 X138.5 Y72.008 E2.05382
G1 X138.659 Y72.024 E.01216
G1 X138.783 Y72.125 E.01216
G1 X157.875 Y91.217 E2.05382
G1 X157.976 Y91.341 E.01216
G1 X157.992 Y91.5 E.01216
G1 X157.992 Y118.5 E2.05382
G1 X157.976 Y118.659 E.01216
G1 X157.875 Y118.783 E.01216
G1 X138.783 Y137.875 E2.05382
G1 X138.659 Y137.976 E.01216
G1 X138.5 Y137.992 E.01216
G1 X111.534 Y137.992 E2.05122
G1 X111.4 Y138.101 F4200
; stop printing object OV-PAM_q_3mm_1F.stl id:0 copy 0
;LAYER_CHANGE
;Z:0.6
;HEIGHT:0.2
;BEFORE_LAYER_CHANGE
G92 E0.0
;0.6


G1 E-1 F2400
G1 Z.6 F720
;AFTER_LAYER_CHANGE
;0.6
G1 X110.608 Y141.813 F4200
G1 E1 F1500
;TYPE:Skirt/Brim
;WIDTH:0.6
G1 F1346.307
G1 X109.541 Y141.555 E.05598
G1 X108.653 Y140.907 E.05597
G1 X89.093 Y121.347 E1.40951
G1 X88.221 Y119.917 E.08535
G1 X88.051 Y118.831 E.05597
G1 X88.051 Y91.169 E1.40951
G1 X88.445 Y89.541 E.08535
M73 P4 R25
M73 Q4 S25
G1 X89.093 Y88.653 E.05597
G1 X108.653 Y69.093 E1.40951
G1 X110.083 Y68.221 E.08535
G1 X111.169 Y68.051 E.05597
G1 X138.831 Y68.051 E1.40951
G1 X140.459 Y68.445 E.08535
G1 X141.347 Y69.093 E.05597
G1 X160.907 Y88.653 E1.40951
G1 X161.779 Y90.083 E.08535
G1 X161.949 Y91.169 E.05597
G1 X161.949 Y118.831 E1.40951
G1 X161.555 Y120.459 E.08535
G1 X160.907 Y121.347 E.05597
G1 X141.347 Y140.907 E1.40951
G1 X139.917 Y141.779 E.08535
G1 X138.831 Y141.949 E.05597
G1 X111.169 Y141.949 E1.40951
G1 X110.667 Y141.827 E.02631
; printing object OV-PAM_q_3mm_1F.stl id:0 copy 0
G1 E-1 F2400
G1 X111.441 Y138.189 F4200
G1 X111.469 Y138.191
G1 X111.485 Y137.99
G1 E1 F1500
;TYPE:External perimeter
;WIDTH:0.874574
G1 F901.818
G1 X111.341 Y137.976 E.01101
G1 X111.217 Y137.875 E.01216
G1 X92.125 Y118.783 E2.05382
G1 X92.024 Y118.659 E.01216
G1 X92.008 Y118.5 E.01216
G1 X92.008 Y91.5 E2.05382
G1 X92.024 Y91.341 E.01216
G1 X92.125 Y91.217 E.01216
G1 X111.217 Y72.125 E2.05382
G1 X111.341 Y72.024 E.01216
G1 X111.5 Y72.008 E.01216
G1 X138.5 Y72.008 E2.05382
G1 X138.659 Y72.024 E.01216
M73 P5 R25
M73 Q5 S25
G1 X138.783 Y72.125 E.01216
G1 X157.875 Y91.217 E2.05382
G1 X157.976 Y91.341 E.01216
G1 X157.992 Y91.5 E.01216
G1 X157.992 Y118.5 E2.05382
G1 X157.976 Y118.659 E.01216
G1 X157.875 Y118.783 E.01216
G1 X138.783 Y137.875 E2.05382
G1 X138.659 Y137.976 E.01216
G1 X138.5 Y137.992 E.01216
G1 X111.545 Y137.992 E2.05042
G1 X111.404 Y138.111 F4200
; stop printing object OV-PAM_q_3mm_1F.stl id:0 copy 0
;LAYER_CHANGE
;Z:0.8
;HEIGHT:0.2
;BEFORE_LAYER_CHANGE
G92 E0.0
;0.8


G1 E-1 F2400
G1 Z.8 F720
;AFTER_LAYER_CHANGE
;0.8
; printing object OV-PAM_q_3mm_1F.stl id:0 copy 0
G1 X111.496 Y137.992 F4200
G1 E1 F1500
G1 F901.818
G1 X111.341 Y137.976 E.01188
G1 X111.217 Y137.875 E.01216
G1 X92.125 Y118.783 E2.05382
G1 X92.024 Y118.659 E.01216
G1 X92.008 Y118.5 E.01216
G1 X92.008 Y91.5 E2.05382
G1 X92.024 Y91.341 E.01216
G1 X92.125 Y91.217 E.01216
G1 X111.217 Y72.125 E2.05382
G1 X111.341 Y72.024 E.01216
G1 X111.5 Y72.008 E.01216
G1 X138.5 Y72.008 E2.05382
G1 X138.659 Y72.024 E.01216
G1 X138.783 Y72.125 E.01216
G1 X157.875 Y91.217 E2.05382
G1 X157.976 Y91.341 E.01216
M73 P6 R25
M73 Q6 S25
G1 X157.992 Y91.5 E.01216
G1 X157.992 Y118.5 E2.05382
G1 X157.976 Y118.659 E.01216
G1 X157.875 Y118.783 E.01216
G1 X138.783 Y137.875 E2.05382
G1 X138.659 Y137.976 E.01216
G1 X138.5 Y137.992 E.01216
G1 X111.556 Y137.992 E2.04954
G1 X111.409 Y138.121 F4200
; stop printing object OV-PAM_q_3mm_1F.stl id:0 copy 0
;LAYER_CHANGE
;Z:1
;HEIGHT:0.2
;BEFORE_LAYER_CHANGE
G92 E0.0
;1


M73 P6 R24
M73 Q6 S24
G1 E-1 F2400
G1 Z1 F720
;AFTER_LAYER_CHANGE
;1
; printing object OV-PAM_q_3mm_1F.stl id:0 copy 0
G1 X111.512 Y137.992 F4200
G1 E1 F1500
G1 F901.818
G1 X111.341 Y137.976 E.0131
G1 X111.217 Y137.875 E.01216
G1 X92.125 Y118.783 E2.05382
G1 X92.024 Y118.659 E.01216
G1 X92.008 Y118.5 E.01216
G1 X92.008 Y91.5 E2.05382
G1 X92.024 Y91.341 E.01216
G1 X92.125 Y91.217 E.01216
G1 X111.217 Y72.125 E2.05382
G1 X111.341 Y72.024 E.01216
G1 X111.5 Y72.008 E.01216
G1 X138.5 Y72.008 E2.05382
G1 X138.659 Y72.024 E.01216
G1 X138.783 Y72.125 E.01216
G1 X157.875 Y91.217 E2.05382
G1 X157.976 Y91.341 E.01216
G1 X157.992 Y91.5 E.01216
G1 X157.992 Y118.5 E2.05382
G1 X157.976 Y118.659 E.01216
M73 P7 R24
M73 Q7 S24
G1 X157.875 Y118.783 E.01216
G1 X138.783 Y137.875 E2.05382
G1 X138.659 Y137.976 E.01216
G1 X138.5 Y137.992 E.01216
G1 X111.572 Y137.992 E2.04832
G1 X111.417 Y138.135 F4200
; stop printing object OV-PAM_q_3mm_1F.stl id:0 copy 0
;LAYER_CHANGE
;Z:1.2
;HEIGHT:0.2
;BEFORE_LAYER_CHANGE
G92 E0.0
;1.2


G1 E-1 F2400
G1 Z1.2 F720
;AFTER_LAYER_CHANGE
;1.2
; printing object OV-PAM_q_3mm_1F.stl id:0 copy 0
G1 X111.537 Y137.974 F4200
G1 E1 F1500
;WIDTH:0.911046
G1 F863.93
G1 X111.348 Y137.958 E.01507
G1 X111.219 Y137.852 E.01325
G1 X92.148 Y118.781 E2.14159
G1 X92.042 Y118.652 E.01325
G1 X92.026 Y118.485 E.01325
G1 X92.026 Y91.515 E2.14158
G1 X92.042 Y91.348 E.01325
G1 X92.148 Y91.219 E.01325
G1 X111.219 Y72.148 E2.14159
G1 X111.348 Y72.042 E.01325
G1 X111.515 Y72.026 E.01325
G1 X138.485 Y72.026 E2.14158
G1 X138.652 Y72.042 E.01325
G1 X138.781 Y72.148 E.01325
G1 X157.852 Y91.219 E2.14159
G1 X157.958 Y91.348 E.01325
G1 X157.974 Y91.515 E.01325
G1 X157.974 Y118.485 E2.14158
G1 X157.958 Y118.652 E.01325
M73 P8 R24
M73 Q8 S24
G1 X157.852 Y118.781 E.01325
G1 X138.781 Y137.852 E2.14159
G1 X138.652 Y137.958 E.01325
G1 X138.485 Y137.974 E.01325
G1 X111.597 Y137.974 E2.135
G1 X111.433 Y138.133 F4200
; stop printing object OV-PAM_q_3mm_1F.stl id:0 copy 0
;LAYER_CHANGE
;Z:1.4
;HEIGHT:0.2
;BEFORE_LAYER_CHANGE
G92 E0.0
;1.4


G1 E-1 F2400
G1 Z1.4 F720
;AFTER_LAYER_CHANGE
;1.4
; printing object OV-PAM_q_3mm_1F.stl id:0 copy 0
G1 X111.581 Y137.788 F4200
G1 E1 F1500
;WIDTH:0.76372
G1 F1040.511
G1 X111.426 Y137.775 E.0103
G1 X111.317 Y137.686 E.00922
G1 X92.313 Y118.683 E1.77184
G1 X92.226 Y118.577 E.00905
G1 X92.212 Y118.438 E.00922
G1 X92.212 Y91.562 E1.77184
G1 X92.225 Y91.426 E.00905
G1 X92.314 Y91.317 E.00922
G1 X111.317 Y72.313 E1.77184
G1 X111.423 Y72.226 E.00905
G1 X111.562 Y72.212 E.00922
G1 X138.438 Y72.212 E1.77184
G1 X138.574 Y72.225 E.00905
G1 X138.683 Y72.314 E.00922
G1 X157.687 Y91.317 E1.77184
G1 X157.774 Y91.423 E.00905
G1 X157.788 Y91.562 E.00922
G1 X157.788 Y118.438 E1.77184
G1 X157.775 Y118.574 E.00905
G1 X157.686 Y118.683 E.00922
G1 X138.683 Y137.687 E1.77184
G1 X138.577 Y137.774 E.00905
G1 X138.438 Y137.788 E.00922
G1 X111.641 Y137.788 E1.76663
G1 X111.496 Y137.919 F4200
; stop printing object OV-PAM_q_3mm_1F.stl id:0 copy 0
;LAYER_CHANGE
;Z:1.6
;HEIGHT:0.2
;BEFORE_LAYER_CHANGE
G92 E0.0
;1.6


M73 P9 R24
M73 Q9 S24
G1 E-1 F2400
G1 Z1.6 F720
;AFTER_LAYER_CHANGE
;1.6
; printing object OV-PAM_q_3mm_1F.stl id:0 copy 0
G1 X111.626 Y137.674 F4200
G1 E1 F1500
;WIDTH:0.764869
G1 F1038.854
G1 X111.476 Y137.661 E.00995
G1 X111.365 Y137.571 E.00943
G1 X92.428 Y118.636 E1.76835
G1 X92.342 Y118.532 E.00891
G1 X92.328 Y118.39 E.00943
G1 X92.326 Y91.61 E1.76835
G1 X92.339 Y91.476 E.00891
G1 X92.429 Y91.365 E.00943
G1 X111.364 Y72.428 E1.76835
G1 X111.468 Y72.342 E.00891
G1 X111.61 Y72.328 E.00943
G1 X138.39 Y72.326 E1.76835
G1 X138.524 Y72.339 E.0089
G1 X138.635 Y72.429 E.00943
G1 X157.572 Y91.364 E1.76835
G1 X157.658 Y91.468 E.00891
G1 X157.672 Y91.61 E.00943
G1 X157.674 Y118.39 E1.76835
G1 X157.661 Y118.524 E.00891
G1 X157.571 Y118.635 E.00943
G1 X138.636 Y137.572 E1.76835
G1 X138.532 Y137.658 E.00891
G1 X138.39 Y137.672 E.00943
G1 X111.686 Y137.674 E1.76333
G1 X111.543 Y137.8 F4200
; stop printing object OV-PAM_q_3mm_1F.stl id:0 copy 0
;LAYER_CHANGE
;Z:1.8
;HEIGHT:0.2
;BEFORE_LAYER_CHANGE
G92 E0.0
;1.8


G1 E-1 F2400
G1 Z1.8 F720
;AFTER_LAYER_CHANGE
;1.8
; printing object OV-PAM_q_3mm_1F.stl id:0 copy 0
G1 X111.672 Y137.559 F4200
G1 E1 F1500
;WIDTH:0.76604
G1 F1037.173
G1 X111.526 Y137.547 E.00965
G1 X111.413 Y137.455 E.00963
G1 X92.458 Y118.487 E1.77361
G1 X92.443 Y118.342 E.00963
G1 X92.453 Y91.526 E1.77361
G1 X92.545 Y91.413 E.00963
M73 P10 R23
M73 Q10 S23
G1 X111.513 Y72.458 E1.77361
G1 X111.658 Y72.443 E.00963
G1 X138.474 Y72.453 E1.77361
G1 X138.587 Y72.545 E.00963
G1 X157.542 Y91.513 E1.77361
G1 X157.557 Y91.658 E.00963
G1 X157.547 Y118.474 E1.77361
G1 X157.455 Y118.587 E.00963
G1 X138.487 Y137.542 E1.77361
G1 X138.342 Y137.557 E.00963
G1 X111.732 Y137.559 E1.76003
G1 X111.592 Y137.682 F4200
; stop printing object OV-PAM_q_3mm_1F.stl id:0 copy 0
;LAYER_CHANGE
;Z:2
;HEIGHT:0.2
;BEFORE_LAYER_CHANGE
G92 E0.0
;2


G1 E-1 F2400
G1 Z2 F720
;AFTER_LAYER_CHANGE
;2
; printing object OV-PAM_q_3mm_1F.stl id:0 copy 0
G1 X111.718 Y137.445 F4200
G1 E1 F1500
;WIDTH:0.767229
G1 F1035.469
G1 X111.576 Y137.433 E.00939
G1 X111.461 Y137.34 E.00983
G1 X92.574 Y118.442 E1.77003
G1 X92.559 Y118.294 E.00983
G1 X92.567 Y91.576 E1.77003
G1 X92.66 Y91.461 E.00983
G1 X111.558 Y72.574 E1.77003
G1 X111.706 Y72.559 E.00983
G1 X138.424 Y72.567 E1.77003
G1 X138.539 Y72.66 E.00984
M73 P11 R23
M73 Q11 S23
G1 X157.426 Y91.558 E1.77003
G1 X157.441 Y91.706 E.00983
G1 X157.433 Y118.424 E1.77003
G1 X157.34 Y118.539 E.00983
G1 X138.442 Y137.426 E1.77003
G1 X138.294 Y137.441 E.00983
G1 X111.778 Y137.445 E1.7567
G1 X111.64 Y137.564 F4200
; stop printing object OV-PAM_q_3mm_1F.stl id:0 copy 0
;LAYER_CHANGE
;Z:2.2
;HEIGHT:0.2
;BEFORE_LAYER_CHANGE
G92 E0.0
;2.2


G1 E-1 F2400
G1 Z2.2 F720
;AFTER_LAYER_CHANGE
;2.2
; printing object OV-PAM_q_3mm_1F.stl id:0 copy 0
G1 X111.764 Y137.331 F4200
G1 E1 F1500
;WIDTH:0.768441
G1 F1033.74
G1 X111.627 Y137.319 E.00915
G1 X111.509 Y137.224 E.01004
G1 X92.69 Y118.397 E1.76649
G1 X92.674 Y118.246 E.01004
G1 X92.681 Y91.627 E1.76649
G1 X92.776 Y91.509 E.01004
G1 X111.603 Y72.69 E1.76649
G1 X111.754 Y72.674 E.01004
G1 X138.373 Y72.681 E1.76648
G1 X138.491 Y72.776 E.01004
G1 X157.31 Y91.603 E1.76649
G1 X157.326 Y91.754 E.01004
G1 X157.319 Y118.373 E1.76649
G1 X157.224 Y118.491 E.01004
M73 P12 R23
M73 Q12 S23
G1 X138.397 Y137.31 E1.76649
G1 X138.246 Y137.326 E.01004
G1 X111.824 Y137.331 E1.75338
G1 X111.689 Y137.446 F4200
; stop printing object OV-PAM_q_3mm_1F.stl id:0 copy 0
;LAYER_CHANGE
;Z:2.4
;HEIGHT:0.2
;BEFORE_LAYER_CHANGE
G92 E0.0
;2.4


G1 E-1 F2400
G1 Z2.4 F720
;AFTER_LAYER_CHANGE
;2.4
; printing object OV-PAM_q_3mm_1F.stl id:0 copy 0
G1 X111.811 Y137.216 F4200
G1 E1 F1500
;WIDTH:0.769674
G1 F1031.986
G1 X111.677 Y137.205 E.00895
G1 X111.557 Y137.109 E.01024
G1 X92.807 Y118.352 E1.76297
G1 X92.79 Y118.198 E.01024
G1 X92.795 Y91.677 E1.76297
G1 X92.891 Y91.557 E.01024
G1 X111.648 Y72.807 E1.76297
G1 X111.802 Y72.79 E.01024
G1 X138.323 Y72.795 E1.76296
G1 X138.443 Y72.891 E.01025
G1 X157.193 Y91.648 E1.76297
G1 X157.21 Y91.802 E.01024
G1 X157.205 Y118.323 E1.76297
G1 X157.109 Y118.443 E.01024
G1 X138.352 Y137.193 E1.76297
G1 X138.198 Y137.21 E.01024
G1 X111.871 Y137.216 E1.75007
G1 X111.737 Y137.329 F4200
; stop printing object OV-PAM_q_3mm_1F.stl id:0 copy 0
;LAYER_CHANGE
;Z:2.6
;HEIGHT:0.2
;BEFORE_LAYER_CHANGE
G92 E0.0
;2.6


M73 P13 R23
M73 Q13 S23
G1 E-1 F2400
G1 Z2.6 F720
;AFTER_LAYER_CHANGE
;2.6
; printing object OV-PAM_q_3mm_1F.stl id:0 copy 0
G1 X111.858 Y137.095 F4200
G1 E1 F1500
;WIDTH:0.763153
G1 F1041.33
G1 X111.712 Y137.081 E.0097
G1 X111.604 Y136.993 E.00912
G1 X93.007 Y118.396 E1.73264
G1 X92.919 Y118.288 E.00912
G1 X92.905 Y118.151 E.00912
G1 X92.905 Y91.849 E1.73264
G1 X92.919 Y91.712 E.00912
G1 X93.007 Y91.604 E.00912
G1 X111.604 Y73.007 E1.73264
G1 X111.712 Y72.919 E.00912
