; generated by PrusaSlicer 2.5.2+win64 on 2023-08-31 at 05:14:58 UTC


;
;
; 

; external perimeters extrusion width = 0.60mm
; perimeters extrusion width = 0.60mm
; infill extrusion width = 0.60mm
; solid infill extrusion width = 0.60mm
; top infill extrusion width = 0.60mm
; first layer extrusion width = 0.60mm

M73 P0 R28
M73 Q0 S28
M201 X1000 Y1000 Z200 E5000 ; sets maximum accelerations, mm/sec^2
M203 X200 Y200 Z12 E120 ; sets maximum feedrates, mm / sec
M204 P1250 R1250 T1250 ; sets acceleration (P, T) and retract acceleration (R), mm/sec^2
M205 X8.00 Y8.00 Z0.40 E4.50 ; sets the jerk limits, mm/sec
M205 S0 T0 ; sets the minimum extruding and travel feed rate, mm/sec
M107
;TYPE:Custom
M862.3 P "MK3S" ; printer model check
M862.1 P0.4 ; nozzle diameter check
M115 U3.12.2 ; tell printer latest fw version
G90 ; use absolute coordinates
M83 ; extruder relative mode
M104 S240 ; set extruder temp
M140 S50 ; set bed temp
M190 S50 ; wait for bed temp
M109 S240 ; wait for extruder temp
G28 W ; home all without mesh bed level
G80 ; mesh bed leveling

G1 Z0.2 F720
G1 Y-3 F1000 ; go outside print area
G92 E0
G1 X60 E9 F1000 ; intro line
G1 X100 E12.5 F1000 ; intro line

G92 E0
M221 S95

; Don't change E values below. Excessive value can damage the printer.
M907 E430 ; set extruder motor current
G21 ; set units to millimeters
G90 ; use absolute coordinates
M83 ; use relative distances for extrusion
M900 K0 ; Filament gcode
M107
;LAYER_CHANGE
;Z:0.2
;HEIGHT:0.2
;BEFORE_LAYER_CHANGE
G92 E0.0
;0.2


G1 E-1 F2400
G1 Z.2 F720
;AFTER_LAYER_CHANGE
;0.2
G1 X89.093 Y88.653 F4200
G1 E1 F1500
M204 S300
;TYPE:Skirt/Brim
;WIDTH:0.6
G1 F1200
G1 X108.653 Y69.093 E1.40951
G1 X110.083 Y68.221 E.08535
G1 X111.169 Y68.051 E.05597
G1 X138.831 Y68.051 E1.40951
G1 X140.459 Y68.445 E.08535
G1 X141.347 Y69.093 E.05597
G1 X160.907 Y88.653 E1.40951
G1 X161.779 Y90.083 E.08535
G1 X161.949 Y91.169 E.05597
G1 X161.949 Y118.831 E1.40951
G1 X161.555 Y120.459 E.08535
G1 X160.907 Y121.347 E.05597
G1 X141.347 Y140.907 E1.40951
G1 X139.917 Y141.779 E.08535
G1 X138.831 Y141.949 E.05597
G1 X111.169 Y141.949 E1.40951
G1 X109.541 Y141.555 E.08535
G1 X108.653 Y140.907 E.05597
G1 X89.093 Y121.347 E1.40951
G1 X88.221 Y119.917 E.08535
M73 P1 R28
M73 Q1 S28
G1 X88.051 Y118.831 E.05597
G1 X88.051 Y91.169 E1.40951
G1 X88.445 Y89.541 E.08535
G1 X89.058 Y88.702 E.05291
; printing object OV-PAM_q_6.5mm_1F.stl id:0 copy 0
G1 E-1 F2400
G1 X157.992 Y91.509 F4200
G1 E1 F1500
;TYPE:External perimeter
;WIDTH:0.874574
G1 F901.818
G1 X157.992 Y118.5 E2.05316
G1 X157.976 Y118.659 E.01216
G1 X157.875 Y118.783 E.01216
G1 X138.783 Y137.875 E2.05382
G1 X138.659 Y137.976 E.01216
G1 X138.5 Y137.992 E.01216
G1 X111.5 Y137.992 E2.05382
G1 X111.341 Y137.976 E.01216
G1 X111.217 Y137.875 E.01216
G1 X92.125 Y118.783 E2.05382
G1 X92.024 Y118.659 E.01216
G1 X92.008 Y118.5 E.01216
G1 X92.008 Y91.5 E2.05382
G1 X92.024 Y91.341 E.01216
G1 X92.125 Y91.217 E.01216
G1 X111.217 Y72.125 E2.05382
G1 X111.341 Y72.024 E.01216
G1 X111.5 Y72.008 E.01216
G1 X138.5 Y72.008 E2.05382
G1 X138.659 Y72.024 E.01216
M73 P1 R27
M73 Q1 S27
G1 X138.783 Y72.125 E.01216
G1 X157.875 Y91.217 E2.05382
G1 X157.976 Y91.341 E.01216
M73 P2 R27
M73 Q2 S27
G1 X157.987 Y91.449 E.00827
G1 X158.361 Y91.663 F4200
; stop printing object OV-PAM_q_6.5mm_1F.stl id:0 copy 0
;LAYER_CHANGE
;Z:0.4
;HEIGHT:0.2
;BEFORE_LAYER_CHANGE
G92 E0.0
;0.4


G1 E-1 F2400
G1 Z.4 F720
;AFTER_LAYER_CHANGE
;0.4
G1 X161.358 Y89.393 F4200
G1 E1 F1500
;TYPE:Skirt/Brim
;WIDTH:0.6
G1 F1346.307
G1 X161.779 Y90.083 E.04122
G1 X161.949 Y91.169 E.05597
G1 X161.949 Y118.831 E1.40951
G1 X161.555 Y120.459 E.08535
G1 X160.907 Y121.347 E.05597
G1 X141.347 Y140.907 E1.40951
G1 X139.917 Y141.779 E.08535
G1 X138.831 Y141.949 E.05597
G1 X111.169 Y141.949 E1.40951
G1 X109.541 Y141.555 E.08535
G1 X108.653 Y140.907 E.05597
G1 X89.093 Y121.347 E1.40951
G1 X88.221 Y119.917 E.08535
G1 X88.051 Y118.831 E.05597
G1 X88.051 Y91.169 E1.40951
G1 X88.445 Y89.541 E.08535
G1 X89.093 Y88.653 E.05597
G1 X108.653 Y69.093 E1.40951
G1 X110.083 Y68.221 E.08535
G1 X111.169 Y68.051 E.05597
G1 X138.831 Y68.051 E1.40951
G1 X140.459 Y68.445 E.08535
G1 X141.347 Y69.093 E.05597
G1 X160.907 Y88.653 E1.40951
G1 X161.327 Y89.341 E.04107
; printing object OV-PAM_q_6.5mm_1F.stl id:0 copy 0
G1 E-1 F2400
G1 X158.184 Y91.379 F4200
G1 X158.194 Y91.498
G1 X157.992 Y91.514
G1 E1 F1500
;TYPE:External perimeter
;WIDTH:0.874574
G1 F901.818
G1 X157.992 Y118.5 E2.05277
G1 X157.976 Y118.659 E.01216
G1 X157.875 Y118.783 E.01216
G1 X138.783 Y137.875 E2.05382
G1 X138.659 Y137.976 E.01216
G1 X138.5 Y137.992 E.01216
G1 X111.5 Y137.992 E2.05382
G1 X111.341 Y137.976 E.01216
M73 P3 R27
M73 Q3 S27
G1 X111.217 Y137.875 E.01216
G1 X92.125 Y118.783 E2.05382
G1 X92.024 Y118.659 E.01216
G1 X92.008 Y118.5 E.01216
G1 X92.008 Y91.5 E2.05382
G1 X92.024 Y91.341 E.01216
G1 X92.125 Y91.217 E.01216
G1 X111.217 Y72.125 E2.05382
G1 X111.341 Y72.024 E.01216
G1 X111.5 Y72.008 E.01216
G1 X138.5 Y72.008 E2.05382
G1 X138.659 Y72.024 E.01216
G1 X138.783 Y72.125 E.01216
G1 X157.875 Y91.217 E2.05382
G1 X157.976 Y91.341 E.01216
G1 X157.987 Y91.454 E.00865
G1 X158.361 Y91.669 F4200
; stop printing object OV-PAM_q_6.5mm_1F.stl id:0 copy 0
;LAYER_CHANGE
;Z:0.6
;HEIGHT:0.2
;BEFORE_LAYER_CHANGE
G92 E0.0
;0.6


G1 E-1 F2400
G1 Z.6 F720
;AFTER_LAYER_CHANGE
;0.6
G1 X161.36 Y89.397 F4200
G1 E1 F1500
;TYPE:Skirt/Brim
;WIDTH:0.6
G1 F1346.307
G1 X161.779 Y90.083 E.04099
G1 X161.949 Y91.169 E.05597
G1 X161.949 Y118.831 E1.40951
G1 X161.555 Y120.459 E.08535
G1 X160.907 Y121.347 E.05597
G1 X141.347 Y140.907 E1.40951
G1 X139.917 Y141.779 E.08535
G1 X138.831 Y141.949 E.05597
G1 X111.169 Y141.949 E1.40951
G1 X109.541 Y141.555 E.08535
G1 X108.653 Y140.907 E.05597
G1 X89.093 Y121.347 E1.40951
G1 X88.221 Y119.917 E.08535
G1 X88.051 Y118.831 E.05597
G1 X88.051 Y91.169 E1.40951
G1 X88.445 Y89.541 E.08535
M73 P4 R27
M73 Q4 S27
G1 X89.093 Y88.653 E.05597
G1 X108.653 Y69.093 E1.40951
G1 X110.083 Y68.221 E.08535
G1 X111.169 Y68.051 E.05597
G1 X138.831 Y68.051 E1.40951
G1 X140.459 Y68.445 E.08535
G1 X141.347 Y69.093 E.05597
G1 X160.907 Y88.653 E1.40951
G1 X161.329 Y89.345 E.0413
; printing object OV-PAM_q_6.5mm_1F.stl id:0 copy 0
G1 E-1 F2400
G1 X158.185 Y91.384 F4200
G1 X158.194 Y91.503
G1 X157.992 Y91.519
G1 E1 F1500
;TYPE:External perimeter
;WIDTH:0.874574
G1 F901.818
G1 X157.992 Y118.5 E2.05236
G1 X157.976 Y118.659 E.01216
G1 X157.875 Y118.783 E.01216
G1 X138.783 Y137.875 E2.05382
G1 X138.659 Y137.976 E.01216
G1 X138.5 Y137.992 E.01216
G1 X111.5 Y137.992 E2.05382
G1 X111.341 Y137.976 E.01216
G1 X111.217 Y137.875 E.01216
G1 X92.125 Y118.783 E2.05382
G1 X92.024 Y118.659 E.01216
G1 X92.008 Y118.5 E.01216
G1 X92.008 Y91.5 E2.05382
G1 X92.024 Y91.341 E.01216
G1 X92.125 Y91.217 E.01216
G1 X111.217 Y72.125 E2.05382
G1 X111.341 Y72.024 E.01216
G1 X111.5 Y72.008 E.01216
G1 X138.5 Y72.008 E2.05382
G1 X138.659 Y72.024 E.01216
M73 P5 R27
M73 Q5 S27
G1 X138.783 Y72.125 E.01216
G1 X157.875 Y91.217 E2.05382
G1 X157.976 Y91.341 E.01216
G1 X157.988 Y91.459 E.00907
G1 X158.36 Y91.675 F4200
; stop printing object OV-PAM_q_6.5mm_1F.stl id:0 copy 0
;LAYER_CHANGE
;Z:0.8
;HEIGHT:0.2
;BEFORE_LAYER_CHANGE
G92 E0.0
;0.8


G1 E-1 F2400
G1 Z.8 F720
;AFTER_LAYER_CHANGE
;0.8
; printing object OV-PAM_q_6.5mm_1F.stl id:0 copy 0
G1 X157.992 Y91.525 F4200
G1 E1 F1500
G1 F901.818
G1 X157.992 Y118.5 E2.05192
G1 X157.976 Y118.659 E.01216
G1 X157.875 Y118.783 E.01216
G1 X138.783 Y137.875 E2.05382
G1 X138.659 Y137.976 E.01216
G1 X138.5 Y137.992 E.01216
G1 X111.5 Y137.992 E2.05382
G1 X111.341 Y137.976 E.01216
G1 X111.217 Y137.875 E.01216
G1 X92.125 Y118.783 E2.05382
G1 X92.024 Y118.659 E.01216
M73 P5 R26
M73 Q5 S26
G1 X92.008 Y118.5 E.01216
G1 X92.008 Y91.5 E2.05382
G1 X92.024 Y91.341 E.01216
G1 X92.125 Y91.217 E.01216
G1 X111.217 Y72.125 E2.05382
G1 X111.341 Y72.024 E.01216
G1 X111.5 Y72.008 E.01216
G1 X138.5 Y72.008 E2.05382
G1 X138.659 Y72.024 E.01216
G1 X138.783 Y72.125 E.01216
G1 X157.875 Y91.217 E2.05382
G1 X157.976 Y91.341 E.01216
M73 P6 R26
M73 Q6 S26
G1 X157.988 Y91.465 E.00951
G1 X158.36 Y91.682 F4200
; stop printing object OV-PAM_q_6.5mm_1F.stl id:0 copy 0
;LAYER_CHANGE
;Z:1
;HEIGHT:0.2
;BEFORE_LAYER_CHANGE
G92 E0.0
;1


G1 E-1 F2400
G1 Z1 F720
;AFTER_LAYER_CHANGE
;1
; printing object OV-PAM_q_6.5mm_1F.stl id:0 copy 0
G1 X157.992 Y91.531 F4200
G1 E1 F1500
G1 F901.818
G1 X157.992 Y118.5 E2.05146
G1 X157.976 Y118.659 E.01216
G1 X157.875 Y118.783 E.01216
G1 X138.783 Y137.875 E2.05382
G1 X138.659 Y137.976 E.01216
G1 X138.5 Y137.992 E.01216
G1 X111.5 Y137.992 E2.05382
G1 X111.341 Y137.976 E.01216
G1 X111.217 Y137.875 E.01216
G1 X92.125 Y118.783 E2.05382
G1 X92.024 Y118.659 E.01216
G1 X92.008 Y118.5 E.01216
G1 X92.008 Y91.5 E2.05382
G1 X92.024 Y91.341 E.01216
G1 X92.125 Y91.217 E.01216
G1 X111.217 Y72.125 E2.05382
G1 X111.341 Y72.024 E.01216
G1 X111.5 Y72.008 E.01216
G1 X138.5 Y72.008 E2.05382
G1 X138.659 Y72.024 E.01216
G1 X138.783 Y72.125 E.01216
G1 X157.875 Y91.217 E2.05382
G1 X157.976 Y91.341 E.01216
G1 X157.989 Y91.471 E.00997
G1 X158.36 Y91.689 F4200
; stop printing object OV-PAM_q_6.5mm_1F.stl id:0 copy 0
;LAYER_CHANGE
;Z:1.2
;HEIGHT:0.2
;BEFORE_LAYER_CHANGE
G92 E0.0
;1.2


G1 E-1 F2400
G1 Z1.2 F720
;AFTER_LAYER_CHANGE
;1.2
; printing object OV-PAM_q_6.5mm_1F.stl id:0 copy 0
G1 X157.974 Y91.545 F4200
G1 E1 F1500
;WIDTH:0.911047
G1 F863.93
G1 X157.974 Y118.485 E2.13915
G1 X157.958 Y118.652 E.01325
G1 X157.852 Y118.781 E.01325
G1 X138.781 Y137.852 E2.14159
G1 X138.652 Y137.958 E.01325
M73 P7 R26
M73 Q7 S26
G1 X138.485 Y137.974 E.01325
G1 X111.515 Y137.974 E2.14159
G1 X111.348 Y137.958 E.01325
G1 X111.219 Y137.852 E.01325
G1 X92.148 Y118.781 E2.14159
G1 X92.042 Y118.652 E.01325
G1 X92.026 Y118.485 E.01325
G1 X92.026 Y91.515 E2.14159
G1 X92.042 Y91.348 E.01325
G1 X92.148 Y91.219 E.01325
G1 X111.219 Y72.148 E2.14159
G1 X111.348 Y72.042 E.01325
G1 X111.515 Y72.026 E.01325
G1 X138.485 Y72.026 E2.14159
G1 X138.652 Y72.042 E.01325
G1 X138.781 Y72.148 E.01325
G1 X157.852 Y91.219 E2.14159
G1 X157.958 Y91.348 E.01325
G1 X157.971 Y91.485 E.01093
G1 X158.342 Y91.702 F4200
; stop printing object OV-PAM_q_6.5mm_1F.stl id:0 copy 0
;LAYER_CHANGE
;Z:1.4
;HEIGHT:0.2
;BEFORE_LAYER_CHANGE
G92 E0.0
;1.4


G1 E-1 F2400
G1 Z1.4 F720
;AFTER_LAYER_CHANGE
;1.4
; printing object OV-PAM_q_6.5mm_1F.stl id:0 copy 0
G1 X157.788 Y91.577 F4200
G1 E1 F1500
;WIDTH:0.763152
G1 F1041.331
G1 X157.788 Y118.438 E1.76946
G1 X157.774 Y118.575 E.00912
G1 X157.686 Y118.683 E.00912
G1 X138.683 Y137.686 E1.77044
G1 X138.575 Y137.774 E.00912
G1 X138.438 Y137.788 E.00912
G1 X111.562 Y137.788 E1.77044
G1 X111.425 Y137.774 E.00912
M73 P8 R26
M73 Q8 S26
G1 X111.317 Y137.686 E.00912
G1 X92.314 Y118.683 E1.77044
G1 X92.226 Y118.575 E.00912
G1 X92.212 Y118.438 E.00912
G1 X92.212 Y91.562 E1.77044
G1 X92.226 Y91.425 E.00912
G1 X92.314 Y91.317 E.00912
G1 X111.317 Y72.314 E1.77044
G1 X111.425 Y72.226 E.00912
G1 X111.562 Y72.212 E.00912
G1 X138.438 Y72.212 E1.77044
G1 X138.575 Y72.226 E.00912
G1 X138.683 Y72.314 E.00912
G1 X157.686 Y91.317 E1.77044
G1 X157.774 Y91.425 E.00912
G1 X157.783 Y91.517 E.00615
G1 X158.156 Y91.733 F4200
; stop printing object OV-PAM_q_6.5mm_1F.stl id:0 copy 0
;LAYER_CHANGE
;Z:1.6
;HEIGHT:0.2
;BEFORE_LAYER_CHANGE
G92 E0.0
;1.6


G1 E-1 F2400
G1 Z1.6 F720
;AFTER_LAYER_CHANGE
;1.6
; printing object OV-PAM_q_6.5mm_1F.stl id:0 copy 0
G1 X157.672 Y91.605 F4200
G1 E1 F1500
G1 F1041.331
G1 X157.672 Y118.39 E1.76449
G1 X157.659 Y118.528 E.00912
G1 X157.571 Y118.635 E.00912
G1 X138.635 Y137.571 E1.76414
G1 X138.528 Y137.659 E.00912
G1 X138.39 Y137.672 E.00912
G1 X111.61 Y137.672 E1.76414
G1 X111.472 Y137.659 E.00912
G1 X111.365 Y137.571 E.00912
G1 X92.429 Y118.635 E1.76414
G1 X92.341 Y118.528 E.00912
G1 X92.328 Y118.39 E.00912
G1 X92.328 Y91.61 E1.76414
G1 X92.341 Y91.472 E.00912
M73 P8 R25
M73 Q8 S25
G1 X92.429 Y91.365 E.00912
G1 X111.365 Y72.429 E1.76414
G1 X111.472 Y72.341 E.00912
M73 P9 R25
M73 Q9 S25
G1 X111.61 Y72.328 E.00912
G1 X138.39 Y72.328 E1.76414
G1 X138.528 Y72.341 E.00912
G1 X138.635 Y72.429 E.00912
G1 X157.571 Y91.365 E1.76414
G1 X157.659 Y91.472 E.00912
G1 X157.666 Y91.545 E.00482
G1 X158.042 Y91.757 F4200
; stop printing object OV-PAM_q_6.5mm_1F.stl id:0 copy 0
;LAYER_CHANGE
;Z:1.8
;HEIGHT:0.2
;BEFORE_LAYER_CHANGE
G92 E0.0
;1.8


G1 E-1 F2400
G1 Z1.8 F720
;AFTER_LAYER_CHANGE
;1.8
; printing object OV-PAM_q_6.5mm_1F.stl id:0 copy 0
G1 X157.555 Y91.636 F4200
G1 E1 F1500
;WIDTH:0.763157
G1 F1041.325
G1 X157.557 Y118.342 E1.75929
G1 X157.543 Y118.48 E.00912
G1 X157.455 Y118.587 E.00912
G1 X138.587 Y137.455 E1.75785
G1 X138.48 Y137.543 E.00912
G1 X138.342 Y137.557 E.00912
G1 X111.658 Y137.557 E1.75785
G1 X111.52 Y137.543 E.00912
G1 X111.413 Y137.455 E.00912
G1 X92.545 Y118.587 E1.75785
G1 X92.457 Y118.48 E.00912
G1 X92.443 Y118.342 E.00912
G1 X92.443 Y91.658 E1.75785
G1 X92.457 Y91.52 E.00912
G1 X92.545 Y91.413 E.00912
G1 X111.413 Y72.545 E1.75785
G1 X111.52 Y72.457 E.00912
G1 X111.658 Y72.443 E.00912
G1 X138.342 Y72.443 E1.75785
G1 X138.48 Y72.457 E.00912
G1 X138.587 Y72.545 E.00912
G1 X157.455 Y91.413 E1.75785
G1 X157.543 Y91.52 E.00912
G1 X157.549 Y91.576 E.00372
G1 X157.239 Y91.882 F4200
; stop printing object OV-PAM_q_6.5mm_1F.stl id:0 copy 0
;LAYER_CHANGE
;Z:2
;HEIGHT:0.2
;BEFORE_LAYER_CHANGE
G92 E0.0
;2


G1 E-1 F2400
M73 P10 R25
M73 Q10 S25
G1 Z2 F720
;AFTER_LAYER_CHANGE
;2
; printing object OV-PAM_q_6.5mm_1F.stl id:0 copy 0
G1 X157.437 Y91.667 F4200
G1 E1 F1500
;WIDTH:0.765593
G1 F1037.814
G1 X157.431 Y118.427 E1.76883
G1 X157.34 Y118.539 E.00956
G1 X138.438 Y137.426 E1.76625
G1 X138.294 Y137.441 E.00956
G1 X111.573 Y137.431 E1.76625
G1 X111.461 Y137.34 E.00956
G1 X92.574 Y118.438 E1.76625
G1 X92.559 Y118.294 E.00956
G1 X92.569 Y91.573 E1.76625
G1 X92.66 Y91.461 E.00956
G1 X111.562 Y72.574 E1.76625
G1 X111.706 Y72.559 E.00956
G1 X138.427 Y72.569 E1.76625
G1 X138.539 Y72.66 E.00956
G1 X157.34 Y91.461 E1.75748
G1 X157.426 Y91.562 E.0088
G1 X157.431 Y91.607 E.00299
G1 X157.124 Y91.915 F4200
; stop printing object OV-PAM_q_6.5mm_1F.stl id:0 copy 0
;LAYER_CHANGE
;Z:2.2
;HEIGHT:0.2
;BEFORE_LAYER_CHANGE
G92 E0.0
;2.2


G1 E-1 F2400
G1 Z2.2 F720
;AFTER_LAYER_CHANGE
;2.2
; printing object OV-PAM_q_6.5mm_1F.stl id:0 copy 0
G1 X157.319 Y91.697 F4200
G1 E1 F1500
;WIDTH:0.771838
G1 F1028.922
G1 X157.323 Y118.367 E1.77811
G1 X157.224 Y118.491 E.01061
G1 X138.404 Y137.308 E1.77431
G1 X138.246 Y137.326 E.01061
G1 X111.633 Y137.323 E1.77431
G1 X111.509 Y137.224 E.01061
M73 P11 R25
M73 Q11 S25
G1 X92.692 Y118.404 E1.77431
G1 X92.674 Y118.246 E.01061
G1 X92.677 Y91.633 E1.77431
G1 X92.776 Y91.509 E.01061
G1 X111.596 Y72.692 E1.77431
G1 X111.754 Y72.674 E.01061
G1 X138.367 Y72.677 E1.77431
G1 X138.491 Y72.776 E.01061
G1 X157.224 Y91.509 E1.76629
G1 X157.308 Y91.596 E.00803
G1 X157.313 Y91.637 E.00278
G1 X157.008 Y91.948 F4200
; stop printing object OV-PAM_q_6.5mm_1F.stl id:0 copy 0
;LAYER_CHANGE
;Z:2.4
;HEIGHT:0.2
;BEFORE_LAYER_CHANGE
G92 E0.0
;2.4


G1 E-1 F2400
G1 Z2.4 F720
;AFTER_LAYER_CHANGE
;2.4
; printing object OV-PAM_q_6.5mm_1F.stl id:0 copy 0
G1 X157.201 Y91.726 F4200
G1 E1 F1500
;WIDTH:0.781544
G1 F1015.402
G1 X157.219 Y118.301 E1.79542
G1 X157.109 Y118.443 E.01213
G1 X138.377 Y137.187 E1.79029
G1 X138.198 Y137.21 E.01213
G1 X111.699 Y137.219 E1.79029
G1 X111.557 Y137.109 E.01213
G1 X92.813 Y118.377 E1.79029
G1 X92.79 Y118.198 E.01213
G1 X92.781 Y91.699 E1.79029
G1 X92.891 Y91.557 E.01213
G1 X111.623 Y72.813 E1.79029
G1 X111.802 Y72.79 E.01213
M73 P12 R25
M73 Q12 S25
G1 X138.301 Y72.781 E1.79029
G1 X138.443 Y72.891 E.01213
G1 X157.187 Y91.623 E1.79029
G1 X157.193 Y91.666 E.00291
G1 X156.918 Y92.008 F4200
; stop printing object OV-PAM_q_6.5mm_1F.stl id:0 copy 0
;LAYER_CHANGE
;Z:2.6
;HEIGHT:0.2
;BEFORE_LAYER_CHANGE
G92 E0.0
;2.6


G1 E-1 F2400
G1 Z2.6 F720
;AFTER_LAYER_CHANGE
;2.6
; printing object OV-PAM_q_6.5mm_1F.stl id:0 copy 0
G1 X157.073 Y91.699 F4200
G1 E1 F1500
;WIDTH:0.794704
G1 F997.628
G1 X157.095 Y91.849 E.01041
;WIDTH:0.73574
G1 F1082.532
G1 X157.103 Y118.151 E1.66669
;WIDTH:0.794703
G1 F997.629
