; generated by PrusaSlicer 2.5.2+win64 on 2023-08-31 at 05:15:15 UTC


;
;
; 

; external perimeters extrusion width = 0.60mm
; perimeters extrusion width = 0.60mm
; infill extrusion width = 0.60mm
; solid infill extrusion width = 0.60mm
; top infill extrusion width = 0.60mm
; first layer extrusion width = 0.60mm

M73 P0 R29
M73 Q0 S29
M201 X1000 Y1000 Z200 E5000 ; sets maximum accelerations, mm/sec^2
M203 X200 Y200 Z12 E120 ; sets maximum feedrates, mm / sec
M204 P1250 R1250 T1250 ; sets acceleration (P, T) and retract acceleration (R), mm/sec^2
M205 X8.00 Y8.00 Z0.40 E4.50 ; sets the jerk limits, mm/sec
M205 S0 T0 ; sets the minimum extruding and travel feed rate, mm/sec
M107
;TYPE:Custom
M862.3 P "MK3S" ; printer model check
M862.1 P0.4 ; nozzle diameter check
M115 U3.12.2 ; tell printer latest fw version
G90 ; use absolute coordinates
M83 ; extruder relative mode
M104 S240 ; set extruder temp
M140 S50 ; set bed temp
M190 S50 ; wait for bed temp
M109 S240 ; wait for extruder temp
G28 W ; home all without mesh bed level
G80 ; mesh bed leveling

G1 Z0.2 F720
G1 Y-3 F1000 ; go outside print area
G92 E0
G1 X60 E9 F1000 ; intro line
G1 X100 E12.5 F1000 ; intro line

G92 E0
M221 S95

; Don't change E values below. Excessive value can damage the printer.
M907 E430 ; set extruder motor current
G21 ; set units to millimeters
G90 ; use absolute coordinates
M83 ; use relative distances for extrusion
M900 K0 ; Filament gcode
M107
;LAYER_CHANGE
;Z:0.2
;HEIGHT:0.2
;BEFORE_LAYER_CHANGE
G92 E0.0
;0.2


G1 E-1 F2400
G1 Z.2 F720
;AFTER_LAYER_CHANGE
;0.2
G1 X89.093 Y88.653 F4200
G1 E1 F1500
M204 S300
;TYPE:Skirt/Brim
;WIDTH:0.6
G1 F1200
G1 X108.653 Y69.093 E1.40951
G1 X110.083 Y68.221 E.08535
G1 X111.169 Y68.051 E.05597
G1 X138.831 Y68.051 E1.40951
G1 X140.459 Y68.445 E.08535
G1 X141.347 Y69.093 E.05597
G1 X160.907 Y88.653 E1.40951
G1 X161.779 Y90.083 E.08535
G1 X161.949 Y91.169 E.05597
G1 X161.949 Y118.831 E1.40951
G1 X161.555 Y120.459 E.08535
G1 X160.907 Y121.347 E.05597
G1 X141.347 Y140.907 E1.40951
G1 X139.917 Y141.779 E.08535
G1 X138.831 Y141.949 E.05597
G1 X111.169 Y141.949 E1.40951
G1 X109.541 Y141.555 E.08535
G1 X108.653 Y140.907 E.05597
G1 X89.093 Y121.347 E1.40951
G1 X88.221 Y119.917 E.08535
M73 P1 R29
M73 Q1 S29
G1 X88.051 Y118.831 E.05597
G1 X88.051 Y91.169 E1.40951
G1 X88.445 Y89.541 E.08535
G1 X89.058 Y88.702 E.05291
; printing object OV-PAM_q_8.25mm_1F.stl id:0 copy 0
G1 E-1 F2400
G1 X138.75 Y137.901 F4200
G1 E1 F1500
;TYPE:External perimeter
;WIDTH:0.874574
G1 F901.818
G1 X138.659 Y137.976 E.00897
G1 X138.5 Y137.992 E.01216
G1 X111.5 Y137.992 E2.05382
G1 X111.341 Y137.976 E.01216
G1 X111.217 Y137.875 E.01216
G1 X92.125 Y118.783 E2.05382
G1 X92.024 Y118.659 E.01216
G1 X92.008 Y118.5 E.01216
G1 X92.008 Y91.5 E2.05382
G1 X92.024 Y91.341 E.01216
G1 X92.125 Y91.217 E.01216
G1 X111.217 Y72.125 E2.05382
G1 X111.341 Y72.024 E.01216
G1 X111.5 Y72.008 E.01216
G1 X138.5 Y72.008 E2.05382
G1 X138.659 Y72.024 E.01216
G1 X138.783 Y72.125 E.01216
G1 X157.875 Y91.217 E2.05382
G1 X157.976 Y91.341 E.01216
G1 X157.992 Y91.5 E.01216
G1 X157.992 Y118.5 E2.05382
G1 X157.976 Y118.659 E.01216
G1 X157.875 Y118.783 E.01216
G1 X138.796 Y137.862 E2.05245
G1 X138.773 Y138.017 F4200
; stop printing object OV-PAM_q_8.25mm_1F.stl id:0 copy 0
;LAYER_CHANGE
;Z:0.4
;HEIGHT:0.2
;BEFORE_LAYER_CHANGE
G92 E0.0
;0.4


G1 E-1 F2400
G1 Z.4 F720
;AFTER_LAYER_CHANGE
;0.4
M73 P2 R29
M73 Q2 S29
G1 X138.71 Y137.776 F4200
G1 X138.708 Y137.778
G1 X140.841 Y141.215
G1 E1 F1500
;TYPE:Skirt/Brim
;WIDTH:0.6
G1 F1346.307
G1 X139.917 Y141.779 E.05518
G1 X138.831 Y141.949 E.05597
G1 X111.169 Y141.949 E1.40951
G1 X109.541 Y141.555 E.08535
G1 X108.653 Y140.907 E.05597
G1 X89.093 Y121.347 E1.40951
G1 X88.221 Y119.917 E.08535
G1 X88.051 Y118.831 E.05597
G1 X88.051 Y91.169 E1.40951
G1 X88.445 Y89.541 E.08535
G1 X89.093 Y88.653 E.05597
G1 X108.653 Y69.093 E1.40951
G1 X110.083 Y68.221 E.08535
G1 X111.169 Y68.051 E.05597
G1 X138.831 Y68.051 E1.40951
G1 X140.459 Y68.445 E.08535
G1 X141.347 Y69.093 E.05597
G1 X160.907 Y88.653 E1.40951
G1 X161.779 Y90.083 E.08535
G1 X161.949 Y91.169 E.05597
G1 X161.949 Y118.831 E1.40951
G1 X161.555 Y120.459 E.08535
G1 X160.907 Y121.347 E.05597
G1 X141.347 Y140.907 E1.40951
G1 X140.892 Y141.184 E.02711
; printing object OV-PAM_q_8.25mm_1F.stl id:0 copy 0
G1 E-1 F2400
G1 X138.854 Y138.079 F4200
G1 X138.89 Y138.048
G1 X138.759 Y137.894
G1 E1 F1500
;TYPE:External perimeter
;WIDTH:0.874574
G1 F901.818
G1 X138.659 Y137.976 E.00982
G1 X138.5 Y137.992 E.01216
G1 X111.5 Y137.992 E2.05382
G1 X111.341 Y137.976 E.01216
G1 X111.217 Y137.875 E.01216
G1 X92.125 Y118.783 E2.05382
G1 X92.024 Y118.659 E.01216
M73 P2 R28
M73 Q2 S28
G1 X92.008 Y118.5 E.01216
G1 X92.008 Y91.5 E2.05382
G1 X92.024 Y91.341 E.01216
G1 X92.125 Y91.217 E.01216
G1 X111.217 Y72.125 E2.05382
G1 X111.341 Y72.024 E.01216
M73 P3 R28
M73 Q3 S28
G1 X111.5 Y72.008 E.01216
G1 X138.5 Y72.008 E2.05382
G1 X138.659 Y72.024 E.01216
G1 X138.783 Y72.125 E.01216
G1 X157.875 Y91.217 E2.05382
G1 X157.976 Y91.341 E.01216
G1 X157.992 Y91.5 E.01216
G1 X157.992 Y118.5 E2.05382
G1 X157.976 Y118.659 E.01216
G1 X157.875 Y118.783 E.01216
G1 X138.803 Y137.854 E2.05161
G1 X138.784 Y138.021 F4200
; stop printing object OV-PAM_q_8.25mm_1F.stl id:0 copy 0
;LAYER_CHANGE
;Z:0.6
;HEIGHT:0.2
;BEFORE_LAYER_CHANGE
G92 E0.0
;0.6


G1 E-1 F2400
G1 Z.6 F720
;AFTER_LAYER_CHANGE
;0.6
G1 X138.718 Y137.768 F4200
G1 X138.714 Y137.771
G1 X140.85 Y141.21
G1 E1 F1500
;TYPE:Skirt/Brim
;WIDTH:0.6
G1 F1346.307
G1 X139.917 Y141.779 E.05573
G1 X138.831 Y141.949 E.05597
G1 X111.169 Y141.949 E1.40951
G1 X109.541 Y141.555 E.08535
G1 X108.653 Y140.907 E.05597
G1 X89.093 Y121.347 E1.40951
G1 X88.221 Y119.917 E.08535
G1 X88.051 Y118.831 E.05597
G1 X88.051 Y91.169 E1.40951
G1 X88.445 Y89.541 E.08535
G1 X89.093 Y88.653 E.05597
G1 X108.653 Y69.093 E1.40951
G1 X110.083 Y68.221 E.08535
G1 X111.169 Y68.051 E.05597
G1 X138.831 Y68.051 E1.40951
G1 X140.459 Y68.445 E.08535
G1 X141.347 Y69.093 E.05597
G1 X160.907 Y88.653 E1.40951
G1 X161.779 Y90.083 E.08535
G1 X161.949 Y91.169 E.05597
G1 X161.949 Y118.831 E1.40951
G1 X161.555 Y120.459 E.08535
M73 P4 R28
M73 Q4 S28
G1 X160.907 Y121.347 E.05597
G1 X141.347 Y140.907 E1.40951
G1 X140.902 Y141.179 E.02656
; printing object OV-PAM_q_8.25mm_1F.stl id:0 copy 0
G1 E-1 F2400
G1 X138.862 Y138.072 F4200
G1 X138.9 Y138.04
G1 X138.769 Y137.886
G1 E1 F1500
;TYPE:External perimeter
;WIDTH:0.874574
G1 F901.818
G1 X138.659 Y137.976 E.01077
G1 X138.5 Y137.992 E.01216
G1 X111.5 Y137.992 E2.05382
G1 X111.341 Y137.976 E.01216
G1 X111.217 Y137.875 E.01216
G1 X92.125 Y118.783 E2.05382
G1 X92.024 Y118.659 E.01216
G1 X92.008 Y118.5 E.01216
G1 X92.008 Y91.5 E2.05382
G1 X92.024 Y91.341 E.01216
G1 X92.125 Y91.217 E.01216
G1 X111.217 Y72.125 E2.05382
G1 X111.341 Y72.024 E.01216
G1 X111.5 Y72.008 E.01216
G1 X138.5 Y72.008 E2.05382
G1 X138.659 Y72.024 E.01216
G1 X138.783 Y72.125 E.01216
G1 X157.875 Y91.217 E2.05382
G1 X157.976 Y91.341 E.01216
G1 X157.992 Y91.5 E.01216
G1 X157.992 Y118.5 E2.05382
G1 X157.976 Y118.659 E.01216
G1 X157.875 Y118.783 E.01216
G1 X138.812 Y137.845 E2.05065
G1 X138.796 Y138.025 F4200
; stop printing object OV-PAM_q_8.25mm_1F.stl id:0 copy 0
;LAYER_CHANGE
;Z:0.8
;HEIGHT:0.2
;BEFORE_LAYER_CHANGE
G92 E0.0
;0.8


G1 E-1 F2400
G1 Z.8 F720
;AFTER_LAYER_CHANGE
;0.8
; printing object OV-PAM_q_8.25mm_1F.stl id:0 copy 0
G1 X138.779 Y137.877 F4200
G1 E1 F1500
G1 F901.818
G1 X138.659 Y137.976 E.01183
G1 X138.5 Y137.992 E.01216
G1 X111.5 Y137.992 E2.05382
G1 X111.341 Y137.976 E.01216
M73 P5 R28
M73 Q5 S28
G1 X111.217 Y137.875 E.01216
G1 X92.125 Y118.783 E2.05382
G1 X92.024 Y118.659 E.01216
G1 X92.008 Y118.5 E.01216
G1 X92.008 Y91.5 E2.05382
G1 X92.024 Y91.341 E.01216
G1 X92.125 Y91.217 E.01216
G1 X111.217 Y72.125 E2.05382
G1 X111.341 Y72.024 E.01216
G1 X111.5 Y72.008 E.01216
G1 X138.5 Y72.008 E2.05382
G1 X138.659 Y72.024 E.01216
G1 X138.783 Y72.125 E.01216
G1 X157.875 Y91.217 E2.05382
G1 X157.976 Y91.341 E.01216
G1 X157.992 Y91.5 E.01216
G1 X157.992 Y118.5 E2.05382
G1 X157.976 Y118.659 E.01216
G1 X157.875 Y118.783 E.01216
G1 X138.822 Y137.835 E2.04959
G1 X138.81 Y138.03 F4200
; stop printing object OV-PAM_q_8.25mm_1F.stl id:0 copy 0
;LAYER_CHANGE
;Z:1
;HEIGHT:0.2
;BEFORE_LAYER_CHANGE
G92 E0.0
;1


G1 E-1 F2400
G1 Z1 F720
;AFTER_LAYER_CHANGE
;1
; printing object OV-PAM_q_8.25mm_1F.stl id:0 copy 0
G1 X138.794 Y137.863 F4200
G1 E1 F1500
G1 F901.818
G1 X138.659 Y137.976 E.01341
G1 X138.5 Y137.992 E.01216
G1 X111.5 Y137.992 E2.05382
G1 X111.341 Y137.976 E.01216
G1 X111.217 Y137.875 E.01216
G1 X92.125 Y118.783 E2.05382
G1 X92.024 Y118.659 E.01216
G1 X92.008 Y118.5 E.01216
G1 X92.008 Y91.5 E2.05382
G1 X92.024 Y91.341 E.01216
M73 P6 R28
M73 Q6 S28
G1 X92.125 Y91.217 E.01216
G1 X111.217 Y72.125 E2.05382
G1 X111.341 Y72.024 E.01216
G1 X111.5 Y72.008 E.01216
G1 X138.5 Y72.008 E2.05382
G1 X138.659 Y72.024 E.01216
M73 P6 R27
M73 Q6 S27
G1 X138.783 Y72.125 E.01216
G1 X157.875 Y91.217 E2.05382
G1 X157.976 Y91.341 E.01216
G1 X157.992 Y91.5 E.01216
G1 X157.992 Y118.5 E2.05382
G1 X157.976 Y118.659 E.01216
G1 X157.875 Y118.783 E.01216
G1 X138.837 Y137.821 E2.04801
G1 X138.83 Y138.036 F4200
; stop printing object OV-PAM_q_8.25mm_1F.stl id:0 copy 0
;LAYER_CHANGE
;Z:1.2
;HEIGHT:0.2
;BEFORE_LAYER_CHANGE
G92 E0.0
;1.2


G1 E-1 F2400
G1 Z1.2 F720
;AFTER_LAYER_CHANGE
;1.2
; printing object OV-PAM_q_8.25mm_1F.stl id:0 copy 0
G1 X138.803 Y137.83 F4200
G1 E1 F1500
;WIDTH:0.911047
G1 F863.93
G1 X138.652 Y137.958 E.01573
G1 X138.485 Y137.974 E.01325
G1 X111.515 Y137.974 E2.14159
G1 X111.348 Y137.958 E.01325
G1 X111.219 Y137.852 E.01325
G1 X92.148 Y118.781 E2.14159
G1 X92.042 Y118.652 E.01325
G1 X92.026 Y118.485 E.01325
G1 X92.026 Y91.515 E2.14159
G1 X92.042 Y91.348 E.01325
G1 X92.148 Y91.219 E.01325
G1 X111.219 Y72.148 E2.14159
G1 X111.348 Y72.042 E.01325
M73 P7 R27
M73 Q7 S27
G1 X111.515 Y72.026 E.01325
G1 X138.485 Y72.026 E2.14159
G1 X138.652 Y72.042 E.01325
G1 X138.781 Y72.148 E.01325
G1 X157.852 Y91.219 E2.14159
G1 X157.958 Y91.348 E.01325
G1 X157.974 Y91.515 E.01325
G1 X157.974 Y118.485 E2.14159
G1 X157.958 Y118.652 E.01325
G1 X157.852 Y118.781 E.01325
G1 X138.845 Y137.787 E2.13434
G1 X138.843 Y138.024 F4200
; stop printing object OV-PAM_q_8.25mm_1F.stl id:0 copy 0
;LAYER_CHANGE
;Z:1.4
;HEIGHT:0.2
;BEFORE_LAYER_CHANGE
G92 E0.0
;1.4


G1 E-1 F2400
G1 Z1.4 F720
;AFTER_LAYER_CHANGE
;1.4
; printing object OV-PAM_q_8.25mm_1F.stl id:0 copy 0
G1 X138.706 Y137.663 F4200
G1 E1 F1500
;WIDTH:0.763154
G1 F1041.328
G1 X138.575 Y137.774 E.01126
G1 X138.438 Y137.788 E.00912
G1 X111.562 Y137.788 E1.77045
G1 X111.425 Y137.774 E.00912
G1 X111.317 Y137.686 E.00912
G1 X92.314 Y118.683 E1.77045
G1 X92.226 Y118.575 E.00912
G1 X92.212 Y118.438 E.00912
G1 X92.212 Y91.562 E1.77045
G1 X92.226 Y91.425 E.00912
G1 X92.314 Y91.317 E.00912
G1 X111.317 Y72.314 E1.77045
G1 X111.425 Y72.226 E.00912
G1 X111.562 Y72.212 E.00912
G1 X138.438 Y72.212 E1.77045
G1 X138.575 Y72.226 E.00912
G1 X138.683 Y72.314 E.00912
G1 X157.686 Y91.317 E1.77045
G1 X157.774 Y91.425 E.00912
G1 X157.788 Y91.562 E.00912
G1 X157.788 Y118.438 E1.77045
G1 X157.774 Y118.575 E.00912
M73 P8 R27
M73 Q8 S27
G1 X157.686 Y118.683 E.00912
G1 X138.748 Y137.621 E1.76435
G1 X138.741 Y137.83 F4200
; stop printing object OV-PAM_q_8.25mm_1F.stl id:0 copy 0
;LAYER_CHANGE
;Z:1.6
;HEIGHT:0.2
;BEFORE_LAYER_CHANGE
G92 E0.0
;1.6


G1 E-1 F2400
G1 Z1.6 F720
;AFTER_LAYER_CHANGE
;1.6
; printing object OV-PAM_q_8.25mm_1F.stl id:0 copy 0
G1 X138.66 Y137.545 F4200
G1 E1 F1500
;WIDTH:0.763152
G1 F1041.331
G1 X138.528 Y137.659 E.01149
G1 X138.39 Y137.672 E.00912
G1 X111.61 Y137.672 E1.76414
G1 X111.472 Y137.659 E.00912
G1 X111.365 Y137.571 E.00912
G1 X92.429 Y118.635 E1.76414
G1 X92.341 Y118.528 E.00912
G1 X92.328 Y118.39 E.00912
G1 X92.328 Y91.61 E1.76414
G1 X92.341 Y91.472 E.00912
G1 X92.429 Y91.365 E.00912
G1 X111.365 Y72.429 E1.76414
G1 X111.472 Y72.341 E.00912
G1 X111.61 Y72.328 E.00912
G1 X138.39 Y72.328 E1.76414
G1 X138.528 Y72.341 E.00912
G1 X138.635 Y72.429 E.00912
G1 X157.571 Y91.365 E1.76414
G1 X157.659 Y91.472 E.00912
G1 X157.672 Y91.61 E.00912
G1 X157.672 Y118.39 E1.76414
G1 X157.659 Y118.528 E.00912
G1 X157.571 Y118.635 E.00912
G1 X138.703 Y137.503 E1.75782
G1 X138.494 Y137.491 F4200
; stop printing object OV-PAM_q_8.25mm_1F.stl id:0 copy 0
;LAYER_CHANGE
;Z:1.8
;HEIGHT:0.2
;BEFORE_LAYER_CHANGE
G92 E0.0
;1.8


G1 E-1 F2400
G1 Z1.8 F720
;AFTER_LAYER_CHANGE
;1.8
; printing object OV-PAM_q_8.25mm_1F.stl id:0 copy 0
G1 X138.616 Y137.426 F4200
G1 E1 F1500
;WIDTH:0.766586
G1 F1036.39
G1 X138.488 Y137.541 E.01141
G1 X138.342 Y137.557 E.00973
G1 X111.527 Y137.548 E1.77487
G1 X111.413 Y137.455 E.00973
G1 X92.459 Y118.488 E1.77487
G1 X92.443 Y118.342 E.00973
M73 P9 R27
M73 Q9 S27
G1 X92.452 Y91.527 E1.77487
G1 X92.545 Y91.413 E.00973
G1 X111.512 Y72.459 E1.77487
G1 X111.658 Y72.443 E.00973
G1 X138.473 Y72.452 E1.77487
G1 X138.587 Y72.545 E.00973
G1 X157.541 Y91.512 E1.77487
G1 X157.557 Y91.658 E.00973
G1 X157.548 Y118.473 E1.77487
G1 X157.455 Y118.587 E.00973
G1 X138.659 Y137.384 E1.7595
G1 X138.451 Y137.376 F4200
; stop printing object OV-PAM_q_8.25mm_1F.stl id:0 copy 0
;LAYER_CHANGE
;Z:2
;HEIGHT:0.2
;BEFORE_LAYER_CHANGE
G92 E0.0
;2


M73 P9 R26
M73 Q9 S26
G1 E-1 F2400
G1 Z2 F720
;AFTER_LAYER_CHANGE
;2
; printing object OV-PAM_q_8.25mm_1F.stl id:0 copy 0
G1 X138.584 Y137.295 F4200
G1 E1 F1500
;WIDTH:0.77814
G1 F1020.103
G1 X138.466 Y137.42 E.0116
G1 X138.294 Y137.441 E.01161
G1 X111.597 Y137.446 E1.7953
G1 X111.461 Y137.34 E.01161
G1 X92.58 Y118.466 E1.7953
G1 X92.559 Y118.294 E.01161
G1 X92.554 Y91.597 E1.7953
G1 X92.66 Y91.461 E.01161
G1 X111.534 Y72.58 E1.7953
G1 X111.706 Y72.559 E.01161
G1 X138.403 Y72.554 E1.7953
G1 X138.539 Y72.66 E.01161
M73 P10 R26
M73 Q10 S26
G1 X157.42 Y91.534 E1.7953
G1 X157.441 Y91.706 E.01161
G1 X157.446 Y118.403 E1.7953
G1 X157.34 Y118.539 E.01161
G1 X138.627 Y137.252 E1.77967
G1 X138.417 Y137.253 F4200
; stop printing object OV-PAM_q_8.25mm_1F.stl id:0 copy 0
;LAYER_CHANGE
;Z:2.2
;HEIGHT:0.2
;BEFORE_LAYER_CHANGE
G92 E0.0
;2.2


G1 E-1 F2400
G1 Z2.2 F720
;AFTER_LAYER_CHANGE
;2.2
; printing object OV-PAM_q_8.25mm_1F.stl id:0 copy 0
G1 X138.581 Y137.134 F4200
G1 E1 F1500
;WIDTH:0.735741
G1 F1082.532
G1 X138.498 Y137.231 E.0081
;WIDTH:0.797278
G1 F994.223
G1 X138.453 Y137.295 E.0054
G1 X138.246 Y137.326 E.0144
;WIDTH:0.735742
G1 F1082.529
G1 X111.754 Y137.336 E1.67882
;WIDTH:0.797279
G1 F994.221
G1 X111.676 Y137.349 E.0054
G1 X111.509 Y137.224 E.0144
;WIDTH:0.735741
G1 F1082.532
G1 X92.769 Y118.498 E1.67881
;WIDTH:0.797278
G1 F994.223
G1 X92.705 Y118.453 E.0054
G1 X92.674 Y118.246 E.0144
;WIDTH:0.735742
G1 F1082.529
G1 X92.664 Y91.754 E1.67882
;WIDTH:0.797279
G1 F994.221
G1 X92.651 Y91.676 E.0054
G1 X92.776 Y91.509 E.0144
;WIDTH:0.735741
G1 F1082.532
G1 X111.502 Y72.769 E1.67881
;WIDTH:0.797278
G1 F994.223
G1 X111.547 Y72.705 E.0054
G1 X111.754 Y72.674 E.0144
;WIDTH:0.735742
G1 F1082.529
G1 X138.246 Y72.664 E1.67882
;WIDTH:0.797279
G1 F994.221
G1 X138.324 Y72.651 E.0054
G1 X138.491 Y72.776 E.0144
;WIDTH:0.735741
G1 F1082.532
G1 X157.231 Y91.502 E1.67881
;WIDTH:0.797278
G1 F994.223
G1 X157.295 Y91.547 E.0054
G1 X157.326 Y91.754 E.0144
;WIDTH:0.735742
G1 F1082.529
G1 X157.336 Y118.246 E1.67882
;WIDTH:0.797279
G1 F994.221
G1 X157.349 Y118.324 E.0054
;WIDTH:0.797277
G1 X157.224 Y118.491 E.0144
;WIDTH:0.735741
G1 F1082.532
G1 X138.624 Y137.092 E1.66693
; stop printing object OV-PAM_q_8.25mm_1F.stl id:0 copy 0
;LAYER_CHANGE
;Z:2.4
;HEIGHT:0.2
;BEFORE_LAYER_CHANGE
G92 E0.0
;2.4


G1 E-1 F2400
G1 Z2.4 F720
;AFTER_LAYER_CHANGE
;2.4
; printing object OV-PAM_q_8.25mm_1F.stl id:0 copy 0
G1 X138.542 Y137.026 F4200
G1 E1 F1500
;WIDTH:0.735741
G1 F1082.532
G1 X138.527 Y137.047 E.00162
;WIDTH:0.797118
G1 F994.435
G1 X138.446 Y137.166 E.00996
G1 X138.198 Y137.21 E.01733
;WIDTH:0.735742
G1 F1082.529
G1 X112.008 Y137.21 E1.65969
G1 X111.905 Y137.226 E.00661
;WIDTH:0.797118
M73 P11 R26
M73 Q11 S26
G1 F994.434
G1 X111.763 Y137.253 E.00996
G1 X111.557 Y137.109 E.01734
;WIDTH:0.735741
G1 F1082.532
