; generated by PrusaSlicer 2.5.2+win64 on 2023-10-19 at 01:24:06 UTC


;
;
; 

; external perimeters extrusion width = 0.40mm
; perimeters extrusion width = 0.40mm
; infill extrusion width = 0.40mm
; solid infill extrusion width = 0.40mm
; top infill extrusion width = 0.40mm
; first layer extrusion width = 0.40mm

M73 P0 R23
M73 Q0 S23
M201 X1000 Y1000 Z200 E5000 ; sets maximum accelerations, mm/sec^2
M203 X200 Y200 Z12 E120 ; sets maximum feedrates, mm / sec
M204 P1250 R1250 T1250 ; sets acceleration (P, T) and retract acceleration (R), mm/sec^2
M205 X8.00 Y8.00 Z0.40 E4.50 ; sets the jerk limits, mm/sec
M205 S0 T0 ; sets the minimum extruding and travel feed rate, mm/sec
M107
;TYPE:Custom
M862.3 P "MK3S" ; printer model check
M862.1 P0.4 ; nozzle diameter check
M115 U3.12.2 ; tell printer latest fw version
G90 ; use absolute coordinates
M83 ; extruder relative mode
M104 S230 ; set extruder temp
M140 S50 ; set bed temp
M190 S50 ; wait for bed temp
M109 S230 ; wait for extruder temp
G28 W ; home all without mesh bed level
G80 ; mesh bed leveling

G1 Z0.2 F720
G1 Y-3 F1000 ; go outside print area
G92 E0
G1 X60 E9 F1000 ; intro line
G1 X100 E12.5 F1000 ; intro line

G92 E0
M221 S95

; Don't change E values below. Excessive value can damage the printer.
M907 E430 ; set extruder motor current
G21 ; set units to millimeters
G90 ; use absolute coordinates
M83 ; use relative distances for extrusion
M900 K0 ; Filament gcode
M107
;LAYER_CHANGE
;Z:0.2
;HEIGHT:0.2
;BEFORE_LAYER_CHANGE
G92 E0.0
;0.2


G1 E-1 F2400
G1 Z.2 F720
;AFTER_LAYER_CHANGE
;0.2
G1 X89.234 Y88.795 F4200
G1 E1 F1500
M204 S300
;TYPE:Skirt/Brim
;WIDTH:0.4
G1 F1200
G1 X108.795 Y69.234 E.90348
G1 X110.189 Y68.397 E.05312
G1 X111.169 Y68.251 E.03234
G1 X138.831 Y68.251 E.90348
G1 X140.409 Y68.645 E.05312
G1 X141.205 Y69.234 E.03234
G1 X160.766 Y88.795 E.90348
G1 X161.603 Y90.189 E.05312
G1 X161.749 Y91.169 E.03234
G1 X161.749 Y118.831 E.90348
G1 X161.355 Y120.409 E.05312
G1 X160.766 Y121.205 E.03234
G1 X141.205 Y140.766 E.90348
G1 X139.811 Y141.603 E.05312
M73 P1 R23
M73 Q1 S23
G1 X138.831 Y141.749 E.03234
G1 X111.169 Y141.749 E.90348
G1 X109.591 Y141.355 E.05312
G1 X108.795 Y140.766 E.03234
G1 X89.234 Y121.205 E.90348
G1 X88.397 Y119.811 E.05312
G1 X88.251 Y118.831 E.03234
G1 X88.251 Y91.169 E.90348
G1 X88.645 Y89.591 E.05312
G1 X89.199 Y88.843 E.03038
; printing object OV-PAM_q_4.75mm_1F.stl id:0 copy 0
G1 E-1 F2400
G1 X158.021 Y91.226 F4200
G1 E1 F1500
;TYPE:External perimeter
;WIDTH:0.666659
G1 F1200
G1 X158.08 Y91.298 E.00527
G1 X158.092 Y91.417 E.00684
G1 X158.08 Y118.702 E1.55662
G1 X138.702 Y138.08 E1.56343
G1 X111.298 Y138.08 E1.56343
G1 X91.92 Y118.702 E1.56343
G1 X91.92 Y91.298 E1.56343
G1 X111.298 Y71.92 E1.56343
G1 X138.702 Y71.92 E1.56343
M73 P2 R23
M73 Q2 S23
G1 X157.981 Y91.182 E1.55478
G1 X158.109 Y91.197 F4200
; stop printing object OV-PAM_q_4.75mm_1F.stl id:0 copy 0
;LAYER_CHANGE
;Z:0.4
;HEIGHT:0.2
;BEFORE_LAYER_CHANGE
G92 E0.0
;0.4


G1 E-1 F2400
G1 Z.4 F720
;AFTER_LAYER_CHANGE
;0.4
G1 X161.081 Y89.321 F4200
G1 E1 F1500
;TYPE:Skirt/Brim
;WIDTH:0.4
G1 F2100.372
G1 X161.603 Y90.189 E.03309
G1 X161.749 Y91.169 E.03234
G1 X161.749 Y118.831 E.90348
G1 X161.355 Y120.409 E.05312
G1 X160.766 Y121.205 E.03234
G1 X141.205 Y140.766 E.90348
G1 X139.811 Y141.603 E.05312
G1 X138.831 Y141.749 E.03234
G1 X111.169 Y141.749 E.90348
G1 X109.591 Y141.355 E.05312
G1 X108.795 Y140.766 E.03234
G1 X89.234 Y121.205 E.90348
G1 X88.397 Y119.811 E.05312
G1 X88.251 Y118.831 E.03234
G1 X88.251 Y91.169 E.90348
G1 X88.645 Y89.591 E.05312
G1 X89.234 Y88.795 E.03234
G1 X108.795 Y69.234 E.90348
G1 X110.189 Y68.397 E.05312
G1 X111.169 Y68.251 E.03234
G1 X138.831 Y68.251 E.90348
G1 X140.409 Y68.645 E.05312
G1 X141.205 Y69.234 E.03234
G1 X160.766 Y88.795 E.90348
G1 X161.051 Y89.269 E.01807
; printing object OV-PAM_q_4.75mm_1F.stl id:0 copy 0
G1 E-1 F2400
G1 X158.137 Y91.16 F4200
G1 X158.118 Y91.136
G1 X158.017 Y91.221
G1 E1 F1500
;TYPE:External perimeter
;WIDTH:0.666659
G1 F1200
G1 X158.08 Y91.298 E.00569
G1 X158.092 Y91.417 E.00684
G1 X158.08 Y118.702 E1.55662
G1 X138.702 Y138.08 E1.56343
G1 X111.298 Y138.08 E1.56343
G1 X91.92 Y118.702 E1.56343
M73 P3 R23
M73 Q3 S23
G1 X91.92 Y91.298 E1.56343
G1 X111.298 Y71.92 E1.56343
G1 X138.702 Y71.92 E1.56343
G1 X157.976 Y91.177 E1.55435
G1 X158.111 Y91.189 F4200
; stop printing object OV-PAM_q_4.75mm_1F.stl id:0 copy 0
;LAYER_CHANGE
;Z:0.6
;HEIGHT:0.2
;BEFORE_LAYER_CHANGE
G92 E0.0
;0.6


G1 E-1 F2400
G1 Z.6 F720
;AFTER_LAYER_CHANGE
;0.6
G1 X161.078 Y89.315 F4200
G1 E1 F1500
;TYPE:Skirt/Brim
;WIDTH:0.4
G1 F2100.372
G1 X161.603 Y90.189 E.03333
G1 X161.749 Y91.169 E.03234
G1 X161.749 Y118.831 E.90348
G1 X161.355 Y120.409 E.05312
M73 P3 R22
M73 Q3 S22
G1 X160.766 Y121.205 E.03234
G1 X141.205 Y140.766 E.90348
G1 X139.811 Y141.603 E.05312
G1 X138.831 Y141.749 E.03234
G1 X111.169 Y141.749 E.90348
G1 X109.591 Y141.355 E.05312
G1 X108.795 Y140.766 E.03234
G1 X89.234 Y121.205 E.90348
G1 X88.397 Y119.811 E.05312
G1 X88.251 Y118.831 E.03234
G1 X88.251 Y91.169 E.90348
G1 X88.645 Y89.591 E.05312
G1 X89.234 Y88.795 E.03234
G1 X108.795 Y69.234 E.90348
G1 X110.189 Y68.397 E.05312
G1 X111.169 Y68.251 E.03234
G1 X138.831 Y68.251 E.90348
G1 X140.409 Y68.645 E.05312
M73 P4 R22
M73 Q4 S22
G1 X141.205 Y69.234 E.03234
G1 X160.766 Y88.795 E.90348
G1 X161.047 Y89.263 E.01784
; printing object OV-PAM_q_4.75mm_1F.stl id:0 copy 0
G1 E-1 F2400
G1 X158.133 Y91.154 F4200
G1 X158.113 Y91.13
G1 X158.012 Y91.214
G1 E1 F1500
;TYPE:External perimeter
;WIDTH:0.666659
G1 F1200
G1 X158.08 Y91.298 E.00617
G1 X158.092 Y91.417 E.00684
G1 X158.08 Y118.702 E1.55662
G1 X138.702 Y138.08 E1.56343
G1 X111.298 Y138.08 E1.56343
G1 X91.92 Y118.702 E1.56343
G1 X91.92 Y91.298 E1.56343
G1 X111.298 Y71.92 E1.56343
G1 X138.702 Y71.92 E1.56343
G1 X157.97 Y91.171 E1.55388
G1 X158.114 Y91.179 F4200
; stop printing object OV-PAM_q_4.75mm_1F.stl id:0 copy 0
;LAYER_CHANGE
;Z:0.8
;HEIGHT:0.2
;BEFORE_LAYER_CHANGE
G92 E0.0
;0.8


G1 E-1 F2400
G1 Z.8 F720
;AFTER_LAYER_CHANGE
;0.8
; printing object OV-PAM_q_4.75mm_1F.stl id:0 copy 0
G1 X158.006 Y91.207 F4200
G1 E1 F1500
G1 F1200
G1 X158.08 Y91.298 E.00669
G1 X158.092 Y91.417 E.00684
G1 X158.08 Y118.702 E1.55662
G1 X138.702 Y138.08 E1.56343
G1 X111.298 Y138.08 E1.56343
M73 P5 R22
M73 Q5 S22
G1 X91.92 Y118.702 E1.56343
G1 X91.92 Y91.298 E1.56343
G1 X111.298 Y71.92 E1.56343
G1 X138.702 Y71.92 E1.56343
G1 X157.963 Y91.164 E1.55335
G1 X158.117 Y91.169 F4200
; stop printing object OV-PAM_q_4.75mm_1F.stl id:0 copy 0
;LAYER_CHANGE
;Z:1
;HEIGHT:0.2
;BEFORE_LAYER_CHANGE
G92 E0.0
;1


G1 E-1 F2400
G1 Z1 F720
;AFTER_LAYER_CHANGE
;1
; printing object OV-PAM_q_4.75mm_1F.stl id:0 copy 0
G1 X157.996 Y91.197 F4200
G1 E1 F1500
G1 F1200
G1 X158.08 Y91.298 E.00751
G1 X158.092 Y91.417 E.00684
G1 X158.08 Y118.702 E1.55662
G1 X138.702 Y138.08 E1.56343
G1 X111.298 Y138.08 E1.56343
G1 X91.92 Y118.702 E1.56343
G1 X91.92 Y91.298 E1.56343
M73 P6 R22
M73 Q6 S22
G1 X111.298 Y71.92 E1.56343
G1 X138.702 Y71.92 E1.56343
G1 X157.953 Y91.154 E1.55253
G1 X158.12 Y91.154 F4200
; stop printing object OV-PAM_q_4.75mm_1F.stl id:0 copy 0
;LAYER_CHANGE
;Z:1.2
;HEIGHT:0.2
;BEFORE_LAYER_CHANGE
G92 E0.0
;1.2


G1 E-1 F2400
G1 Z1.2 F720
;AFTER_LAYER_CHANGE
;1.2
; printing object OV-PAM_q_4.75mm_1F.stl id:0 copy 0
G1 X157.983 Y91.187 F4200
G1 E1 F1500
;WIDTH:0.670967
G1 F1194.179
G1 X158.078 Y91.299 E.00843
G1 X158.09 Y91.419 E.00694
G1 X158.078 Y118.701 E1.56723
G1 X138.701 Y138.078 E1.57413
G1 X111.299 Y138.078 E1.57413
G1 X91.922 Y118.701 E1.57413
G1 X91.922 Y91.299 E1.57413
G1 X111.299 Y71.922 E1.57413
G1 X138.701 Y71.922 E1.57413
M73 P7 R22
M73 Q7 S22
G1 X157.94 Y91.144 E1.56228
G1 X158.121 Y91.138 F4200
; stop printing object OV-PAM_q_4.75mm_1F.stl id:0 copy 0
;LAYER_CHANGE
;Z:1.4
;HEIGHT:0.2
;BEFORE_LAYER_CHANGE
G92 E0.0
;1.4


G1 E-1 F2400
G1 Z1.4 F720
;AFTER_LAYER_CHANGE
;1.4
; printing object OV-PAM_q_4.75mm_1F.stl id:0 copy 0
G1 X157.821 Y91.289 F4200
G1 E1 F1500
;WIDTH:0.523073
G1 F1200
G1 X157.894 Y91.375 E.00495
G1 X157.903 Y91.467 E.00405
G1 X157.894 Y118.625 E1.19273
G1 X138.625 Y137.894 E1.19676
G1 X111.375 Y137.894 E1.19676
G1 X92.106 Y118.625 E1.19676
G1 X92.106 Y91.375 E1.19676
G1 X111.375 Y72.106 E1.19676
G1 X138.625 Y72.106 E1.19676
M73 P7 R21
M73 Q7 S21
G1 X157.779 Y91.247 E1.1892
G1 X157.927 Y91.252 F4200
; stop printing object OV-PAM_q_4.75mm_1F.stl id:0 copy 0
;LAYER_CHANGE
;Z:1.6
;HEIGHT:0.2
;BEFORE_LAYER_CHANGE
G92 E0.0
;1.6


M73 P8 R21
M73 Q8 S21
G1 E-1 F2400
G1 Z1.6 F720
;AFTER_LAYER_CHANGE
;1.6
; printing object OV-PAM_q_4.75mm_1F.stl id:0 copy 0
G1 X157.709 Y91.34 F4200
G1 E1 F1500
;WIDTH:0.523075
G1 F1200
G1 X157.779 Y91.423 E.00476
G1 X157.788 Y91.515 E.00405
G1 X157.779 Y118.577 E1.18853
G1 X138.577 Y137.779 E1.19257
G1 X111.423 Y137.779 E1.19257
G1 X92.221 Y118.577 E1.19257
G1 X92.221 Y91.423 E1.19257
G1 X111.423 Y72.221 E1.19257
G1 X138.577 Y72.221 E1.19257
G1 X157.666 Y91.297 E1.18519
G1 X157.811 Y91.304 F4200
; stop printing object OV-PAM_q_4.75mm_1F.stl id:0 copy 0
;LAYER_CHANGE
;Z:1.8
;HEIGHT:0.2
;BEFORE_LAYER_CHANGE
G92 E0.0
;1.8


G1 E-1 F2400
G1 Z1.8 F720
;AFTER_LAYER_CHANGE
;1.8
; printing object OV-PAM_q_4.75mm_1F.stl id:0 copy 0
G1 X157.596 Y91.39 F4200
G1 E1 F1500
;WIDTH:0.523074
G1 F1200
G1 X157.663 Y91.47 E.00462
G1 X157.672 Y91.562 E.00405
G1 X157.663 Y118.53 E1.18433
G1 X138.53 Y137.663 E1.18836
G1 X111.47 Y137.663 E1.18836
M73 P9 R21
M73 Q9 S21
G1 X92.337 Y118.53 E1.18836
G1 X92.337 Y91.47 E1.18836
G1 X111.47 Y72.337 E1.18836
G1 X138.53 Y72.337 E1.18836
G1 X157.553 Y91.348 E1.18113
G1 X157.695 Y91.355 F4200
; stop printing object OV-PAM_q_4.75mm_1F.stl id:0 copy 0
;LAYER_CHANGE
;Z:2
;HEIGHT:0.2
;BEFORE_LAYER_CHANGE
G92 E0.0
;2


G1 E-1 F2400
G1 Z2 F720
;AFTER_LAYER_CHANGE
;2
; printing object OV-PAM_q_4.75mm_1F.stl id:0 copy 0
G1 X157.481 Y91.439 F4200
G1 E1 F1500
;WIDTH:0.523183
G1 F1200
G1 X157.548 Y91.518 E.00452
G1 X157.557 Y91.61 E.00407
G1 X157.548 Y118.481 E1.18038
G1 X138.482 Y137.548 E1.18443
G1 X111.519 Y137.548 E1.18443
G1 X92.452 Y118.482 E1.18443
G1 X92.452 Y91.519 E1.18443
G1 X111.518 Y72.452 E1.18443
M73 P10 R21
M73 Q10 S21
G1 X138.481 Y72.452 E1.18443
G1 X157.439 Y91.397 E1.17729
G1 X157.462 Y91.54 F4200
; stop printing object OV-PAM_q_4.75mm_1F.stl id:0 copy 0
;LAYER_CHANGE
;Z:2.2
;HEIGHT:0.2
;BEFORE_LAYER_CHANGE
G92 E0.0
;2.2


G1 E-1 F2400
G1 Z2.2 F720
;AFTER_LAYER_CHANGE
;2.2
; printing object OV-PAM_q_4.75mm_1F.stl id:0 copy 0
G1 X157.366 Y91.488 F4200
G1 E1 F1500
;WIDTH:0.524691
G1 F1200
G1 X157.431 Y91.562 E.00436
G1 X157.441 Y91.658 E.00425
G1 X157.434 Y118.43 E1.17974
G1 X138.438 Y137.431 E1.18396
G1 X111.57 Y137.434 E1.18396
G1 X92.569 Y118.438 E1.18396
G1 X92.566 Y91.57 E1.18396
G1 X111.562 Y72.569 E1.18396
G1 X138.43 Y72.566 E1.18396
G1 X157.324 Y91.445 E1.17697
M73 P11 R21
M73 Q11 S21
G1 X157.349 Y91.585 F4200
; stop printing object OV-PAM_q_4.75mm_1F.stl id:0 copy 0
;LAYER_CHANGE
;Z:2.4
;HEIGHT:0.2
;BEFORE_LAYER_CHANGE
G92 E0.0
;2.4


G1 E-1 F2400
G1 Z2.4 F720
;AFTER_LAYER_CHANGE
;2.4
; printing object OV-PAM_q_4.75mm_1F.stl id:0 copy 0
G1 X157.251 Y91.535 F4200
G1 E1 F1500
;WIDTH:0.527714
G1 F1200
G1 X157.314 Y91.603 E.00413
G1 X157.326 Y91.706 E.00459
G1 X157.323 Y118.377 E1.18263
G1 X138.397 Y137.314 E1.18719
G1 X111.623 Y137.323 E1.18719
G1 X92.686 Y118.397 E1.18719
G1 X92.677 Y91.623 E1.18719
G1 X111.603 Y72.686 E1.18719
G1 X138.377 Y72.677 E1.18719
G1 X157.208 Y91.493 E1.1804
G1 X157.237 Y91.627 F4200
; stop printing object OV-PAM_q_4.75mm_1F.stl id:0 copy 0
;LAYER_CHANGE
;Z:2.6
;HEIGHT:0.2
;BEFORE_LAYER_CHANGE
G92 E0.0
;2.6


G1 E-1 F2400
G1 Z2.6 F720
;AFTER_LAYER_CHANGE
;2.6
; printing object OV-PAM_q_4.75mm_1F.stl id:0 copy 0
G1 X157.129 Y91.577 F4200
G1 E1 F1500
;WIDTH:0.532141
G1 F1200
G1 X157.197 Y91.641 E.00418
G1 X157.21 Y91.754 E.00507
G1 X157.213 Y118.32 E1.18878
G1 X157.143 Y118.41 E.00507
M73 P12 R21
M73 Q12 S21
G1 X138.359 Y137.197 E1.18878
G1 X138.246 Y137.21 E.00507
M73 P12 R20
M73 Q12 S20
G1 X111.68 Y137.213 E1.18878
G1 X111.59 Y137.143 E.00507
G1 X92.803 Y118.359 E1.18878
G1 X92.79 Y118.246 E.00507
G1 X92.787 Y91.68 E1.18878
G1 X92.857 Y91.59 E.00507
G1 X111.641 Y72.803 E1.18878
G1 X111.754 Y72.79 E.00507
G1 X138.32 Y72.787 E1.18878
G1 X138.41 Y72.857 E.00507
G1 X157.087 Y91.534 E1.18191
G1 X157.106 Y91.667 F4200
; stop printing object OV-PAM_q_4.75mm_1F.stl id:0 copy 0
;LAYER_CHANGE
;Z:2.8
;HEIGHT:0.2
;BEFORE_LAYER_CHANGE
G92 E0.0
;2.8


G1 E-1 F2400
G1 Z2.8 F720
;AFTER_LAYER_CHANGE
;2.8
; printing object OV-PAM_q_4.75mm_1F.stl id:0 copy 0
G1 X157 Y91.61 F4200
G1 E1 F1500
;WIDTH:0.537949
G1 F1200
G1 X157.078 Y91.678 E.0047
G1 X157.095 Y91.802 E.00565
G1 X157.103 Y118.263 E1.1981
G1 X157.027 Y118.362 E.00565
G1 X138.322 Y137.078 E1.1981
G1 X138.198 Y137.095 E.00565
G1 X111.737 Y137.103 E1.1981
G1 X111.638 Y137.027 E.00565
G1 X92.922 Y118.322 E1.1981
G1 X92.905 Y118.198 E.00565
M73 P13 R20
M73 Q13 S20
G1 X92.897 Y91.737 E1.1981
G1 X92.973 Y91.638 E.00565
G1 X111.678 Y72.922 E1.1981
G1 X111.802 Y72.905 E.00565
G1 X138.263 Y72.897 E1.1981
G1 X138.362 Y72.973 E.00565
G1 X156.957 Y91.568 E1.1907
G1 X156.978 Y91.712 F4200
; stop printing object OV-PAM_q_4.75mm_1F.stl id:0 copy 0
;LAYER_CHANGE
;Z:3
;HEIGHT:0.2
;BEFORE_LAYER_CHANGE
G92 E0.0
;3


G1 E-1 F2400
G1 Z3 F720
;AFTER_LAYER_CHANGE
;3
; printing object OV-PAM_q_4.75mm_1F.stl id:0 copy 0
G1 X156.87 Y91.642 F4200
G1 E1 F1500
;WIDTH:0.545153
G1 F1200
G1 X156.959 Y91.713 E.00523
G1 X156.979 Y91.849 E.00634
G1 X156.979 Y118.076 E1.20475
G1 X156.994 Y118.203 E.0059
G1 X156.912 Y118.314 E.00634
G1 X138.367 Y136.859 E1.20475
G1 X138.287 Y136.959 E.0059
G1 X138.151 Y136.979 E.00634
G1 X111.924 Y136.979 E1.20475
G1 X111.797 Y136.994 E.0059
G1 X111.686 Y136.912 E.00634
G1 X93.141 Y118.367 E1.20475
G1 X93.041 Y118.287 E.0059
G1 X93.021 Y118.151 E.00634
G1 X93.021 Y91.924 E1.20475
G1 X93.006 Y91.797 E.0059
G1 X93.088 Y91.686 E.00634
G1 X111.633 Y73.141 E1.20475
G1 X111.713 Y73.041 E.0059
G1 X111.849 Y73.021 E.00634
G1 X138.076 Y73.021 E1.20475
G1 X138.203 Y73.006 E.0059
M73 P14 R20
M73 Q14 S20
G1 X138.314 Y73.088 E.00634
G1 X156.827 Y91.601 E1.20266
G1 X156.849 Y91.754 F4200
; stop printing object OV-PAM_q_4.75mm_1F.stl id:0 copy 0
;LAYER_CHANGE
;Z:3.2
;HEIGHT:0.2
;BEFORE_LAYER_CHANGE
G92 E0.0
;3.2


G1 E-1 F2400
G1 Z3.2 F720
;AFTER_LAYER_CHANGE
;3.2
; printing object OV-PAM_q_4.75mm_1F.stl id:0 copy 0
G1 X156.739 Y91.673 F4200
G1 E1 F1500
;WIDTH:0.553762
G1 F1200
G1 X156.839 Y91.747 E.00581
G1 X156.864 Y91.897 E.00712
G1 X156.864 Y117.996 E1.21947
G1 X156.885 Y118.142 E.0069
G1 X156.796 Y118.266 E.00712
G1 X138.341 Y136.721 E1.21947
G1 X138.253 Y136.839 E.0069
G1 X138.103 Y136.864 E.00712
G1 X112.004 Y136.864 E1.21947
G1 X111.858 Y136.885 E.0069
G1 X111.734 Y136.796 E.00712
G1 X93.279 Y118.341 E1.21947
G1 X93.161 Y118.253 E.0069
G1 X93.136 Y118.103 E.00712
G1 X93.136 Y92.004 E1.21947
G1 X93.115 Y91.858 E.0069
G1 X93.204 Y91.734 E.00712
G1 X111.659 Y73.279 E1.21947
G1 X111.747 Y73.161 E.0069
G1 X111.897 Y73.136 E.00712
G1 X137.996 Y73.136 E1.21947
G1 X138.142 Y73.115 E.0069
G1 X138.266 Y73.204 E.00712
G1 X156.695 Y91.633 E1.21776
G1 X156.72 Y91.796 F4200
; stop printing object OV-PAM_q_4.75mm_1F.stl id:0 copy 0
;LAYER_CHANGE
;Z:3.4
;HEIGHT:0.2
;BEFORE_LAYER_CHANGE
G92 E0.0
;3.4


G1 E-1 F2400
G1 Z3.4 F720
;AFTER_LAYER_CHANGE
;3.4
; printing object OV-PAM_q_4.75mm_1F.stl id:0 copy 0
G1 X156.608 Y91.703 F4200
G1 E1 F1500
;WIDTH:0.504801
G1 F1200
G1 X156.695 Y91.767 E.00458
;WIDTH:0.563773
G1 X156.719 Y91.78 E.00128
G1 X156.749 Y91.945 E.00799
;WIDTH:0.5048
G1 X156.749 Y117.917 E1.09723
G1 X156.769 Y118.055 E.00588
;WIDTH:0.563772
M73 P15 R20
M73 Q15 S20
G1 X156.777 Y118.081 E.00128
;WIDTH:0.563774
G1 X156.681 Y118.218 E.00799
;WIDTH:0.504801
G1 X138.316 Y136.583 E1.09723
G1 X138.233 Y136.695 E.00588
;WIDTH:0.563773
G1 X138.22 Y136.719 E.00128
G1 X138.055 Y136.749 E.00799
;WIDTH:0.5048
G1 X112.083 Y136.749 E1.09723
G1 X111.945 Y136.769 E.00588
;WIDTH:0.563772
G1 X111.919 Y136.777 E.00128
G1 X111.782 Y136.681 E.00799
;WIDTH:0.504801
