; generated by PrusaSlicer 2.5.2+win64 on 2023-10-19 at 01:24:24 UTC


;
;
; 

; external perimeters extrusion width = 0.40mm
; perimeters extrusion width = 0.40mm
; infill extrusion width = 0.40mm
; solid infill extrusion width = 0.40mm
; top infill extrusion width = 0.40mm
; first layer extrusion width = 0.40mm

M73 P0 R24
M73 Q0 S24
M201 X1000 Y1000 Z200 E5000 ; sets maximum accelerations, mm/sec^2
M203 X200 Y200 Z12 E120 ; sets maximum feedrates, mm / sec
M204 P1250 R1250 T1250 ; sets acceleration (P, T) and retract acceleration (R), mm/sec^2
M205 X8.00 Y8.00 Z0.40 E4.50 ; sets the jerk limits, mm/sec
M205 S0 T0 ; sets the minimum extruding and travel feed rate, mm/sec
M107
;TYPE:Custom
M862.3 P "MK3S" ; printer model check
M862.1 P0.4 ; nozzle diameter check
M115 U3.12.2 ; tell printer latest fw version
G90 ; use absolute coordinates
M83 ; extruder relative mode
M104 S230 ; set extruder temp
M140 S50 ; set bed temp
M190 S50 ; wait for bed temp
M109 S230 ; wait for extruder temp
G28 W ; home all without mesh bed level
G80 ; mesh bed leveling

G1 Z0.2 F720
G1 Y-3 F1000 ; go outside print area
G92 E0
G1 X60 E9 F1000 ; intro line
G1 X100 E12.5 F1000 ; intro line

G92 E0
M221 S95

; Don't change E values below. Excessive value can damage the printer.
M907 E430 ; set extruder motor current
G21 ; set units to millimeters
G90 ; use absolute coordinates
M83 ; use relative distances for extrusion
M900 K0 ; Filament gcode
M107
;LAYER_CHANGE
;Z:0.2
;HEIGHT:0.2
;BEFORE_LAYER_CHANGE
G92 E0.0
;0.2


G1 E-1 F2400
G1 Z.2 F720
;AFTER_LAYER_CHANGE
;0.2
G1 X89.234 Y88.795 F4200
G1 E1 F1500
M204 S300
;TYPE:Skirt/Brim
;WIDTH:0.4
G1 F1200
G1 X108.795 Y69.234 E.90348
G1 X110.189 Y68.397 E.05312
G1 X111.169 Y68.251 E.03234
G1 X138.831 Y68.251 E.90348
G1 X140.409 Y68.645 E.05312
G1 X141.205 Y69.234 E.03234
G1 X160.766 Y88.795 E.90348
G1 X161.603 Y90.189 E.05312
G1 X161.749 Y91.169 E.03234
G1 X161.749 Y118.831 E.90348
G1 X161.355 Y120.409 E.05312
G1 X160.766 Y121.205 E.03234
G1 X141.205 Y140.766 E.90348
G1 X139.811 Y141.603 E.05312
M73 P1 R24
M73 Q1 S24
G1 X138.831 Y141.749 E.03234
G1 X111.169 Y141.749 E.90348
G1 X109.591 Y141.355 E.05312
G1 X108.795 Y140.766 E.03234
G1 X89.234 Y121.205 E.90348
G1 X88.397 Y119.811 E.05312
G1 X88.251 Y118.831 E.03234
G1 X88.251 Y91.169 E.90348
G1 X88.645 Y89.591 E.05312
G1 X89.199 Y88.843 E.03038
; printing object OV-PAM_q_6.5mm_1F.stl id:0 copy 0
G1 E-1 F2400
G1 X158.084 Y118.666 F4200
G1 E1 F1500
;TYPE:External perimeter
;WIDTH:0.666659
G1 F1200
G1 X158.08 Y118.702 E.00209
G1 X158.004 Y118.795 E.00684
G1 X138.702 Y138.08 E1.55663
G1 X111.298 Y138.08 E1.56343
G1 X91.92 Y118.702 E1.56343
G1 X91.92 Y91.298 E1.56343
G1 X111.298 Y71.92 E1.56343
G1 X138.702 Y71.92 E1.56343
G1 X158.08 Y91.298 E1.56343
G1 X158.09 Y118.606 E1.55794
M73 P2 R24
M73 Q2 S24
G1 X158.117 Y118.682 F4200
; stop printing object OV-PAM_q_6.5mm_1F.stl id:0 copy 0
;LAYER_CHANGE
;Z:0.4
;HEIGHT:0.2
;BEFORE_LAYER_CHANGE
G92 E0.0
;0.4


G1 E-1 F2400
G1 Z.4 F720
;AFTER_LAYER_CHANGE
;0.4
G1 X161.587 Y119.479 F4200
G1 E1 F1500
;TYPE:Skirt/Brim
;WIDTH:0.4
G1 F2100.372
G1 X161.355 Y120.409 E.03131
G1 X160.766 Y121.205 E.03234
G1 X141.205 Y140.766 E.90348
G1 X139.811 Y141.603 E.05312
G1 X138.831 Y141.749 E.03234
G1 X111.169 Y141.749 E.90348
G1 X109.591 Y141.355 E.05312
G1 X108.795 Y140.766 E.03234
G1 X89.234 Y121.205 E.90348
G1 X88.397 Y119.811 E.05312
G1 X88.251 Y118.831 E.03234
G1 X88.251 Y91.169 E.90348
G1 X88.645 Y89.591 E.05312
G1 X89.234 Y88.795 E.03234
G1 X108.795 Y69.234 E.90348
G1 X110.189 Y68.397 E.05312
G1 X111.169 Y68.251 E.03234
G1 X138.831 Y68.251 E.90348
G1 X140.409 Y68.645 E.05312
G1 X141.205 Y69.234 E.03234
G1 X160.766 Y88.795 E.90348
G1 X161.603 Y90.189 E.05312
G1 X161.749 Y91.169 E.03234
G1 X161.749 Y118.831 E.90348
G1 X161.602 Y119.421 E.01985
; printing object OV-PAM_q_6.5mm_1F.stl id:0 copy 0
G1 E-1 F2400
G1 X157.958 Y118.652 F4200
G1 X157.958 Y118.652
G1 X157.958 Y118.648
G1 X158.085 Y118.648
G1 E1 F1500
;TYPE:External perimeter
;WIDTH:0.666659
G1 F1200
G1 X158.08 Y118.702 E.0031
G1 X158.004 Y118.795 E.00684
G1 X138.702 Y138.08 E1.55663
G1 X111.298 Y138.08 E1.56343
G1 X91.92 Y118.702 E1.56343
G1 X91.92 Y91.298 E1.56343
G1 X111.298 Y71.92 E1.56343
M73 P3 R23
M73 Q3 S23
G1 X138.702 Y71.92 E1.56343
G1 X158.08 Y91.298 E1.56343
G1 X158.091 Y118.588 E1.55695
G1 X158.134 Y118.672 F4200
; stop printing object OV-PAM_q_6.5mm_1F.stl id:0 copy 0
;LAYER_CHANGE
;Z:0.6
;HEIGHT:0.2
;BEFORE_LAYER_CHANGE
G92 E0.0
;0.6


G1 E-1 F2400
G1 Z.6 F720
;AFTER_LAYER_CHANGE
;0.6
G1 X161.591 Y119.462 F4200
G1 E1 F1500
;TYPE:Skirt/Brim
;WIDTH:0.4
G1 F2100.372
G1 X161.355 Y120.409 E.03188
G1 X160.766 Y121.205 E.03234
G1 X141.205 Y140.766 E.90348
G1 X139.811 Y141.603 E.05312
G1 X138.831 Y141.749 E.03234
G1 X111.169 Y141.749 E.90348
G1 X109.591 Y141.355 E.05312
G1 X108.795 Y140.766 E.03234
G1 X89.234 Y121.205 E.90348
G1 X88.397 Y119.811 E.05312
G1 X88.251 Y118.831 E.03234
G1 X88.251 Y91.169 E.90348
G1 X88.645 Y89.591 E.05312
G1 X89.234 Y88.795 E.03234
G1 X108.795 Y69.234 E.90348
G1 X110.189 Y68.397 E.05312
G1 X111.169 Y68.251 E.03234
G1 X138.831 Y68.251 E.90348
G1 X140.409 Y68.645 E.05312
G1 X141.205 Y69.234 E.03234
G1 X160.766 Y88.795 E.90348
G1 X161.603 Y90.189 E.05312
G1 X161.749 Y91.169 E.03234
G1 X161.749 Y118.831 E.90348
G1 X161.606 Y119.404 E.01928
; printing object OV-PAM_q_6.5mm_1F.stl id:0 copy 0
G1 E-1 F2400
G1 X157.958 Y118.652 F4200
G1 X157.958 Y118.652
G1 X157.958 Y118.629
G1 X158.087 Y118.629
G1 E1 F1500
;TYPE:External perimeter
;WIDTH:0.666659
G1 F1200
G1 X158.08 Y118.702 E.0042
G1 X158.004 Y118.795 E.00684
G1 X138.702 Y138.08 E1.55663
G1 X111.298 Y138.08 E1.56343
M73 P4 R23
M73 Q4 S23
G1 X91.92 Y118.702 E1.56343
G1 X91.92 Y91.298 E1.56343
G1 X111.298 Y71.92 E1.56343
G1 X138.702 Y71.92 E1.56343
G1 X158.08 Y91.298 E1.56343
G1 X158.092 Y118.569 E1.55585
G1 X158.153 Y118.662 F4200
; stop printing object OV-PAM_q_6.5mm_1F.stl id:0 copy 0
;LAYER_CHANGE
;Z:0.8
;HEIGHT:0.2
;BEFORE_LAYER_CHANGE
G92 E0.0
;0.8


G1 E-1 F2400
G1 Z.8 F720
;AFTER_LAYER_CHANGE
;0.8
; printing object OV-PAM_q_6.5mm_1F.stl id:0 copy 0
G1 X158.089 Y118.608 F4200
G1 E1 F1500
G1 F1200
G1 X158.08 Y118.702 E.00539
G1 X158.004 Y118.795 E.00684
G1 X138.702 Y138.08 E1.55663
G1 X111.298 Y138.08 E1.56343
G1 X91.92 Y118.702 E1.56343
G1 X91.92 Y91.298 E1.56343
M73 P5 R23
M73 Q5 S23
G1 X111.298 Y71.92 E1.56343
G1 X138.702 Y71.92 E1.56343
G1 X158.08 Y91.298 E1.56343
G1 X158.092 Y118.548 E1.55466
G1 X158.174 Y118.65 F4200
; stop printing object OV-PAM_q_6.5mm_1F.stl id:0 copy 0
;LAYER_CHANGE
;Z:1
;HEIGHT:0.2
;BEFORE_LAYER_CHANGE
G92 E0.0
;1


G1 E-1 F2400
G1 Z1 F720
;AFTER_LAYER_CHANGE
;1
; printing object OV-PAM_q_6.5mm_1F.stl id:0 copy 0
G1 X158.092 Y118.586 F4200
G1 E1 F1500
G1 F1200
G1 X158.08 Y118.702 E.00667
G1 X158.004 Y118.795 E.00684
G1 X138.702 Y138.08 E1.55663
G1 X111.298 Y138.08 E1.56343
G1 X91.92 Y118.702 E1.56343
G1 X91.92 Y91.298 E1.56343
G1 X111.298 Y71.92 E1.56343
G1 X138.702 Y71.92 E1.56343
G1 X158.08 Y91.298 E1.56343
M73 P6 R23
M73 Q6 S23
G1 X158.092 Y118.526 E1.55338
G1 X158.196 Y118.638 F4200
; stop printing object OV-PAM_q_6.5mm_1F.stl id:0 copy 0
;LAYER_CHANGE
;Z:1.2
;HEIGHT:0.2
;BEFORE_LAYER_CHANGE
G92 E0.0
;1.2


G1 E-1 F2400
G1 Z1.2 F720
;AFTER_LAYER_CHANGE
;1.2
; printing object OV-PAM_q_6.5mm_1F.stl id:0 copy 0
G1 X158.09 Y118.552 F4200
G1 E1 F1500
;WIDTH:0.670967
G1 F1194.179
G1 X158.078 Y118.701 E.0086
G1 X158.001 Y118.795 E.00694
G1 X138.701 Y138.078 E1.56723
G1 X111.299 Y138.078 E1.57413
G1 X91.922 Y118.701 E1.57413
G1 X91.922 Y91.299 E1.57413
G1 X111.299 Y71.922 E1.57413
G1 X138.701 Y71.922 E1.57413
G1 X158.078 Y91.299 E1.57413
G1 X158.09 Y118.492 E1.56211
G1 X158.225 Y118.617 F4200
; stop printing object OV-PAM_q_6.5mm_1F.stl id:0 copy 0
;LAYER_CHANGE
;Z:1.4
;HEIGHT:0.2
;BEFORE_LAYER_CHANGE
G92 E0.0
;1.4


G1 E-1 F2400
G1 Z1.4 F720
;AFTER_LAYER_CHANGE
;1.4
; printing object OV-PAM_q_6.5mm_1F.stl id:0 copy 0
G1 X157.903 Y118.497 F4200
G1 E1 F1500
;WIDTH:0.523074
M73 P7 R23
M73 Q7 S23
G1 F1200
G1 X157.894 Y118.625 E.00565
G1 X157.836 Y118.697 E.00405
G1 X138.625 Y137.894 E1.19273
G1 X111.375 Y137.894 E1.19677
M73 P7 R22
M73 Q7 S22
G1 X92.106 Y118.625 E1.19677
G1 X92.106 Y91.375 E1.19677
G1 X111.375 Y72.106 E1.19677
G1 X138.625 Y72.106 E1.19677
G1 X157.894 Y91.375 E1.19677
G1 X157.903 Y118.437 E1.18849
G1 X158.02 Y118.552 F4200
; stop printing object OV-PAM_q_6.5mm_1F.stl id:0 copy 0
;LAYER_CHANGE
;Z:1.6
;HEIGHT:0.2
;BEFORE_LAYER_CHANGE
G92 E0.0
;1.6


G1 E-1 F2400
G1 Z1.6 F720
;AFTER_LAYER_CHANGE
;1.6
; printing object OV-PAM_q_6.5mm_1F.stl id:0 copy 0
G1 X157.788 Y118.44 F4200
G1 E1 F1500
G1 F1200
G1 X157.779 Y118.577 E.00605
G1 X157.72 Y118.649 E.00405
G1 X138.577 Y137.779 E1.18853
G1 X111.423 Y137.779 E1.19256
G1 X92.221 Y118.577 E1.19256
G1 X92.221 Y91.423 E1.19256
M73 P8 R22
M73 Q8 S22
G1 X111.423 Y72.221 E1.19256
G1 X138.577 Y72.221 E1.19256
G1 X157.779 Y91.423 E1.19256
G1 X157.788 Y118.38 E1.1839
G1 X157.912 Y118.498 F4200
; stop printing object OV-PAM_q_6.5mm_1F.stl id:0 copy 0
;LAYER_CHANGE
;Z:1.8
;HEIGHT:0.2
;BEFORE_LAYER_CHANGE
G92 E0.0
;1.8


G1 E-1 F2400
G1 Z1.8 F720
;AFTER_LAYER_CHANGE
;1.8
; printing object OV-PAM_q_6.5mm_1F.stl id:0 copy 0
G1 X157.672 Y118.382 F4200
G1 E1 F1500
;WIDTH:0.525522
G1 F1200
G1 X157.666 Y118.524 E.0063
G1 X157.605 Y118.601 E.00434
G1 X138.535 Y137.662 E1.19014
G1 X111.476 Y137.666 E1.19446
G1 X92.338 Y118.535 E1.19446
G1 X92.334 Y91.476 E1.19446
G1 X111.465 Y72.338 E1.19446
G1 X138.524 Y72.334 E1.19446
G1 X157.662 Y91.465 E1.19446
M73 P9 R22
M73 Q9 S22
G1 X157.672 Y118.322 E1.18552
G1 X157.557 Y118.466 F4200
; stop printing object OV-PAM_q_6.5mm_1F.stl id:0 copy 0
;LAYER_CHANGE
;Z:2
;HEIGHT:0.2
;BEFORE_LAYER_CHANGE
G92 E0.0
;2


G1 E-1 F2400
G1 Z2 F720
;AFTER_LAYER_CHANGE
;2
; printing object OV-PAM_q_6.5mm_1F.stl id:0 copy 0
G1 X157.557 Y118.311 F4200
G1 E1 F1500
;WIDTH:0.533504
G1 F1200
G1 X157.56 Y118.462 E.00674
G1 X157.489 Y118.553 E.00521
G1 X138.505 Y137.542 E1.20486
G1 X138.39 Y137.557 E.00521
G1 X111.538 Y137.56 E1.20486
G1 X111.447 Y137.489 E.00521
G1 X92.458 Y118.505 E1.20486
G1 X92.443 Y118.39 E.00521
G1 X92.44 Y91.538 E1.20486
G1 X92.511 Y91.447 E.00521
G1 X111.495 Y72.458 E1.20486
G1 X111.61 Y72.443 E.00521
G1 X138.462 Y72.44 E1.20486
G1 X138.553 Y72.511 E.00521
G1 X157.542 Y91.495 E1.20486
G1 X157.557 Y91.61 E.00521
G1 X157.557 Y118.251 E1.19543
G1 X157.428 Y118.389 F4200
; stop printing object OV-PAM_q_6.5mm_1F.stl id:0 copy 0
;LAYER_CHANGE
;Z:2.2
;HEIGHT:0.2
;BEFORE_LAYER_CHANGE
G92 E0.0
;2.2


G1 E-1 F2400
G1 Z2.2 F720
;AFTER_LAYER_CHANGE
;2.2
; printing object OV-PAM_q_6.5mm_1F.stl id:0 copy 0
G1 X157.441 Y118.218 F4200
M73 P10 R22
M73 Q10 S22
G1 E1 F1500
;WIDTH:0.546667
G1 F1200
G1 X157.457 Y118.392 E.00805
G1 X157.374 Y118.505 E.00648
G1 X138.563 Y137.316 E1.22574
G1 X138.481 Y137.42 E.00609
G1 X138.342 Y137.441 E.00648
G1 X111.739 Y137.441 E1.22574
G1 X111.608 Y137.457 E.00609
G1 X111.495 Y137.374 E.00648
G1 X92.684 Y118.563 E1.22574
G1 X92.58 Y118.481 E.00609
G1 X92.559 Y118.342 E.00648
G1 X92.559 Y91.739 E1.22574
G1 X92.543 Y91.608 E.00609
G1 X92.626 Y91.495 E.00648
G1 X111.437 Y72.684 E1.22574
G1 X111.519 Y72.58 E.00609
G1 X111.658 Y72.559 E.00648
G1 X138.261 Y72.559 E1.22574
G1 X138.392 Y72.543 E.00609
G1 X138.505 Y72.626 E.00648
G1 X157.316 Y91.437 E1.22574
G1 X157.42 Y91.519 E.00609
G1 X157.441 Y91.658 E.00648
G1 X157.441 Y118.158 E1.221
G1 X157.296 Y118.315 F4200
; stop printing object OV-PAM_q_6.5mm_1F.stl id:0 copy 0
;LAYER_CHANGE
;Z:2.4
;HEIGHT:0.2
;BEFORE_LAYER_CHANGE
G92 E0.0
;2.4


G1 E-1 F2400
G1 Z2.4 F720
;AFTER_LAYER_CHANGE
;2.4
; printing object OV-PAM_q_6.5mm_1F.stl id:0 copy 0
G1 X157.333 Y118.201 F4200
G1 E1 F1500
;WIDTH:0.504802
G1 F1200
G1 X157.348 Y118.294 E.00396
;WIDTH:0.565059
G1 X157.355 Y118.318 E.0012
;WIDTH:0.565058
G1 X157.258 Y118.457 E.0081
;WIDTH:0.504802
G1 X138.557 Y137.158 E1.11728
G1 X138.473 Y137.274 E.00605
;WIDTH:0.565057
G1 X138.461 Y137.296 E.0012
G1 X138.294 Y137.326 E.0081
;WIDTH:0.504802
G1 X111.847 Y137.326 E1.11728
G1 X111.706 Y137.348 E.00605
;WIDTH:0.565059
G1 X111.682 Y137.355 E.0012
G1 X111.543 Y137.258 E.0081
;WIDTH:0.504802
G1 X92.842 Y118.557 E1.11728
G1 X92.726 Y118.473 E.00605
;WIDTH:0.565057
M73 P11 R22
M73 Q11 S22
G1 X92.704 Y118.461 E.0012
G1 X92.674 Y118.294 E.0081
;WIDTH:0.504802
G1 X92.674 Y91.847 E1.11728
G1 X92.652 Y91.706 E.00605
;WIDTH:0.565059
G1 X92.645 Y91.682 E.0012
G1 X92.742 Y91.543 E.0081
;WIDTH:0.504802
G1 X111.443 Y72.842 E1.11728
G1 X111.527 Y72.726 E.00605
;WIDTH:0.565057
M73 P11 R21
M73 Q11 S21
G1 X111.539 Y72.704 E.0012
G1 X111.706 Y72.674 E.0081
;WIDTH:0.504802
G1 X138.153 Y72.674 E1.11728
G1 X138.294 Y72.652 E.00605
;WIDTH:0.565059
G1 X138.318 Y72.645 E.0012
G1 X138.457 Y72.742 E.0081
;WIDTH:0.504802
G1 X157.158 Y91.443 E1.11728
G1 X157.274 Y91.527 E.00605
;WIDTH:0.565057
G1 X157.296 Y91.539 E.0012
G1 X157.326 Y91.706 E.0081
;WIDTH:0.504802
G1 X157.326 Y118.142 E1.11683
; stop printing object OV-PAM_q_6.5mm_1F.stl id:0 copy 0
;LAYER_CHANGE
;Z:2.6
;HEIGHT:0.2
;BEFORE_LAYER_CHANGE
G92 E0.0
;2.6


G1 E-1 F2400
G1 Z2.6 F720
;AFTER_LAYER_CHANGE
;2.6
; printing object OV-PAM_q_6.5mm_1F.stl id:0 copy 0
G1 X157.23 Y118.138 F4200
G1 E1 F1500
;WIDTH:0.5048
G1 F1200
G1 X157.231 Y118.143 E.0002
;WIDTH:0.588484
G1 X157.252 Y118.241 E.00502
;WIDTH:0.588486
G1 X157.143 Y118.41 E.01003
;WIDTH:0.504801
G1 X138.552 Y137 E1.11068
G1 X138.498 Y137.084 E.00425
;WIDTH:0.588483
G1 X138.443 Y137.169 E.00502
G1 X138.246 Y137.21 E.01003
;WIDTH:0.5048
G1 X111.956 Y137.21 E1.11068
G1 X111.857 Y137.231 E.00425
;WIDTH:0.588484
G1 X111.759 Y137.252 E.00502
G1 X111.59 Y137.143 E.01003
;WIDTH:0.504801
G1 X93 Y118.552 E1.11068
G1 X92.916 Y118.498 E.00425
;WIDTH:0.588483
G1 X92.831 Y118.443 E.00502
G1 X92.79 Y118.246 E.01003
;WIDTH:0.5048
G1 X92.79 Y91.956 E1.11068
G1 X92.769 Y91.857 E.00425
;WIDTH:0.588484
G1 X92.748 Y91.759 E.00502
G1 X92.857 Y91.59 E.01003
;WIDTH:0.504801
G1 X111.448 Y73 E1.11068
G1 X111.502 Y72.916 E.00425
;WIDTH:0.588483
G1 X111.557 Y72.831 E.00502
G1 X111.754 Y72.79 E.01003
;WIDTH:0.5048
G1 X138.044 Y72.79 E1.11068
G1 X138.143 Y72.769 E.00425
;WIDTH:0.588484
M73 P12 R21
M73 Q12 S21
G1 X138.241 Y72.748 E.00502
G1 X138.41 Y72.857 E.01003
;WIDTH:0.504801
G1 X157 Y91.448 E1.11068
G1 X157.084 Y91.502 E.00425
;WIDTH:0.588483
G1 X157.169 Y91.557 E.00502
G1 X157.21 Y91.754 E.01003
;WIDTH:0.5048
G1 X157.218 Y118.079 E1.11215
; stop printing object OV-PAM_q_6.5mm_1F.stl id:0 copy 0
;LAYER_CHANGE
;Z:2.8
;HEIGHT:0.2
;BEFORE_LAYER_CHANGE
G92 E0.0
;2.8


G1 E-1 F2400
G1 Z2.8 F720
;AFTER_LAYER_CHANGE
;2.8
; printing object OV-PAM_q_6.5mm_1F.stl id:0 copy 0
G1 X157.095 Y117.933 F4200
G1 E1 F1500
;WIDTH:0.544424
G1 F1200
G1 X157.132 Y118.086 E.00725
;WIDTH:0.614772
G1 X157.15 Y118.161 E.00404
;WIDTH:0.614773
G1 X157.081 Y118.28 E.00718
;WIDTH:0.544425
G1 X157.027 Y118.362 E.00448
G1 X138.547 Y136.842 E1.1988
G1 X138.467 Y136.974 E.00709
;WIDTH:0.614773
G1 X138.427 Y137.04 E.00404
G1 X138.294 Y137.075 E.00718
;WIDTH:0.544424
G1 X138.198 Y137.095 E.00448
G1 X112.064 Y137.095 E1.1988
G1 X111.914 Y137.132 E.00709
;WIDTH:0.614772
G1 X111.839 Y137.15 E.00404
G1 X111.72 Y137.081 E.00718
;WIDTH:0.544425
G1 X111.638 Y137.027 E.00448
G1 X93.158 Y118.547 E1.1988
G1 X93.026 Y118.467 E.00709
;WIDTH:0.614773
G1 X92.96 Y118.427 E.00404
G1 X92.925 Y118.294 E.00718
;WIDTH:0.544424
G1 X92.905 Y118.198 E.00448
G1 X92.905 Y92.064 E1.1988
G1 X92.868 Y91.914 E.00709
;WIDTH:0.614772
G1 X92.85 Y91.839 E.00404
G1 X92.919 Y91.72 E.00718
;WIDTH:0.544425
G1 X92.973 Y91.638 E.00448
G1 X111.453 Y73.158 E1.1988
G1 X111.533 Y73.026 E.00709
;WIDTH:0.614773
G1 X111.573 Y72.96 E.00404
G1 X111.706 Y72.925 E.00718
;WIDTH:0.544424
G1 X111.802 Y72.905 E.00448
G1 X137.936 Y72.905 E1.1988
G1 X138.086 Y72.868 E.00709
;WIDTH:0.614772
G1 X138.161 Y72.85 E.00404
G1 X138.28 Y72.919 E.00718
;WIDTH:0.544425
G1 X138.362 Y72.973 E.00448
G1 X156.842 Y91.453 E1.1988
G1 X156.974 Y91.533 E.00709
;WIDTH:0.614773
G1 X157.04 Y91.573 E.00404
G1 X157.075 Y91.706 E.00718
