; generated by PrusaSlicer 2.5.2+win64 on 2023-10-19 at 01:24:39 UTC


;
;
; 

; external perimeters extrusion width = 0.40mm
; perimeters extrusion width = 0.40mm
; infill extrusion width = 0.40mm
; solid infill extrusion width = 0.40mm
; top infill extrusion width = 0.40mm
; first layer extrusion width = 0.40mm

M73 P0 R25
M73 Q0 S25
M201 X1000 Y1000 Z200 E5000 ; sets maximum accelerations, mm/sec^2
M203 X200 Y200 Z12 E120 ; sets maximum feedrates, mm / sec
M204 P1250 R1250 T1250 ; sets acceleration (P, T) and retract acceleration (R), mm/sec^2
M205 X8.00 Y8.00 Z0.40 E4.50 ; sets the jerk limits, mm/sec
M205 S0 T0 ; sets the minimum extruding and travel feed rate, mm/sec
M107
;TYPE:Custom
M862.3 P "MK3S" ; printer model check
M862.1 P0.4 ; nozzle diameter check
M115 U3.12.2 ; tell printer latest fw version
G90 ; use absolute coordinates
M83 ; extruder relative mode
M104 S230 ; set extruder temp
M140 S50 ; set bed temp
M190 S50 ; wait for bed temp
M109 S230 ; wait for extruder temp
G28 W ; home all without mesh bed level
G80 ; mesh bed leveling

G1 Z0.2 F720
G1 Y-3 F1000 ; go outside print area
G92 E0
G1 X60 E9 F1000 ; intro line
G1 X100 E12.5 F1000 ; intro line

G92 E0
M221 S95

; Don't change E values below. Excessive value can damage the printer.
M907 E430 ; set extruder motor current
G21 ; set units to millimeters
G90 ; use absolute coordinates
M83 ; use relative distances for extrusion
M900 K0 ; Filament gcode
M107
;LAYER_CHANGE
;Z:0.2
;HEIGHT:0.2
;BEFORE_LAYER_CHANGE
G92 E0.0
;0.2


G1 E-1 F2400
G1 Z.2 F720
;AFTER_LAYER_CHANGE
;0.2
G1 X89.234 Y88.795 F4200
G1 E1 F1500
M204 S300
;TYPE:Skirt/Brim
;WIDTH:0.4
G1 F1200
G1 X108.795 Y69.234 E.90348
G1 X110.189 Y68.397 E.05312
G1 X111.169 Y68.251 E.03234
G1 X138.831 Y68.251 E.90348
G1 X140.409 Y68.645 E.05312
G1 X141.205 Y69.234 E.03234
G1 X160.766 Y88.795 E.90348
G1 X161.603 Y90.189 E.05312
G1 X161.749 Y91.169 E.03234
G1 X161.749 Y118.831 E.90348
G1 X161.355 Y120.409 E.05312
G1 X160.766 Y121.205 E.03234
G1 X141.205 Y140.766 E.90348
G1 X139.811 Y141.603 E.05312
G1 X138.831 Y141.749 E.03234
G1 X111.169 Y141.749 E.90348
G1 X109.591 Y141.355 E.05312
M73 P1 R25
M73 Q1 S25
G1 X108.795 Y140.766 E.03234
G1 X89.234 Y121.205 E.90348
G1 X88.397 Y119.811 E.05312
G1 X88.251 Y118.831 E.03234
G1 X88.251 Y91.169 E.90348
G1 X88.645 Y89.591 E.05312
G1 X89.199 Y88.843 E.03038
; printing object OV-PAM_q_8.25mm_1F.stl id:0 copy 0
G1 E-1 F2400
G1 X138.754 Y138.037 F4200
G1 E1 F1500
;TYPE:External perimeter
;WIDTH:0.666659
G1 F1200
G1 X138.702 Y138.08 E.00385
G1 X138.583 Y138.092 E.00684
G1 X111.298 Y138.08 E1.55662
G1 X91.92 Y118.702 E1.56343
G1 X91.92 Y91.298 E1.56343
G1 X111.298 Y71.92 E1.56343
G1 X138.702 Y71.92 E1.56343
G1 X158.08 Y91.298 E1.56343
G1 X158.08 Y118.702 E1.56343
G1 X138.8 Y137.999 E1.5562
M73 P2 R25
M73 Q2 S25
G1 X138.776 Y138.101 F4200
; stop printing object OV-PAM_q_8.25mm_1F.stl id:0 copy 0
;LAYER_CHANGE
;Z:0.4
;HEIGHT:0.2
;BEFORE_LAYER_CHANGE
G92 E0.0
;0.4


G1 E-1 F2400
G1 Z.4 F720
;AFTER_LAYER_CHANGE
;0.4
G1 X140.659 Y141.094 F4200
G1 E1 F1500
;TYPE:Skirt/Brim
;WIDTH:0.4
G1 F2100.372
G1 X139.811 Y141.603 E.0323
G1 X138.831 Y141.749 E.03234
G1 X111.169 Y141.749 E.90348
G1 X109.591 Y141.355 E.05312
G1 X108.795 Y140.766 E.03234
G1 X89.234 Y121.205 E.90348
G1 X88.397 Y119.811 E.05312
G1 X88.251 Y118.831 E.03234
G1 X88.251 Y91.169 E.90348
G1 X88.645 Y89.591 E.05312
G1 X89.234 Y88.795 E.03234
G1 X108.795 Y69.234 E.90348
G1 X110.189 Y68.397 E.05312
G1 X111.169 Y68.251 E.03234
M73 P2 R24
M73 Q2 S24
G1 X138.831 Y68.251 E.90348
G1 X140.409 Y68.645 E.05312
G1 X141.205 Y69.234 E.03234
G1 X160.766 Y88.795 E.90348
G1 X161.603 Y90.189 E.05312
G1 X161.749 Y91.169 E.03234
G1 X161.749 Y118.831 E.90348
G1 X161.355 Y120.409 E.05312
G1 X160.766 Y121.205 E.03234
G1 X141.205 Y140.766 E.90348
G1 X140.71 Y141.063 E.01886
; printing object OV-PAM_q_8.25mm_1F.stl id:0 copy 0
G1 E-1 F2400
G1 X138.652 Y137.958 F4200
G1 X138.672 Y137.938
G1 X138.763 Y138.03
G1 E1 F1500
;TYPE:External perimeter
;WIDTH:0.666659
G1 F1200
G1 X138.702 Y138.08 E.00451
G1 X138.583 Y138.092 E.00684
G1 X111.298 Y138.08 E1.55662
G1 X91.92 Y118.702 E1.56343
G1 X91.92 Y91.298 E1.56343
G1 X111.298 Y71.92 E1.56343
G1 X138.702 Y71.92 E1.56343
G1 X158.08 Y91.298 E1.56343
M73 P3 R24
M73 Q3 S24
G1 X158.08 Y118.702 E1.56343
G1 X138.809 Y137.99 E1.55553
G1 X138.789 Y138.105 F4200
; stop printing object OV-PAM_q_8.25mm_1F.stl id:0 copy 0
;LAYER_CHANGE
;Z:0.6
;HEIGHT:0.2
;BEFORE_LAYER_CHANGE
G92 E0.0
;0.6


G1 E-1 F2400
G1 Z.6 F720
;AFTER_LAYER_CHANGE
;0.6
G1 X140.668 Y141.088 F4200
G1 E1 F1500
;TYPE:Skirt/Brim
;WIDTH:0.4
G1 F2100.372
G1 X139.811 Y141.603 E.03267
G1 X138.831 Y141.749 E.03234
G1 X111.169 Y141.749 E.90348
G1 X109.591 Y141.355 E.05312
G1 X108.795 Y140.766 E.03234
G1 X89.234 Y121.205 E.90348
G1 X88.397 Y119.811 E.05312
G1 X88.251 Y118.831 E.03234
G1 X88.251 Y91.169 E.90348
G1 X88.645 Y89.591 E.05312
G1 X89.234 Y88.795 E.03234
G1 X108.795 Y69.234 E.90348
G1 X110.189 Y68.397 E.05312
G1 X111.169 Y68.251 E.03234
G1 X138.831 Y68.251 E.90348
G1 X140.409 Y68.645 E.05312
G1 X141.205 Y69.234 E.03234
G1 X160.766 Y88.795 E.90348
G1 X161.603 Y90.189 E.05312
G1 X161.749 Y91.169 E.03234
G1 X161.749 Y118.831 E.90348
G1 X161.355 Y120.409 E.05312
G1 X160.766 Y121.205 E.03234
G1 X141.205 Y140.766 E.90348
G1 X140.72 Y141.057 E.01849
; printing object OV-PAM_q_8.25mm_1F.stl id:0 copy 0
G1 E-1 F2400
G1 X138.652 Y137.958 F4200
G1 X138.681 Y137.929
G1 X138.774 Y138.022
G1 E1 F1500
;TYPE:External perimeter
;WIDTH:0.666659
G1 F1200
G1 X138.702 Y138.08 E.00526
G1 X138.583 Y138.092 E.00684
G1 X111.298 Y138.08 E1.55662
G1 X91.92 Y118.702 E1.56343
G1 X91.92 Y91.298 E1.56343
M73 P4 R24
M73 Q4 S24
G1 X111.298 Y71.92 E1.56343
G1 X138.702 Y71.92 E1.56343
G1 X158.08 Y91.298 E1.56343
G1 X158.08 Y118.702 E1.56343
G1 X138.818 Y137.981 E1.55478
G1 X138.803 Y138.109 F4200
; stop printing object OV-PAM_q_8.25mm_1F.stl id:0 copy 0
;LAYER_CHANGE
;Z:0.8
;HEIGHT:0.2
;BEFORE_LAYER_CHANGE
G92 E0.0
;0.8


G1 E-1 F2400
G1 Z.8 F720
;AFTER_LAYER_CHANGE
;0.8
; printing object OV-PAM_q_8.25mm_1F.stl id:0 copy 0
G1 X138.785 Y138.012 F4200
G1 E1 F1500
G1 F1200
G1 X138.702 Y138.08 E.0061
G1 X138.583 Y138.092 E.00684
G1 X111.298 Y138.08 E1.55662
G1 X91.92 Y118.702 E1.56343
G1 X91.92 Y91.298 E1.56343
G1 X111.298 Y71.92 E1.56343
G1 X138.702 Y71.92 E1.56343
G1 X158.08 Y91.298 E1.56343
M73 P5 R24
M73 Q5 S24
G1 X158.08 Y118.702 E1.56343
G1 X138.828 Y137.971 E1.55394
G1 X138.819 Y138.114 F4200
; stop printing object OV-PAM_q_8.25mm_1F.stl id:0 copy 0
;LAYER_CHANGE
;Z:1
;HEIGHT:0.2
;BEFORE_LAYER_CHANGE
G92 E0.0
;1


G1 E-1 F2400
G1 Z1 F720
;AFTER_LAYER_CHANGE
;1
; printing object OV-PAM_q_8.25mm_1F.stl id:0 copy 0
G1 X138.801 Y137.998 F4200
G1 E1 F1500
G1 F1200
G1 X138.702 Y138.08 E.00734
G1 X138.583 Y138.092 E.00684
G1 X111.298 Y138.08 E1.55662
G1 X91.92 Y118.702 E1.56343
G1 X91.92 Y91.298 E1.56343
G1 X111.298 Y71.92 E1.56343
G1 X138.702 Y71.92 E1.56343
G1 X158.08 Y91.298 E1.56343
G1 X158.08 Y118.702 E1.56343
G1 X138.844 Y137.955 E1.5527
G1 X138.843 Y138.119 F4200
; stop printing object OV-PAM_q_8.25mm_1F.stl id:0 copy 0
;LAYER_CHANGE
;Z:1.2
;HEIGHT:0.2
;BEFORE_LAYER_CHANGE
G92 E0.0
;1.2


M73 P6 R24
M73 Q6 S24
G1 E-1 F2400
G1 Z1.2 F720
;AFTER_LAYER_CHANGE
;1.2
; printing object OV-PAM_q_8.25mm_1F.stl id:0 copy 0
G1 X138.816 Y137.98 F4200
G1 E1 F1500
;WIDTH:0.670968
G1 F1194.177
G1 X138.701 Y138.078 E.00864
G1 X138.581 Y138.09 E.00694
G1 X111.299 Y138.078 E1.56723
G1 X91.922 Y118.701 E1.57413
G1 X91.922 Y91.299 E1.57413
G1 X111.299 Y71.922 E1.57413
M73 P6 R23
M73 Q6 S23
G1 X138.701 Y71.922 E1.57413
G1 X158.078 Y91.299 E1.57413
G1 X158.078 Y118.701 E1.57413
G1 X138.858 Y137.938 E1.56208
G1 X138.866 Y138.122 F4200
; stop printing object OV-PAM_q_8.25mm_1F.stl id:0 copy 0
;LAYER_CHANGE
;Z:1.4
;HEIGHT:0.2
;BEFORE_LAYER_CHANGE
G92 E0.0
;1.4


G1 E-1 F2400
G1 Z1.4 F720
;AFTER_LAYER_CHANGE
;1.4
; printing object OV-PAM_q_8.25mm_1F.stl id:0 copy 0
G1 X138.719 Y137.813 F4200
G1 E1 F1500
;WIDTH:0.523074
G1 F1200
G1 X138.625 Y137.894 E.00543
G1 X138.533 Y137.903 E.00405
G1 X111.375 Y137.894 E1.19273
G1 X92.106 Y118.625 E1.19677
G1 X92.106 Y91.375 E1.19677
G1 X111.375 Y72.106 E1.19677
M73 P7 R23
M73 Q7 S23
G1 X138.625 Y72.106 E1.19677
G1 X157.894 Y91.375 E1.19677
G1 X157.894 Y118.625 E1.19677
G1 X138.761 Y137.771 E1.18871
G1 X138.761 Y137.93 F4200
; stop printing object OV-PAM_q_8.25mm_1F.stl id:0 copy 0
;LAYER_CHANGE
;Z:1.6
;HEIGHT:0.2
;BEFORE_LAYER_CHANGE
G92 E0.0
;1.6


G1 E-1 F2400
G1 Z1.6 F720
;AFTER_LAYER_CHANGE
;1.6
; printing object OV-PAM_q_8.25mm_1F.stl id:0 copy 0
G1 X138.674 Y137.695 F4200
G1 E1 F1500
;WIDTH:0.524244
G1 F1200
G1 X138.58 Y137.778 E.00552
G1 X138.485 Y137.788 E.00419
G1 X111.425 Y137.78 E1.19132
G1 X92.222 Y118.58 E1.19549
G1 X92.22 Y91.425 E1.19549
G1 X111.42 Y72.222 E1.19549
G1 X138.575 Y72.22 E1.19549
G1 X157.778 Y91.42 E1.19549
G1 X157.78 Y118.575 E1.19549
M73 P8 R23
M73 Q8 S23
G1 X138.716 Y137.652 E1.18734
G1 X138.55 Y137.674 F4200
; stop printing object OV-PAM_q_8.25mm_1F.stl id:0 copy 0
;LAYER_CHANGE
;Z:1.8
;HEIGHT:0.2
;BEFORE_LAYER_CHANGE
G92 E0.0
;1.8


G1 E-1 F2400
G1 Z1.8 F720
;AFTER_LAYER_CHANGE
;1.8
; printing object OV-PAM_q_8.25mm_1F.stl id:0 copy 0
G1 X138.644 Y137.562 F4200
G1 E1 F1500
;WIDTH:0.535779
G1 F1200
G1 X138.557 Y137.657 E.00578
G1 X138.438 Y137.672 E.00544
G1 X111.495 Y137.678 E1.21458
G1 X111.399 Y137.605 E.00544
G1 X92.343 Y118.557 E1.21458
G1 X92.328 Y118.438 E.00544
G1 X92.322 Y91.495 E1.21458
G1 X92.395 Y91.399 E.00544
G1 X111.443 Y72.343 E1.21458
G1 X111.562 Y72.328 E.00544
G1 X138.505 Y72.322 E1.21458
G1 X138.601 Y72.395 E.00544
G1 X157.657 Y91.443 E1.21458
G1 X157.672 Y91.562 E.00544
G1 X157.678 Y118.505 E1.21458
G1 X157.605 Y118.601 E.00544
G1 X138.686 Y137.52 E1.2061
G1 X138.519 Y137.533 F4200
; stop printing object OV-PAM_q_8.25mm_1F.stl id:0 copy 0
;LAYER_CHANGE
;Z:2
;HEIGHT:0.2
;BEFORE_LAYER_CHANGE
G92 E0.0
;2


G1 E-1 F2400
G1 Z2 F720
;AFTER_LAYER_CHANGE
;2
; printing object OV-PAM_q_8.25mm_1F.stl id:0 copy 0
G1 X138.636 Y137.408 F4200
G1 E1 F1500
;WIDTH:0.5048
G1 F1200
G1 X138.565 Y137.501 E.00493
;WIDTH:0.558745
G1 X138.548 Y137.53 E.00159
G1 X138.39 Y137.557 E.00756
;WIDTH:0.5048
G1 X111.733 Y137.557 E1.12616
G1 X111.61 Y137.573 E.00522
;WIDTH:0.558746
M73 P9 R23
M73 Q9 S23
G1 X111.578 Y137.582 E.00159
G1 X111.447 Y137.489 E.00756
;WIDTH:0.5048
G1 X92.597 Y118.64 E1.12615
G1 X92.499 Y118.565 E.00522
;WIDTH:0.558745
G1 X92.47 Y118.548 E.00159
G1 X92.443 Y118.39 E.00756
;WIDTH:0.5048
G1 X92.443 Y91.733 E1.12616
G1 X92.427 Y91.61 E.00522
;WIDTH:0.558746
G1 X92.418 Y91.578 E.00159
G1 X92.511 Y91.447 E.00756
;WIDTH:0.5048
G1 X111.36 Y72.597 E1.12615
G1 X111.435 Y72.499 E.00522
;WIDTH:0.558745
G1 X111.452 Y72.47 E.00159
G1 X111.61 Y72.443 E.00756
;WIDTH:0.5048
G1 X138.267 Y72.443 E1.12616
G1 X138.39 Y72.427 E.00522
;WIDTH:0.558746
G1 X138.422 Y72.418 E.00159
G1 X138.553 Y72.511 E.00756
;WIDTH:0.5048
G1 X157.403 Y91.36 E1.12615
G1 X157.501 Y91.435 E.00522
;WIDTH:0.558745
G1 X157.53 Y91.452 E.00159
G1 X157.557 Y91.61 E.00756
;WIDTH:0.5048
G1 X157.557 Y118.267 E1.12616
G1 X157.573 Y118.39 E.00522
;WIDTH:0.558746
G1 X157.582 Y118.422 E.00159
;WIDTH:0.558746
G1 X157.489 Y118.553 E.00756
;WIDTH:0.5048
G1 X138.677 Y137.365 E1.12391
; stop printing object OV-PAM_q_8.25mm_1F.stl id:0 copy 0
;LAYER_CHANGE
;Z:2.2
;HEIGHT:0.2
;BEFORE_LAYER_CHANGE
G92 E0.0
;2.2


G1 E-1 F2400
G1 Z2.2 F720
;AFTER_LAYER_CHANGE
;2.2
; printing object OV-PAM_q_8.25mm_1F.stl id:0 copy 0
G1 X138.603 Y137.305 F4200
G1 E1 F1500
;WIDTH:0.504801
G1 F1200
G1 X138.6 Y137.31 E.00029
;WIDTH:0.592812
G1 X138.544 Y137.397 E.00519
G1 X138.342 Y137.441 E.01039
;WIDTH:0.504802
G1 X111.87 Y137.441 E1.11833
G1 X111.769 Y137.463 E.00436
;WIDTH:0.592812
G1 X111.669 Y137.485 E.00519
G1 X111.495 Y137.374 E.01039
;WIDTH:0.504801
G1 X92.776 Y118.655 E1.11833
G1 X92.69 Y118.6 E.00436
;WIDTH:0.592812
G1 X92.603 Y118.544 E.00519
G1 X92.559 Y118.342 E.01039
;WIDTH:0.504802
G1 X92.559 Y91.87 E1.11833
G1 X92.537 Y91.769 E.00436
;WIDTH:0.592812
G1 X92.515 Y91.669 E.00519
G1 X92.626 Y91.495 E.01039
;WIDTH:0.504801
G1 X111.345 Y72.776 E1.11833
G1 X111.4 Y72.69 E.00436
;WIDTH:0.592812
M73 P10 R23
M73 Q10 S23
G1 X111.456 Y72.603 E.00519
G1 X111.658 Y72.559 E.01039
;WIDTH:0.504802
G1 X138.13 Y72.559 E1.11833
G1 X138.231 Y72.537 E.00436
;WIDTH:0.592812
G1 X138.331 Y72.515 E.00519
G1 X138.505 Y72.626 E.01039
;WIDTH:0.504801
G1 X157.224 Y91.345 E1.11833
G1 X157.31 Y91.4 E.00436
;WIDTH:0.592812
M73 P10 R22
M73 Q10 S22
G1 X157.397 Y91.456 E.00519
G1 X157.441 Y91.658 E.01039
;WIDTH:0.504802
G1 X157.441 Y118.13 E1.11833
G1 X157.463 Y118.231 E.00436
;WIDTH:0.592812
G1 X157.485 Y118.331 E.00519
;WIDTH:0.592812
G1 X157.374 Y118.505 E.01039
;WIDTH:0.504801
G1 X138.636 Y137.254 E1.11982
; stop printing object OV-PAM_q_8.25mm_1F.stl id:0 copy 0
;LAYER_CHANGE
;Z:2.4
;HEIGHT:0.2
;BEFORE_LAYER_CHANGE
G92 E0.0
;2.4


G1 E-1 F2400
G1 Z2.4 F720
;AFTER_LAYER_CHANGE
;2.4
; printing object OV-PAM_q_8.25mm_1F.stl id:0 copy 0
G1 X138.552 Y137.248 F4200
G1 E1 F1500
;WIDTH:0.632742
G1 F1200
G1 X138.485 Y137.286 E.00413
G1 X138.39 Y137.306 E.00527
;WIDTH:0.544425
G1 X138.294 Y137.326 E.00448
G1 X112.008 Y137.326 E1.20577
G1 X111.846 Y137.369 E.00769
;WIDTH:0.632742
G1 X111.765 Y137.39 E.00452
G1 X111.624 Y137.312 E.00867
;WIDTH:0.544423
G1 X111.543 Y137.258 E.00448
G1 X92.955 Y118.671 E1.20576
G1 X92.81 Y118.586 E.00769
;WIDTH:0.632742
G1 X92.738 Y118.544 E.00452
G1 X92.694 Y118.39 E.00867
;WIDTH:0.544425
G1 X92.674 Y118.294 E.00448
G1 X92.674 Y92.008 E1.20577
G1 X92.631 Y91.846 E.00769
;WIDTH:0.632742
G1 X92.61 Y91.765 E.00452
G1 X92.688 Y91.624 E.00867
;WIDTH:0.544423
G1 X92.742 Y91.543 E.00448
G1 X111.329 Y72.955 E1.20576
G1 X111.414 Y72.81 E.00769
;WIDTH:0.632742
G1 X111.456 Y72.738 E.00452
G1 X111.61 Y72.694 E.00867
;WIDTH:0.544425
G1 X111.706 Y72.674 E.00448
G1 X137.992 Y72.674 E1.20577
G1 X138.154 Y72.631 E.00769
;WIDTH:0.632742
G1 X138.235 Y72.61 E.00452
G1 X138.376 Y72.688 E.00867
;WIDTH:0.544423
G1 X138.457 Y72.742 E.00448
G1 X157.045 Y91.329 E1.20576
G1 X157.19 Y91.414 E.00769
;WIDTH:0.632742
G1 X157.262 Y91.456 E.00452
G1 X157.306 Y91.61 E.00867
;WIDTH:0.544425
G1 X157.326 Y91.706 E.00448
G1 X157.326 Y117.992 E1.20577
G1 X157.369 Y118.154 E.00769
;WIDTH:0.632742
G1 X157.39 Y118.235 E.00452
;WIDTH:0.632742
G1 X157.312 Y118.376 E.00867
;WIDTH:0.544423
G1 X157.258 Y118.457 E.00448
G1 X138.671 Y137.045 E1.20576
G1 X138.586 Y137.19 E.00769
;WIDTH:0.632742
M73 P11 R22
M73 Q11 S22
G1 X138.582 Y137.197 E.00044
; stop printing object OV-PAM_q_8.25mm_1F.stl id:0 copy 0
;LAYER_CHANGE
;Z:2.6
;HEIGHT:0.2
;BEFORE_LAYER_CHANGE
G92 E0.0
;2.6


G1 E-1 F2400
G1 Z2.6 F720
;AFTER_LAYER_CHANGE
;2.6
; printing object OV-PAM_q_8.25mm_1F.stl id:0 copy 0
G1 X138.484 Y137.152 F4200
G1 E1 F1500
;WIDTH:0.675676
G1 F1185.291
G1 X138.438 Y137.171 E.0029
;WIDTH:0.584048
G1 F1200
G1 X138.246 Y137.21 E.00967
;WIDTH:0.504802
G1 X112.145 Y137.21 E1.10267
G1 X112.075 Y137.232 E.0031
;WIDTH:0.590239
G1 X111.935 Y137.274 E.00735
;WIDTH:0.675676
G1 F1185.291
G1 X111.864 Y137.296 E.00425
G1 X111.754 Y137.25 E.00693
;WIDTH:0.584046
G1 F1200
G1 X111.59 Y137.143 E.00967
;WIDTH:0.504801
G1 X93.134 Y118.686 E1.10267
G1 X93.069 Y118.652 E.0031
;WIDTH:0.590238
G1 X92.94 Y118.583 E.00735
;WIDTH:0.675676
G1 F1185.291
G1 X92.875 Y118.548 E.00425
G1 X92.829 Y118.438 E.00693
;WIDTH:0.584048
G1 F1200
G1 X92.79 Y118.246 E.00967
;WIDTH:0.504802
G1 X92.79 Y92.145 E1.10267
G1 X92.768 Y92.075 E.0031
;WIDTH:0.590239
G1 X92.726 Y91.935 E.00735
;WIDTH:0.675676
G1 F1185.291
G1 X92.704 Y91.864 E.00425
G1 X92.75 Y91.754 E.00693
;WIDTH:0.584046
G1 F1200
G1 X92.857 Y91.59 E.00967
;WIDTH:0.504801
G1 X111.314 Y73.134 E1.10267
G1 X111.348 Y73.069 E.0031
;WIDTH:0.590238
G1 X111.417 Y72.94 E.00735
;WIDTH:0.675676
G1 F1185.291
G1 X111.452 Y72.875 E.00425
G1 X111.562 Y72.829 E.00693
;WIDTH:0.584048
G1 F1200
G1 X111.754 Y72.79 E.00967
;WIDTH:0.504802
G1 X137.855 Y72.79 E1.10267
G1 X137.925 Y72.768 E.0031
;WIDTH:0.590239
G1 X138.065 Y72.726 E.00735
