; generated by PrusaSlicer 2.5.2+win64 on 2023-06-26 at 08:57:45 UTC


;
;
; 

; external perimeters extrusion width = 0.45mm
; perimeters extrusion width = 0.45mm
; infill extrusion width = 0.45mm
; solid infill extrusion width = 0.45mm
; top infill extrusion width = 0.40mm
; first layer extrusion width = 0.42mm

; external perimeters extrusion width = 0.45mm
; perimeters extrusion width = 0.45mm
; infill extrusion width = 0.45mm
; solid infill extrusion width = 0.45mm
; top infill extrusion width = 0.40mm
; first layer extrusion width = 0.42mm

; external perimeters extrusion width = 0.45mm
; perimeters extrusion width = 0.45mm
; infill extrusion width = 0.45mm
; solid infill extrusion width = 0.45mm
; top infill extrusion width = 0.40mm
; first layer extrusion width = 0.42mm

M73 P0 R161
M73 Q0 S165
M201 X1000 Y1000 Z200 E5000 ; sets maximum accelerations, mm/sec^2
M203 X200 Y200 Z12 E120 ; sets maximum feedrates, mm / sec
M204 P1250 R1250 T1250 ; sets acceleration (P, T) and retract acceleration (R), mm/sec^2
M205 X8.00 Y8.00 Z0.40 E4.50 ; sets the jerk limits, mm/sec
M205 S0 T0 ; sets the minimum extruding and travel feed rate, mm/sec
M107
;TYPE:Custom
M862.3 P "MK3S" ; printer model check
M862.1 P0.4 ; nozzle diameter check
M115 U3.12.2 ; tell printer latest fw version
G90 ; use absolute coordinates
M83 ; extruder relative mode
M104 S240 ; set extruder temp
M140 S50 ; set bed temp
M190 S50 ; wait for bed temp
M109 S240 ; wait for extruder temp
G28 W ; home all without mesh bed level
G80 ; mesh bed leveling

G1 Z0.2 F720
G1 Y-3 F1000 ; go outside print area
G92 E0
G1 X60 E9 F1000 ; intro line
G1 X100 E12.5 F1000 ; intro line

G92 E0
M221 S95

; Don't change E values below. Excessive value can damage the printer.
M907 E430 ; set extruder motor current
G21 ; set units to millimeters
G90 ; use absolute coordinates
M83 ; use relative distances for extrusion
M900 K0 ; Filament gcode
M107
;LAYER_CHANGE
;Z:0.2
;HEIGHT:0.2
;BEFORE_LAYER_CHANGE
G92 E0.0
;0.2


G1 E-1 F2400
G1 Z.2 F720
;AFTER_LAYER_CHANGE
;0.2
G1 X57.15 Y57.15 F10800
G1 E1 F1500
M204 S800
;TYPE:Skirt/Brim
;WIDTH:0.42
M73 Q0 S164
G1 F1200
G1 X75.471 Y38.829 E.89361
G1 X76.869 Y37.989 E.05627
G1 X77.859 Y37.84 E.03452
G1 X105.619 Y37.842 E.95743
G1 X180.156 Y39.986 E2.57183
G1 X181.727 Y40.425 E.05627
G1 X182.447 Y40.974 E.0312
G1 X202.007 Y60.534 E.95408
G1 X202.848 Y61.932 E.05627
G1 X202.996 Y62.922 E.03452
G1 X202.996 Y90.585 E.95408
G1 X202.504 Y92.341 E.0629
G1 X162.382 Y158.251 E2.66127
G1 X161.886 Y158.883 E.02772
G1 X142.325 Y178.443 E.95408
G1 X140.927 Y179.284 E.05627
G1 X139.937 Y179.432 E.03452
G1 X112.275 Y179.432 E.95408
G1 X110.691 Y179.038 E.05627
G1 X109.887 Y178.443 E.03452
G1 X90.326 Y158.883 E.95408
G1 X89.7 Y158.019 E.03679
G1 X55.285 Y89.965 E2.63024
G1 X54.921 Y88.441 E.05404
M73 P0 R160
G1 X54.921 Y60.778 E.95408
G1 X55.315 Y59.195 E.05627
G1 X55.91 Y58.39 E.03452
G1 X57.108 Y57.193 E.0584
M204 S1000
; printing object OV-PAM_one_direction_5_patterns_1f.stl id:1 copy 0
G1 E-1 F2400
G1 X159.278 Y156.029 F10800
G1 E1 F1500
M204 S800
;TYPE:External perimeter
;WIDTH:0.414408
G1 F1200
G1 X159.278 Y156.173 E.00489
;WIDTH:0.429106
G1 X159.271 Y156.401 E.00805
G1 X159.115 Y156.567 E.00805
;WIDTH:0.414408
G1 X140.009 Y175.672 E.91806
;WIDTH:0.429106
G1 X139.843 Y175.828 E.00805
G1 X139.615 Y175.836 E.00805
;WIDTH:0.414408
G1 X112.596 Y175.836 E.91806
;WIDTH:0.429106
G1 X112.369 Y175.828 E.00805
G1 X112.202 Y175.672 E.00805
;WIDTH:0.414408
G1 X93.097 Y156.567 E.91806
;WIDTH:0.429106
G1 X92.941 Y156.401 E.00805
G1 X92.934 Y156.173 E.00805
;WIDTH:0.414408
G1 X92.934 Y129.154 E.91806
;WIDTH:0.429106
G1 X92.941 Y128.926 E.00805
G1 X93.097 Y128.76 E.00805
;WIDTH:0.414408
G1 X112.202 Y109.655 E.91806
;WIDTH:0.429106
G1 X112.369 Y109.499 E.00805
G1 X112.596 Y109.491 E.00805
;WIDTH:0.414408
G1 X139.615 Y109.491 E.91806
;WIDTH:0.429106
G1 X139.843 Y109.499 E.00805
G1 X140.009 Y109.655 E.00805
;WIDTH:0.414408
G1 X159.115 Y128.76 E.91806
;WIDTH:0.429106
G1 X159.271 Y128.926 E.00805
G1 X159.271 Y129.006 E.00283
G1 X159.278 Y129.154 E.00523
;WIDTH:0.414408
G1 X159.278 Y155.969 E.91113
M204 S1000
G1 E-1 F2400
G1 X158.876 Y129.082 F10800
G1 E1 F1500
M204 S800
G1 F1200
G1 X158.906 Y129.154 E.00266
G1 X158.906 Y156.173 E.91806
G1 X158.852 Y156.304 E.00483
G1 X139.747 Y175.41 E.91806
G1 X139.615 Y175.464 E.00483
G1 X112.596 Y175.464 E.91806
G1 X112.465 Y175.41 E.00483
G1 X93.36 Y156.304 E.91806
G1 X93.305 Y156.173 E.00483
G1 X93.305 Y129.154 E.91806
G1 X93.36 Y129.023 E.00483
G1 X112.465 Y109.917 E.91806
;WIDTH:0.417223
G1 X112.564 Y109.864 E.00384
G1 X112.596 Y109.863 E.00111
;WIDTH:0.414408
G1 X139.615 Y109.863 E.91806
G1 X139.747 Y109.917 E.00483
G1 X158.854 Y129.026 E.91818
M204 S1000
G1 X158.955 Y129.082 F10800
; stop printing object OV-PAM_one_direction_5_patterns_1f.stl id:1 copy 0
; printing object OV-PAM_one_direction_5_patterns_1f_modified.stl id:2 copy 0
G1 E-1 F2400
G1 X77.953 Y107.774 F10800
G1 E1 F1500
M204 S800
;WIDTH:0.429106
G1 F1200
G1 X77.787 Y107.618 E.00805
;WIDTH:0.414408
G1 X58.681 Y88.513 E.91806
;WIDTH:0.429106
G1 X58.526 Y88.346 E.00805
G1 X58.518 Y88.119 E.00805
;WIDTH:0.414408
G1 X58.518 Y61.1 E.91806
;WIDTH:0.429106
G1 X58.526 Y60.872 E.00805
G1 X58.681 Y60.706 E.00805
;WIDTH:0.414408
G1 X77.787 Y41.6 E.91806
;WIDTH:0.429106
G1 X77.953 Y41.444 E.00805
G1 X78.181 Y41.437 E.00805
;WIDTH:0.414408
G1 X105.2 Y41.437 E.91806
;WIDTH:0.429106
G1 X105.428 Y41.444 E.00805
G1 X105.594 Y41.6 E.00805
;WIDTH:0.414408
G1 X124.699 Y60.706 E.91806
;WIDTH:0.429106
G1 X124.855 Y60.872 E.00805
G1 X124.855 Y60.952 E.00283
G1 X124.862 Y61.1 E.00523
;WIDTH:0.414408
G1 X124.862 Y88.119 E.91806
;WIDTH:0.429106
G1 X124.855 Y88.346 E.00805
G1 X124.699 Y88.513 E.00805
;WIDTH:0.414408
G1 X105.594 Y107.618 E.91806
;WIDTH:0.429106
G1 X105.428 Y107.774 E.00805
G1 X105.2 Y107.781 E.00805
;WIDTH:0.414408
G1 X78.181 Y107.781 E.91806
;WIDTH:0.429106
G1 X78.013 Y107.776 E.00593
M204 S1000
G1 E-1 F2400
G1 X78.423 Y41.809 F10800
G1 E1 F1500
M204 S800
;WIDTH:0.414408
M73 Q0 S163
G1 F1200
G1 X105.2 Y41.809 E.90981
G1 X105.331 Y41.863 E.00483
G1 X124.436 Y60.968 E.91806
G1 X124.491 Y61.1 E.00483
G1 X124.491 Y88.119 E.91806
;WIDTH:0.417224
G1 X124.458 Y88.226 E.00384
G1 X124.436 Y88.25 E.00111
;WIDTH:0.414408
G1 X105.331 Y107.355 E.91806
G1 X105.2 Y107.41 E.00483
G1 X78.181 Y107.41 E.91806
G1 X78.049 Y107.355 E.00483
G1 X58.944 Y88.25 E.91806
G1 X58.89 Y88.119 E.00483
G1 X58.89 Y61.1 E.91806
G1 X58.944 Y60.968 E.00483
G1 X78.049 Y41.863 E.91806
G1 X78.181 Y41.809 E.00483
G1 X78.363 Y41.809 E.00621
M204 S1000
G1 X78.607 Y41.453 F10800
; stop printing object OV-PAM_one_direction_5_patterns_1f_modified.stl id:2 copy 0
; printing object OV-PAM_5_patterns_1f_modified.stl id:0 copy 0
G1 E-1 F2400
G1 X180.347 Y43.961 F10800
G1 E1 F1500
M204 S800
G1 F1200
G1 X199.236 Y62.85 E.90767
;WIDTH:0.429106
G1 X199.392 Y63.016 E.00805
G1 X199.392 Y63.096 E.00283
G1 X199.399 Y63.244 E.00523
;WIDTH:0.414408
G1 X199.399 Y90.263 E.91806
;WIDTH:0.429106
G1 X199.392 Y90.491 E.00805
G1 X199.236 Y90.657 E.00805
;WIDTH:0.414408
G1 X180.131 Y109.762 E.91806
;WIDTH:0.429106
G1 X179.965 Y109.918 E.00805
G1 X179.737 Y109.926 E.00805
;WIDTH:0.414408
G1 X152.718 Y109.926 E.91806
;WIDTH:0.429106
G1 X152.49 Y109.918 E.00805
G1 X152.324 Y109.762 E.00805
;WIDTH:0.414408
G1 X133.219 Y90.657 E.91806
;WIDTH:0.429106
G1 X133.063 Y90.491 E.00805
G1 X133.055 Y90.263 E.00805
;WIDTH:0.414408
G1 X133.055 Y63.244 E.91806
;WIDTH:0.429106
G1 X133.063 Y63.016 E.00805
G1 X133.219 Y62.85 E.00805
;WIDTH:0.414408
G1 X152.324 Y43.745 E.91806
;WIDTH:0.429106
G1 X152.49 Y43.589 E.00805
M73 P0 R159
G1 X152.718 Y43.581 E.00805
;WIDTH:0.414408
G1 X179.737 Y43.581 E.91806
;WIDTH:0.429106
G1 X179.965 Y43.589 E.00805
G1 X180.131 Y43.745 E.00805
;WIDTH:0.414408
G1 X180.305 Y43.919 E.00836
M204 S1000
G1 E-1 F2400
G1 X133.441 Y90.298 F10800
G1 E1 F1500
M204 S800
G1 F1200
G1 X133.427 Y90.263 E.0013
G1 X133.427 Y63.244 E.91806
G1 X133.481 Y63.113 E.00483
G1 X152.586 Y44.007 E.91806
G1 X152.718 Y43.953 E.00483
G1 X179.737 Y43.953 E.91806
G1 X179.868 Y44.007 E.00483
G1 X198.973 Y63.113 E.91806
G1 X199.028 Y63.244 E.00483
G1 X199.028 Y90.263 E.91806
;WIDTH:0.417224
G1 X198.995 Y90.37 E.00384
G1 X198.973 Y90.394 E.00111
;WIDTH:0.414408
G1 X179.868 Y109.5 E.91806
G1 X179.737 Y109.554 E.00483
M73 P1 R159
M73 Q1 S163
G1 X152.718 Y109.554 E.91806
G1 X152.586 Y109.5 E.00483
G1 X133.481 Y90.394 E.91806
G1 X133.464 Y90.354 E.00149
M204 S1000
G1 X133.403 Y90.298 F10800
; stop printing object OV-PAM_5_patterns_1f_modified.stl id:0 copy 0
;LAYER_CHANGE
;Z:0.4
;HEIGHT:0.2
;BEFORE_LAYER_CHANGE
G92 E0.0
;0.4


G1 E-1 F2400
G1 Z.4 F720
;AFTER_LAYER_CHANGE
;0.4
G1 X134.951 Y38.685 F10800
G1 E1 F1500
;TYPE:Skirt/Brim
;WIDTH:0.42
G1 F1988.97
G1 X180.156 Y39.986 E1.55975
G1 X181.727 Y40.425 E.05627
G1 X182.447 Y40.974 E.0312
G1 X202.007 Y60.534 E.95408
G1 X202.848 Y61.932 E.05627
G1 X202.996 Y62.922 E.03452
G1 X202.996 Y90.585 E.95408
G1 X202.504 Y92.341 E.0629
G1 X162.382 Y158.251 E2.66127
G1 X161.886 Y158.883 E.02772
G1 X142.325 Y178.443 E.95408
G1 X140.927 Y179.284 E.05627
G1 X139.937 Y179.432 E.03452
G1 X112.275 Y179.432 E.95408
G1 X110.691 Y179.038 E.05627
G1 X109.887 Y178.443 E.03452
G1 X90.326 Y158.883 E.95408
G1 X89.7 Y158.019 E.03679
G1 X55.285 Y89.965 E2.63024
G1 X54.921 Y88.441 E.05404
G1 X54.921 Y60.778 E.95408
G1 X55.315 Y59.195 E.05627
G1 X55.91 Y58.39 E.03452
G1 X75.471 Y38.829 E.95408
G1 X76.869 Y37.989 E.05627
G1 X77.859 Y37.84 E.03452
G1 X105.619 Y37.842 E.95743
G1 X134.891 Y38.684 E1.01001
; printing object OV-PAM_one_direction_5_patterns_1f.stl id:1 copy 0
G1 E-1 F2400
G1 X159.287 Y156.04 F10800
G1 E1 F1500
M204 S800
;TYPE:External perimeter
;WIDTH:0.42146
G1 X159.287 Y156.172 E.00458
;WIDTH:0.436437
G1 X159.28 Y156.404 E.00836
G1 X159.121 Y156.574 E.00836
;WIDTH:0.421459
G1 X140.016 Y175.678 E.93544
;WIDTH:0.436436
G1 X139.847 Y175.837 E.00836
G1 X139.615 Y175.845 E.00836
;WIDTH:0.42146
G1 X112.597 Y175.845 E.93544
;WIDTH:0.436437
G1 X112.365 Y175.837 E.00836
G1 X112.196 Y175.678 E.00836
;WIDTH:0.421459
G1 X93.091 Y156.574 E.93544
;WIDTH:0.436437
G1 X92.932 Y156.404 E.00836
G1 X92.925 Y156.172 E.00836
;WIDTH:0.42146
G1 X92.925 Y129.155 E.93544
;WIDTH:0.436437
G1 X92.932 Y128.923 E.00836
G1 X93.091 Y128.753 E.00836
;WIDTH:0.421459
G1 X112.196 Y109.649 E.93544
;WIDTH:0.436437
G1 X112.365 Y109.49 E.00836
G1 X112.597 Y109.482 E.00836
;WIDTH:0.42146
G1 X139.615 Y109.482 E.93544
;WIDTH:0.436436
G1 X139.847 Y109.49 E.00836
G1 X140.016 Y109.649 E.00836
;WIDTH:0.421459
G1 X159.121 Y128.753 E.93544
;WIDTH:0.436437
G1 X159.28 Y128.923 E.00836
G1 X159.28 Y129.004 E.00293
G1 X159.287 Y129.155 E.00543
;WIDTH:0.42146
G1 X159.287 Y155.98 E.92879
M204 S1000
G1 E-1 F2400
M73 Q1 S162
G1 X158.871 Y129.064 F10800
G1 E1 F1500
M204 S800
;WIDTH:0.421459
G1 X158.909 Y129.155 E.00341
G1 X158.909 Y156.172 E.93544
;WIDTH:0.424329
G1 X158.875 Y156.282 E.00399
G1 X158.853 Y156.306 E.00115
;WIDTH:0.421459
G1 X139.749 Y175.411 E.93544
G1 X139.615 Y175.466 E.00502
G1 X112.597 Y175.466 E.93544
G1 X112.463 Y175.411 E.00502
G1 X93.359 Y156.306 E.93544
G1 X93.303 Y156.172 E.00502
G1 X93.303 Y129.155 E.93544
G1 X93.359 Y129.021 E.00502
G1 X112.463 Y109.916 E.93544
G1 X112.597 Y109.861 E.00502
G1 X139.615 Y109.861 E.93544
G1 X139.749 Y109.916 E.00502
G1 X158.843 Y129.011 E.93497
M204 S1000
G1 X158.969 Y129.064 F10800
; stop printing object OV-PAM_one_direction_5_patterns_1f.stl id:1 copy 0
; printing object OV-PAM_one_direction_5_patterns_1f_modified.stl id:2 copy 0
G1 E-1 F2400
G1 X77.949 Y107.783 F10800
G1 E1 F1500
M204 S800
;WIDTH:0.436437
G1 X77.78 Y107.624 E.00836
;WIDTH:0.421459
G1 X58.675 Y88.52 E.93544
;WIDTH:0.436437
G1 X58.517 Y88.35 E.00836
G1 X58.509 Y88.118 E.00836
;WIDTH:0.42146
G1 X58.509 Y61.1 E.93544
;WIDTH:0.436437
G1 X58.517 Y60.868 E.00836
G1 X58.675 Y60.699 E.00836
;WIDTH:0.421459
G1 X77.78 Y41.594 E.93544
;WIDTH:0.436437
G1 X77.949 Y41.435 E.00836
G1 X78.181 Y41.428 E.00836
;WIDTH:0.42146
G1 X105.199 Y41.428 E.93544
;WIDTH:0.436436
G1 X105.431 Y41.435 E.00836
G1 X105.601 Y41.594 E.00836
;WIDTH:0.421459
G1 X124.705 Y60.699 E.93544
;WIDTH:0.436437
G1 X124.864 Y60.868 E.00836
G1 X124.864 Y60.95 E.00293
G1 X124.871 Y61.1 E.00543
;WIDTH:0.42146
G1 X124.871 Y88.118 E.93544
;WIDTH:0.436437
G1 X124.864 Y88.35 E.00836
G1 X124.705 Y88.52 E.00836
;WIDTH:0.421459
G1 X105.601 Y107.624 E.93544
;WIDTH:0.436436
G1 X105.431 Y107.783 E.00836
G1 X105.199 Y107.79 E.00836
;WIDTH:0.42146
G1 X78.181 Y107.79 E.93544
;WIDTH:0.436437
G1 X78.009 Y107.785 E.0062
M204 S1000
G1 E-1 F2400
G1 X78.397 Y41.807 F10800
G1 E1 F1500
M204 S800
;WIDTH:0.421459
G1 X105.199 Y41.807 E.92797
G1 X105.333 Y41.862 E.00502
G1 X124.437 Y60.966 E.93544
G1 X124.493 Y61.1 E.00502
M73 P1 R158
G1 X124.493 Y88.118 E.93544
;WIDTH:0.424329
G1 X124.46 Y88.228 E.00399
G1 X124.437 Y88.252 E.00115
;WIDTH:0.421459
G1 X105.333 Y107.356 E.93544
G1 X105.199 Y107.412 E.00502
G1 X78.181 Y107.412 E.93544
G1 X78.048 Y107.356 E.00502
G1 X58.943 Y88.252 E.93544
G1 X58.888 Y88.118 E.00502
G1 X58.888 Y61.1 E.93544
G1 X58.943 Y60.966 E.00502
G1 X78.048 Y41.862 E.93544
G1 X78.181 Y41.807 E.00502
G1 X78.337 Y41.807 E.0054
M204 S1000
G1 X78.579 Y41.45 F10800
; stop printing object OV-PAM_one_direction_5_patterns_1f_modified.stl id:2 copy 0
; printing object OV-PAM_5_patterns_1f_modified.stl id:0 copy 0
G1 E-1 F2400
G1 X180.335 Y43.936 F10800
G1 E1 F1500
M204 S800
G1 X199.242 Y62.843 E.92576
;WIDTH:0.436437
G1 X199.401 Y63.013 E.00836
G1 X199.401 Y63.094 E.00293
G1 X199.408 Y63.245 E.00543
;WIDTH:0.42146
G1 X199.408 Y90.262 E.93544
;WIDTH:0.436437
G1 X199.401 Y90.494 E.00836
G1 X199.242 Y90.664 E.00836
;WIDTH:0.421459
G1 X180.138 Y109.768 E.93544
;WIDTH:0.436436
G1 X179.968 Y109.927 E.00836
G1 X179.736 Y109.935 E.00836
;WIDTH:0.42146
G1 X152.718 Y109.935 E.93544
;WIDTH:0.436437
G1 X152.486 Y109.927 E.00836
G1 X152.317 Y109.768 E.00836
;WIDTH:0.421459
G1 X133.212 Y90.664 E.93544
;WIDTH:0.436437
G1 X133.054 Y90.494 E.00836
G1 X133.046 Y90.262 E.00836
;WIDTH:0.42146
G1 X133.046 Y63.245 E.93544
;WIDTH:0.436437
G1 X133.054 Y63.013 E.00836
G1 X133.212 Y62.843 E.00836
;WIDTH:0.421459
G1 X152.317 Y43.739 E.93544
;WIDTH:0.436437
G1 X152.486 Y43.58 E.00836
G1 X152.718 Y43.572 E.00836
;WIDTH:0.42146
G1 X179.736 Y43.572 E.93544
;WIDTH:0.436436
G1 X179.968 Y43.58 E.00836
G1 X180.138 Y43.739 E.00836
;WIDTH:0.421459
G1 X180.293 Y43.894 E.0076
M204 S1000
G1 E-1 F2400
G1 X133.453 Y90.331 F10800
G1 E1 F1500
M204 S800
G1 X133.425 Y90.262 E.00256
G1 X133.425 Y63.245 E.93544
G1 X133.48 Y63.111 E.00502
G1 X152.585 Y44.006 E.93544
G1 X152.718 Y43.951 E.00502
G1 X179.736 Y43.951 E.93544
G1 X179.87 Y44.006 E.00502
G1 X198.975 Y63.111 E.93544
G1 X199.03 Y63.245 E.00502
G1 X199.03 Y90.262 E.93544
;WIDTH:0.424329
G1 X198.997 Y90.372 E.00399
G1 X198.975 Y90.396 E.00115
;WIDTH:0.421459
G1 X179.87 Y109.501 E.93544
G1 X179.736 Y109.556 E.00502
G1 X152.718 Y109.556 E.93544
G1 X152.585 Y109.501 E.00502
G1 X133.476 Y90.386 E.93579
M204 S1000
G1 X133.379 Y90.331 F10800
; stop printing object OV-PAM_5_patterns_1f_modified.stl id:0 copy 0
;LAYER_CHANGE
;Z:0.6
;HEIGHT:0.2
;BEFORE_LAYER_CHANGE
G92 E0.0
;0.6


G1 E-1 F2400
G1 Z.6 F720
;AFTER_LAYER_CHANGE
;0.6
G1 X134.963 Y38.686 F10800
G1 E1 F1500
;TYPE:Skirt/Brim
;WIDTH:0.42
G1 F1988.97
G1 X180.156 Y39.986 E1.55932
G1 X181.727 Y40.425 E.05627
G1 X182.447 Y40.974 E.0312
G1 X202.007 Y60.534 E.95408
G1 X202.848 Y61.932 E.05627
G1 X202.996 Y62.922 E.03452
G1 X202.996 Y90.585 E.95408
G1 X202.504 Y92.341 E.0629
G1 X162.382 Y158.251 E2.66127
G1 X161.886 Y158.883 E.02772
G1 X142.325 Y178.443 E.95408
G1 X140.927 Y179.284 E.05627
G1 X139.937 Y179.432 E.03452
G1 X112.275 Y179.432 E.95408
G1 X110.691 Y179.038 E.05627
G1 X109.887 Y178.443 E.03452
G1 X90.326 Y158.883 E.95408
G1 X89.7 Y158.019 E.03679
G1 X55.285 Y89.965 E2.63024
G1 X54.921 Y88.441 E.05404
M73 Q1 S161
G1 X54.921 Y60.778 E.95408
G1 X55.315 Y59.195 E.05627
G1 X55.91 Y58.39 E.03452
G1 X75.471 Y38.829 E.95408
G1 X76.869 Y37.989 E.05627
