; generated by PrusaSlicer 2.5.2+win64 on 2023-06-21 at 07:56:10 UTC


;
;
; 

; external perimeters extrusion width = 0.45mm
; perimeters extrusion width = 0.45mm
; infill extrusion width = 0.45mm
; solid infill extrusion width = 0.45mm
; top infill extrusion width = 0.40mm
; first layer extrusion width = 0.42mm

; external perimeters extrusion width = 0.45mm
; perimeters extrusion width = 0.45mm
; infill extrusion width = 0.45mm
; solid infill extrusion width = 0.45mm
; top infill extrusion width = 0.40mm
; first layer extrusion width = 0.42mm

; external perimeters extrusion width = 0.45mm
; perimeters extrusion width = 0.45mm
; infill extrusion width = 0.45mm
; solid infill extrusion width = 0.45mm
; top infill extrusion width = 0.40mm
; first layer extrusion width = 0.42mm

; external perimeters extrusion width = 0.45mm
; perimeters extrusion width = 0.45mm
; infill extrusion width = 0.45mm
; solid infill extrusion width = 0.45mm
; top infill extrusion width = 0.40mm
; first layer extrusion width = 0.42mm

; external perimeters extrusion width = 0.45mm
; perimeters extrusion width = 0.45mm
; infill extrusion width = 0.45mm
; solid infill extrusion width = 0.45mm
; top infill extrusion width = 0.40mm
; first layer extrusion width = 0.42mm

M73 P0 R225
M73 Q0 S230
M201 X1000 Y1000 Z200 E5000 ; sets maximum accelerations, mm/sec^2
M203 X200 Y200 Z12 E120 ; sets maximum feedrates, mm / sec
M204 P1250 R1250 T1250 ; sets acceleration (P, T) and retract acceleration (R), mm/sec^2
M205 X8.00 Y8.00 Z0.40 E4.50 ; sets the jerk limits, mm/sec
M205 S0 T0 ; sets the minimum extruding and travel feed rate, mm/sec
M107
;TYPE:Custom
M862.3 P "MK3S" ; printer model check
M862.1 P0.4 ; nozzle diameter check
M115 U3.12.2 ; tell printer latest fw version
G90 ; use absolute coordinates
M83 ; extruder relative mode
M104 S240 ; set extruder temp
M140 S50 ; set bed temp
M190 S50 ; wait for bed temp
M109 S240 ; wait for extruder temp
G28 W ; home all without mesh bed level
G80 ; mesh bed leveling

G1 Z0.2 F720
G1 Y-3 F1000 ; go outside print area
G92 E0
G1 X60 E9 F1000 ; intro line
G1 X100 E12.5 F1000 ; intro line

G92 E0
M221 S95

; Don't change E values below. Excessive value can damage the printer.
M907 E430 ; set extruder motor current
G21 ; set units to millimeters
G90 ; use absolute coordinates
M83 ; use relative distances for extrusion
M900 K0 ; Filament gcode
M107
;LAYER_CHANGE
;Z:0.2
;HEIGHT:0.2
;BEFORE_LAYER_CHANGE
G92 E0.0
;0.2


G1 E-1 F2400
G1 Z.2 F720
;AFTER_LAYER_CHANGE
;0.2
G1 X52.44 Y34.245 F10800
G1 E1 F1500
M204 S800
;TYPE:Skirt/Brim
;WIDTH:0.42
G1 F1200
G1 X53.43 Y32.949 E.05627
G1 X55.54 Y32.209 E.0771
G1 X117.183 Y32.209 E2.12606
G1 X192.642 Y33.179 E2.60278
G1 X194.22 Y33.593 E.05627
G1 X195.618 Y35.044 E.06948
G1 X231.059 Y105.821 E2.73001
G1 X231.416 Y107.333 E.05359
G1 X231.416 Y168.933 E2.12457
G1 X231.022 Y170.516 E.05627
M73 Q0 S229
G1 X229.932 Y171.729 E.05627
G1 X228.044 Y172.31 E.06812
G1 X86.026 Y172.518 E4.89818
G1 X24.421 Y172.518 E2.12474
G1 X22.838 Y172.124 E.05627
G1 X21.624 Y171.034 E.05627
G1 X21.044 Y169.141 E.06828
G1 X21.044 Y107.541 E2.12457
G1 X21.321 Y106.2 E.04721
G1 X52.416 Y34.3 E2.70178
M204 S1000
; printing object square_OV-PAM_5_patterns_1f.stl id:3 copy 0
G1 E-1 F2400
G1 X131.284 Y97.87 F10800
G1 E1 F1500
M204 S800
;TYPE:External perimeter
;WIDTH:0.461746
G1 F1200
G1 X131.21 Y97.154 E.02757
;WIDTH:0.42
G1 X131.211 Y37.55 E2.05574
;WIDTH:0.461746
G1 X131.284 Y36.841 E.0273
G1 X132 Y36.767 E.02757
;WIDTH:0.419999
G1 X191.605 Y36.768 E2.05574
;WIDTH:0.461812
G1 X192.313 Y36.841 E.0273
G1 X192.387 Y37.564 E.02785
;WIDTH:0.42
G1 X192.387 Y97.161 E2.0555
;WIDTH:0.461746
G1 X192.313 Y97.87 E.0273
G1 X191.597 Y97.944 E.02757
;WIDTH:0.42
G1 X131.993 Y97.944 E2.05574
;WIDTH:0.461746
G1 X131.344 Y97.876 E.02501
M204 S1000
M73 P0 R224
G1 E-1 F2400
G1 X191.97 Y37.185 F10800
G1 E1 F1500
M204 S800
;WIDTH:0.461812
G1 F1200
G1 X192.01 Y37.564 E.01462
;WIDTH:0.42
G1 X192.01 Y97.147 E2.05502
;WIDTH:0.461746
G1 X191.97 Y97.527 E.01461
G1 X191.902 Y97.544 E.00266
;WIDTH:0.436346
G1 X191.835 Y97.562 E.0025
;WIDTH:0.419999
G1 X132.007 Y97.567 E2.06346
;WIDTH:0.461746
G1 X131.628 Y97.527 E.01461
G1 X131.587 Y97.147 E.01461
;WIDTH:0.42
G1 X131.587 Y37.564 E2.05502
;WIDTH:0.461746
G1 X131.628 Y37.185 E.01461
G1 X132.007 Y37.144 E.01461
;WIDTH:0.42
G1 X191.591 Y37.144 E2.05503
;WIDTH:0.461812
G1 X191.91 Y37.178 E.0123
M204 S1000
; stop printing object square_OV-PAM_5_patterns_1f.stl id:3 copy 0
; printing object square_OV-PAM_5_patterns_1f.stl id:2 copy 0
G1 E-1 F2400
G1 X55.825 Y96.9 F10800
G1 E1 F1500
M204 S800
;WIDTH:0.461746
G1 F1200
G1 X55.751 Y96.184 E.02757
;WIDTH:0.42
G1 X55.752 Y36.58 E2.05574
;WIDTH:0.461746
G1 X55.825 Y35.871 E.0273
G1 X56.541 Y35.797 E.02757
;WIDTH:0.419999
G1 X116.145 Y35.798 E2.05574
;WIDTH:0.461812
G1 X116.854 Y35.871 E.0273
G1 X116.928 Y36.594 E.02785
;WIDTH:0.42
G1 X116.928 Y96.191 E2.0555
;WIDTH:0.461746
G1 X116.854 Y96.9 E.0273
G1 X116.138 Y96.974 E.02757
;WIDTH:0.42
G1 X56.534 Y96.974 E2.05574
;WIDTH:0.461746
G1 X55.885 Y96.907 E.02501
M204 S1000
G1 E-1 F2400
G1 X116.51 Y36.215 F10800
G1 E1 F1500
M204 S800
;WIDTH:0.461812
G1 F1200
G1 X116.551 Y36.594 E.01462
;WIDTH:0.42
G1 X116.551 Y96.178 E2.05502
;WIDTH:0.461746
G1 X116.511 Y96.557 E.01461
M73 Q0 S228
G1 X116.131 Y96.597 E.01461
;WIDTH:0.42
G1 X56.548 Y96.597 E2.05502
;WIDTH:0.461746
G1 X56.169 Y96.557 E.01461
G1 X56.151 Y96.49 E.00266
;WIDTH:0.436346
G1 X56.133 Y96.422 E.0025
;WIDTH:0.42
G1 X56.128 Y36.594 E2.06346
;WIDTH:0.461746
G1 X56.169 Y36.215 E.01461
G1 X56.548 Y36.174 E.01461
;WIDTH:0.42
G1 X116.131 Y36.174 E2.05503
;WIDTH:0.461812
G1 X116.451 Y36.208 E.0123
M204 S1000
; stop printing object square_OV-PAM_5_patterns_1f.stl id:2 copy 0
; printing object square_OV-PAM_5_patterns_1f.stl id:0 copy 0
G1 E-1 F2400
G1 X24.706 Y168.856 F10800
G1 E1 F1500
M204 S800
;WIDTH:0.461746
G1 F1200
G1 X24.632 Y168.14 E.02757
;WIDTH:0.42
G1 X24.633 Y108.535 E2.05574
;WIDTH:0.461746
G1 X24.706 Y107.826 E.0273
G1 X25.422 Y107.752 E.02757
;WIDTH:0.419999
G1 X85.027 Y107.753 E2.05574
;WIDTH:0.461812
G1 X85.736 Y107.826 E.0273
G1 X85.81 Y108.549 E.02785
;WIDTH:0.42
G1 X85.809 Y168.147 E2.0555
;WIDTH:0.461746
G1 X85.736 Y168.856 E.0273
G1 X85.02 Y168.93 E.02757
;WIDTH:0.42
G1 X25.415 Y168.929 E2.05574
;WIDTH:0.461746
G1 X24.766 Y168.862 E.02501
M204 S1000
G1 E-1 F2400
G1 X85.392 Y108.17 F10800
G1 E1 F1500
M204 S800
;WIDTH:0.461812
G1 F1200
G1 X85.432 Y108.549 E.01462
;WIDTH:0.42
G1 X85.432 Y168.133 E2.05502
;WIDTH:0.461746
G1 X85.392 Y168.512 E.01461
G1 X85.325 Y168.53 E.00266
;WIDTH:0.436346
G1 X85.258 Y168.547 E.0025
;WIDTH:0.419999
G1 X25.429 Y168.552 E2.06346
;WIDTH:0.461746
G1 X25.05 Y168.512 E.01461
M73 P0 R223
G1 X25.01 Y168.133 E.01461
;WIDTH:0.42
G1 X25.01 Y108.549 E2.05502
;WIDTH:0.461746
G1 X25.05 Y108.17 E.01461
G1 X25.429 Y108.13 E.01461
;WIDTH:0.42
G1 X85.013 Y108.13 E2.05503
;WIDTH:0.461812
G1 X85.332 Y108.164 E.0123
M204 S1000
; stop printing object square_OV-PAM_5_patterns_1f.stl id:0 copy 0
; printing object square_OV-PAM_5_patterns_1f.stl id:4 copy 0
G1 E-1 F2400
G1 X96.042 Y168.726 F10800
G1 E1 F1500
M204 S800
;WIDTH:0.461746
G1 F1200
G1 X95.968 Y168.01 E.02757
;WIDTH:0.42
G1 X95.968 Y108.406 E2.05574
;WIDTH:0.461746
G1 X96.042 Y107.697 E.0273
G1 X96.758 Y107.623 E.02757
;WIDTH:0.419999
G1 X156.362 Y107.624 E2.05574
;WIDTH:0.461812
G1 X157.071 Y107.697 E.0273
G1 X157.145 Y108.42 E.02785
;WIDTH:0.42
G1 X157.144 Y168.017 E2.0555
;WIDTH:0.461746
G1 X157.071 Y168.726 E.0273
G1 X156.355 Y168.8 E.02757
;WIDTH:0.42
G1 X96.751 Y168.8 E2.05574
;WIDTH:0.461746
G1 X96.101 Y168.732 E.02501
M204 S1000
G1 E-1 F2400
G1 X156.727 Y108.041 F10800
G1 E1 F1500
M204 S800
;WIDTH:0.461812
G1 F1200
G1 X156.768 Y108.42 E.01462
;WIDTH:0.42
G1 X156.768 Y168.003 E2.05502
;WIDTH:0.461746
G1 X156.727 Y168.383 E.01461
G1 X156.66 Y168.4 E.00266
;WIDTH:0.436346
G1 X156.593 Y168.418 E.0025
;WIDTH:0.419999
G1 X96.765 Y168.423 E2.06346
;WIDTH:0.461746
G1 X96.385 Y168.383 E.01461
M73 P1 R223
M73 Q1 S228
G1 X96.345 Y168.003 E.01461
;WIDTH:0.42
G1 X96.345 Y108.42 E2.05502
;WIDTH:0.461746
G1 X96.385 Y108.041 E.01461
M73 Q1 S227
G1 X96.765 Y108 E.01461
;WIDTH:0.42
G1 X156.348 Y108 E2.05503
;WIDTH:0.461812
G1 X156.668 Y108.034 E.0123
M204 S1000
; stop printing object square_OV-PAM_5_patterns_1f.stl id:4 copy 0
; printing object square_OV-PAM_5_patterns_1f.stl id:1 copy 0
G1 E-1 F2400
G1 X166.725 Y168.647 F10800
G1 E1 F1500
M204 S800
;WIDTH:0.461746
G1 F1200
G1 X166.651 Y167.931 E.02757
;WIDTH:0.42
G1 X166.651 Y108.327 E2.05574
;WIDTH:0.461746
G1 X166.725 Y107.618 E.0273
G1 X167.441 Y107.544 E.02757
;WIDTH:0.419999
G1 X227.045 Y107.545 E2.05574
;WIDTH:0.461812
G1 X227.754 Y107.618 E.0273
G1 X227.828 Y108.341 E.02785
;WIDTH:0.42
G1 X227.827 Y167.938 E2.0555
;WIDTH:0.461746
G1 X227.754 Y168.647 E.0273
G1 X227.038 Y168.721 E.02757
;WIDTH:0.42
G1 X167.434 Y168.721 E2.05574
;WIDTH:0.461746
G1 X166.784 Y168.653 E.02501
M204 S1000
G1 E-1 F2400
G1 X227.41 Y107.962 F10800
G1 E1 F1500
M204 S800
;WIDTH:0.461812
G1 F1200
G1 X227.451 Y108.341 E.01462
;WIDTH:0.42
G1 X227.451 Y167.924 E2.05502
;WIDTH:0.461746
G1 X227.41 Y168.304 E.01461
G1 X227.343 Y168.321 E.00266
;WIDTH:0.436346
G1 X227.276 Y168.339 E.0025
;WIDTH:0.419999
G1 X167.448 Y168.344 E2.06346
;WIDTH:0.461746
G1 X167.068 Y168.304 E.01461
G1 X167.028 Y167.924 E.01461
;WIDTH:0.42
G1 X167.028 Y108.341 E2.05502
;WIDTH:0.461746
G1 X167.068 Y107.962 E.01461
G1 X167.448 Y107.921 E.01461
;WIDTH:0.42
G1 X227.031 Y107.921 E2.05503
;WIDTH:0.461812
G1 X227.351 Y107.955 E.0123
M204 S1000
; stop printing object square_OV-PAM_5_patterns_1f.stl id:1 copy 0
;LAYER_CHANGE
;Z:0.4
;HEIGHT:0.2
;BEFORE_LAYER_CHANGE
G92 E0.0
;0.4


G1 E-1 F2400
G1 Z.4 F720
;AFTER_LAYER_CHANGE
;0.4
G1 X231.416 Y107.955 F10800
G1 E1 F1500
;TYPE:Skirt/Brim
;WIDTH:0.42
G1 F1988.97
G1 X231.416 Y168.933 E2.1031
G1 X231.022 Y170.516 E.05627
M73 P1 R222
G1 X229.932 Y171.729 E.05627
G1 X228.044 Y172.31 E.06812
G1 X86.026 Y172.518 E4.89818
G1 X24.421 Y172.518 E2.12474
G1 X22.838 Y172.124 E.05627
G1 X21.624 Y171.034 E.05627
G1 X21.044 Y169.141 E.06828
G1 X21.044 Y107.541 E2.12457
G1 X21.321 Y106.2 E.04721
G1 X52.44 Y34.245 E2.70385
G1 X53.43 Y32.949 E.05627
G1 X55.54 Y32.209 E.0771
G1 X117.183 Y32.209 E2.12606
G1 X192.642 Y33.179 E2.60278
G1 X194.22 Y33.593 E.05627
G1 X195.618 Y35.044 E.06948
G1 X231.059 Y105.821 E2.73001
G1 X231.416 Y107.333 E.05359
G1 X231.416 Y107.895 E.0194
; printing object square_OV-PAM_5_patterns_1f.stl id:3 copy 0
G1 E-1 F2400
G1 X131.242 Y97.912 F10800
G1 E1 F1500
M204 S800
;TYPE:External perimeter
;WIDTH:0.486407
G1 X131.226 Y97.645 E.01088
;WIDTH:0.453934
G1 X131.209 Y97.377 E.01008
;WIDTH:0.42146
G1 X131.209 Y37.334 E2.07888
;WIDTH:0.453934
G1 X131.226 Y37.067 E.01008
;WIDTH:0.486407
G1 X131.242 Y36.799 E.01088
G1 X131.51 Y36.783 E.01088
;WIDTH:0.453934
G1 X131.777 Y36.766 E.01008
;WIDTH:0.42146
G1 X191.82 Y36.766 E2.07888
;WIDTH:0.453934
G1 X192.088 Y36.783 E.01008
;WIDTH:0.486407
G1 X192.356 Y36.799 E.01088
G1 X192.356 Y37.021 E.00899
G1 X192.372 Y37.177 E.00639
;WIDTH:0.453934
G1 X192.388 Y37.334 E.00593
;WIDTH:0.42146
G1 X192.388 Y97.377 E2.07888
;WIDTH:0.453934
G1 X192.372 Y97.645 E.01008
;WIDTH:0.486407
G1 X192.356 Y97.912 E.01088
G1 X192.088 Y97.929 E.01088
;WIDTH:0.453934
G1 X191.82 Y97.945 E.01008
;WIDTH:0.42146
G1 X131.777 Y97.945 E2.07888
;WIDTH:0.453934
G1 X131.51 Y97.929 E.01008
;WIDTH:0.486407
M73 Q1 S226
G1 X131.302 Y97.916 E.00844
M204 S1000
G1 E-1 F2400
G1 X191.82 Y37.145 F10800
G1 E1 F1500
M204 S800
;WIDTH:0.453934
G1 X191.899 Y37.161 E.00301
;WIDTH:0.486407
G1 X191.977 Y37.177 E.00325
G1 X191.993 Y37.256 E.00325
;WIDTH:0.453934
G1 X192.009 Y37.334 E.00301
;WIDTH:0.42146
G1 X192.009 Y97.377 E2.07888
;WIDTH:0.453934
G1 X191.993 Y97.456 E.00301
;WIDTH:0.486407
G1 X191.977 Y97.534 E.00325
G1 X191.915 Y97.549 E.00259
;WIDTH:0.455368
G1 X191.853 Y97.565 E.00241
;WIDTH:0.424328
G1 X191.82 Y97.566 E.00115
;WIDTH:0.42146
G1 X131.777 Y97.566 E2.07888
;WIDTH:0.453934
G1 X131.699 Y97.55 E.00301
;WIDTH:0.486407
G1 X131.62 Y97.534 E.00325
G1 X131.604 Y97.456 E.00325
;WIDTH:0.453934
G1 X131.588 Y97.377 E.00301
;WIDTH:0.42146
G1 X131.588 Y37.334 E2.07888
;WIDTH:0.453934
G1 X131.604 Y37.256 E.00301
;WIDTH:0.486407
G1 X131.62 Y37.177 E.00325
G1 X131.699 Y37.161 E.00325
;WIDTH:0.453934
G1 X131.777 Y37.145 E.00301
;WIDTH:0.42146
G1 X191.76 Y37.145 E2.07681
M204 S1000
; stop printing object square_OV-PAM_5_patterns_1f.stl id:3 copy 0
; printing object square_OV-PAM_5_patterns_1f.stl id:2 copy 0
G1 E-1 F2400
G1 X55.783 Y96.943 F10800
G1 E1 F1500
M204 S800
;WIDTH:0.486407
G1 X55.767 Y96.675 E.01088
;WIDTH:0.453934
G1 X55.75 Y96.407 E.01008
;WIDTH:0.42146
G1 X55.75 Y36.364 E2.07888
;WIDTH:0.453934
G1 X55.767 Y36.097 E.01008
;WIDTH:0.486407
G1 X55.783 Y35.829 E.01088
G1 X56.05 Y35.813 E.01088
;WIDTH:0.453934
G1 X56.318 Y35.797 E.01008
;WIDTH:0.42146
G1 X116.361 Y35.797 E2.07888
;WIDTH:0.453934
G1 X116.629 Y35.813 E.01008
;WIDTH:0.486407
G1 X116.896 Y35.829 E.01088
G1 X116.896 Y36.051 E.00899
G1 X116.913 Y36.208 E.00639
;WIDTH:0.453934
G1 X116.929 Y36.364 E.00593
;WIDTH:0.42146
G1 X116.929 Y96.407 E2.07888
;WIDTH:0.453934
G1 X116.913 Y96.675 E.01008
;WIDTH:0.486407
G1 X116.896 Y96.943 E.01088
G1 X116.629 Y96.959 E.01088
;WIDTH:0.453934
G1 X116.361 Y96.975 E.01008
;WIDTH:0.42146
G1 X56.318 Y96.975 E2.07888
;WIDTH:0.453934
G1 X56.05 Y96.959 E.01008
;WIDTH:0.486407
G1 X55.843 Y96.946 E.00844
M204 S1000
G1 E-1 F2400
G1 X116.361 Y36.175 F10800
G1 E1 F1500
M204 S800
;WIDTH:0.453934
G1 X116.439 Y36.191 E.00301
;WIDTH:0.486407
G1 X116.518 Y36.208 E.00325
G1 X116.534 Y36.286 E.00325
;WIDTH:0.453934
G1 X116.55 Y36.364 E.00301
;WIDTH:0.42146
G1 X116.55 Y96.407 E2.07888
;WIDTH:0.453934
G1 X116.534 Y96.486 E.00301
;WIDTH:0.486407
G1 X116.518 Y96.564 E.00325
G1 X116.456 Y96.58 E.00259
;WIDTH:0.455368
G1 X116.394 Y96.595 E.00241
;WIDTH:0.424328
G1 X116.361 Y96.597 E.00115
;WIDTH:0.42146
G1 X56.318 Y96.597 E2.07888
;WIDTH:0.453934
G1 X56.24 Y96.58 E.00301
;WIDTH:0.486407
G1 X56.161 Y96.564 E.00325
G1 X56.145 Y96.486 E.00325
;WIDTH:0.453934
G1 X56.129 Y96.407 E.00301
;WIDTH:0.42146
G1 X56.129 Y36.364 E2.07888
;WIDTH:0.453934
G1 X56.145 Y36.286 E.00301
;WIDTH:0.486407
G1 X56.161 Y36.208 E.00325
G1 X56.24 Y36.191 E.00325
;WIDTH:0.453934
G1 X56.318 Y36.175 E.00301
;WIDTH:0.42146
G1 X116.301 Y36.175 E2.07681
M204 S1000
; stop printing object square_OV-PAM_5_patterns_1f.stl id:2 copy 0
; printing object square_OV-PAM_5_patterns_1f.stl id:0 copy 0
G1 E-1 F2400
M73 P1 R221
G1 X24.664 Y168.898 F10800
G1 E1 F1500
M204 S800
;WIDTH:0.486407
G1 X24.648 Y168.63 E.01088
;WIDTH:0.453934
G1 X24.632 Y168.362 E.01008
;WIDTH:0.42146
G1 X24.632 Y108.32 E2.07888
;WIDTH:0.453934
G1 X24.648 Y108.052 E.01008
;WIDTH:0.486407
G1 X24.664 Y107.784 E.01088
G1 X24.932 Y107.768 E.01088
;WIDTH:0.453934
G1 X25.2 Y107.752 E.01008
;WIDTH:0.42146
G1 X85.242 Y107.752 E2.07888
;WIDTH:0.453934
G1 X85.51 Y107.768 E.01008
;WIDTH:0.486407
G1 X85.778 Y107.784 E.01088
G1 X85.778 Y108.006 E.00899
G1 X85.794 Y108.163 E.00639
;WIDTH:0.453934
G1 X85.81 Y108.32 E.00593
;WIDTH:0.42146
G1 X85.81 Y168.362 E2.07888
;WIDTH:0.453934
G1 X85.794 Y168.63 E.01008
;WIDTH:0.486407
G1 X85.778 Y168.898 E.01088
G1 X85.51 Y168.914 E.01088
;WIDTH:0.453934
G1 X85.242 Y168.93 E.01008
;WIDTH:0.42146
G1 X25.2 Y168.93 E2.07888
;WIDTH:0.453934
G1 X24.932 Y168.914 E.01008
;WIDTH:0.486407
G1 X24.724 Y168.901 E.00844
M204 S1000
G1 E-1 F2400
G1 X85.242 Y108.13 F10800
G1 E1 F1500
M204 S800
;WIDTH:0.453934
G1 X85.321 Y108.146 E.00301
;WIDTH:0.486407
G1 X85.399 Y108.163 E.00325
G1 X85.415 Y108.241 E.00325
;WIDTH:0.453934
G1 X85.432 Y108.32 E.00301
;WIDTH:0.42146
G1 X85.432 Y168.362 E2.07888
;WIDTH:0.453934
G1 X85.415 Y168.441 E.00301
;WIDTH:0.486407
G1 X85.399 Y168.519 E.00325
G1 X85.337 Y168.535 E.00259
;WIDTH:0.455368
G1 X85.275 Y168.55 E.00241
;WIDTH:0.424328
G1 X85.242 Y168.552 E.00115
;WIDTH:0.42146
G1 X25.2 Y168.552 E2.07888
;WIDTH:0.453934
G1 X25.121 Y168.535 E.00301
;WIDTH:0.486407
