; generated by PrusaSlicer 2.5.2+win64 on 2023-06-28 at 03:44:49 UTC


;
;
; 

; external perimeters extrusion width = 0.45mm
; perimeters extrusion width = 0.45mm
; infill extrusion width = 0.45mm
; solid infill extrusion width = 0.45mm
; top infill extrusion width = 0.40mm
; first layer extrusion width = 0.42mm

; external perimeters extrusion width = 0.45mm
; perimeters extrusion width = 0.45mm
; infill extrusion width = 0.45mm
; solid infill extrusion width = 0.45mm
; top infill extrusion width = 0.40mm
; first layer extrusion width = 0.42mm

; external perimeters extrusion width = 0.45mm
; perimeters extrusion width = 0.45mm
; infill extrusion width = 0.45mm
; solid infill extrusion width = 0.45mm
; top infill extrusion width = 0.40mm
; first layer extrusion width = 0.42mm

; external perimeters extrusion width = 0.45mm
; perimeters extrusion width = 0.45mm
; infill extrusion width = 0.45mm
; solid infill extrusion width = 0.45mm
; top infill extrusion width = 0.40mm
; first layer extrusion width = 0.42mm

M73 P0 R192
M73 Q0 S197
M201 X1000 Y1000 Z200 E5000 ; sets maximum accelerations, mm/sec^2
M203 X200 Y200 Z12 E120 ; sets maximum feedrates, mm / sec
M204 P1250 R1250 T1250 ; sets acceleration (P, T) and retract acceleration (R), mm/sec^2
M205 X8.00 Y8.00 Z0.40 E4.50 ; sets the jerk limits, mm/sec
M205 S0 T0 ; sets the minimum extruding and travel feed rate, mm/sec
M107
;TYPE:Custom
M862.3 P "MK3S" ; printer model check
M862.1 P0.4 ; nozzle diameter check
M115 U3.12.2 ; tell printer latest fw version
G90 ; use absolute coordinates
M83 ; extruder relative mode
M104 S240 ; set extruder temp
M140 S50 ; set bed temp
M190 S50 ; wait for bed temp
M109 S240 ; wait for extruder temp
G28 W ; home all without mesh bed level
G80 ; mesh bed leveling

G1 Z0.2 F720
G1 Y-3 F1000 ; go outside print area
G92 E0
G1 X60 E9 F1000 ; intro line
G1 X100 E12.5 F1000 ; intro line

G92 E0
M221 S95

; Don't change E values below. Excessive value can damage the printer.
M907 E430 ; set extruder motor current
G21 ; set units to millimeters
G90 ; use absolute coordinates
M83 ; use relative distances for extrusion
M900 K0 ; Filament gcode
M107
;LAYER_CHANGE
;Z:0.2
;HEIGHT:0.2
;BEFORE_LAYER_CHANGE
G92 E0.0
;0.2


G1 E-1 F2400
G1 Z.2 F720
;AFTER_LAYER_CHANGE
;0.2
G1 X54.82 Y46.391 F10800
G1 E1 F1500
M204 S800
;TYPE:Skirt/Brim
;WIDTH:0.42
G1 F1200
G1 X74.38 Y26.83 E.95408
G1 X75.778 Y25.99 E.05627
G1 X76.768 Y25.841 E.03452
G1 X104.491 Y25.842 E.95615
G1 X181.964 Y27.217 E2.67244
G1 X183.54 Y27.639 E.05627
G1 X184.292 Y28.205 E.03248
G1 X203.852 Y47.766 E.95408
G1 X204.693 Y49.164 E.05627
G1 X204.841 Y50.13 E.03371
G1 X205.388 Y128.303 E2.69621
G1 X205.388 Y155.989 E.9549
G1 X204.994 Y157.572 E.05627
G1 X204.399 Y158.377 E.03452
G1 X184.838 Y177.938 E.95408
G1 X183.44 Y178.778 E.05627
G1 X182.471 Y178.927 E.03382
G1 X104.055 Y179.406 E2.70461
G1 X76.371 Y179.406 E.95479
G1 X74.788 Y179.012 E.05627
G1 X73.983 Y178.417 E.03452
G1 X54.423 Y158.857 E.95408
G1 X53.582 Y157.459 E.05627
G1 X53.434 Y156.469 E.03452
G1 X53.434 Y128.806 E.95408
G1 X53.83 Y48.762 E2.76073
G1 X54.232 Y47.181 E.05627
M73 P0 R191
G1 X54.784 Y46.439 E.03188
M204 S1000
; printing object OV-PAM_5_patterns_1f_60.stl id:1 copy 0
G1 E-1 F2400
G1 X57.319 Y156.666 F10800
G1 E1 F1500
M204 S800
;TYPE:External perimeter
;WIDTH:0.414408
G1 F1200
G1 X57.194 Y156.541 E.00602
;WIDTH:0.429106
G1 X57.038 Y156.375 E.00805
G1 X57.031 Y156.147 E.00805
;WIDTH:0.414408
G1 X57.031 Y129.128 E.91806
;WIDTH:0.429106
G1 X57.038 Y128.9 E.00805
G1 X57.194 Y128.734 E.00805
;WIDTH:0.414408
G1 X76.299 Y109.629 E.91806
;WIDTH:0.429106
G1 X76.465 Y109.473 E.00805
G1 X76.693 Y109.465 E.00805
;WIDTH:0.414408
G1 X103.712 Y109.465 E.91806
;WIDTH:0.429106
G1 X103.94 Y109.473 E.00805
G1 X104.106 Y109.629 E.00805
;WIDTH:0.414408
G1 X123.212 Y128.734 E.91806
;WIDTH:0.429106
G1 X123.367 Y128.9 E.00805
G1 X123.367 Y128.98 E.00283
G1 X123.375 Y129.128 E.00523
;WIDTH:0.414408
G1 X123.375 Y156.147 E.91806
;WIDTH:0.429106
G1 X123.367 Y156.375 E.00805
G1 X123.212 Y156.541 E.00805
;WIDTH:0.414408
G1 X104.106 Y175.646 E.91806
;WIDTH:0.429106
G1 X103.94 Y175.802 E.00805
G1 X103.712 Y175.81 E.00805
;WIDTH:0.414408
G1 X76.693 Y175.81 E.91806
;WIDTH:0.429106
G1 X76.465 Y175.802 E.00805
M73 Q0 S196
G1 X76.299 Y175.646 E.00805
;WIDTH:0.414408
G1 X57.362 Y156.709 E.91
M204 S1000
G1 E-1 F2400
G1 X57.421 Y129.084 F10800
G1 E1 F1500
M204 S800
G1 F1200
G1 X57.457 Y128.997 E.0032
G1 X76.562 Y109.891 E.91806
G1 X76.693 Y109.837 E.00483
G1 X103.712 Y109.837 E.91806
G1 X103.844 Y109.891 E.00483
G1 X122.949 Y128.997 E.91806
G1 X123.003 Y129.128 E.00483
G1 X123.003 Y156.147 E.91806
G1 X122.949 Y156.278 E.00483
G1 X103.844 Y175.384 E.91806
G1 X103.712 Y175.438 E.00483
G1 X76.693 Y175.438 E.91806
G1 X76.562 Y175.384 E.00483
G1 X57.457 Y156.278 E.91806
;WIDTH:0.417223
G1 X57.404 Y156.179 E.00384
G1 X57.402 Y156.147 E.00111
;WIDTH:0.414408
G1 X57.402 Y129.14 E.91765
M204 S1000
; stop printing object OV-PAM_5_patterns_1f_60.stl id:1 copy 0
; printing object OV-PAM_5_patterns_1f_60_d7.stl id:2 copy 0
G1 E-1 F2400
G1 X182.315 Y175.324 F10800
G1 E1 F1500
M204 S800
;WIDTH:0.429106
G1 F1200
G1 X182.129 Y175.33 E.00658
;WIDTH:0.414408
G1 X155.11 Y175.33 E.91806
;WIDTH:0.429106
G1 X154.882 Y175.322 E.00805
G1 X154.716 Y175.167 E.00805
;WIDTH:0.414408
G1 X135.61 Y156.061 E.91806
;WIDTH:0.429106
G1 X135.454 Y155.895 E.00805
G1 X135.447 Y155.667 E.00805
;WIDTH:0.414408
G1 X135.447 Y128.648 E.91806
;WIDTH:0.429106
G1 X135.454 Y128.42 E.00805
G1 X135.61 Y128.254 E.00805
;WIDTH:0.414408
G1 X154.716 Y109.149 E.91806
;WIDTH:0.429106
G1 X154.882 Y108.993 E.00805
G1 X155.11 Y108.986 E.00805
;WIDTH:0.414408
G1 X182.129 Y108.986 E.91806
;WIDTH:0.429106
G1 X182.356 Y108.993 E.00805
G1 X182.523 Y109.149 E.00805
;WIDTH:0.414408
G1 X201.628 Y128.254 E.91806
;WIDTH:0.429106
G1 X201.784 Y128.42 E.00805
G1 X201.784 Y128.5 E.00283
G1 X201.791 Y128.648 E.00523
;WIDTH:0.414408
G1 X201.791 Y155.667 E.91806
;WIDTH:0.429106
G1 X201.784 Y155.895 E.00805
G1 X201.628 Y156.061 E.00805
;WIDTH:0.414408
G1 X182.523 Y175.167 E.91806
;WIDTH:0.429106
G1 X182.37 Y175.31 E.0074
M204 S1000
G1 E-1 F2400
G1 X135.87 Y155.792 F10800
G1 E1 F1500
M204 S800
;WIDTH:0.414408
G1 F1200
G1 X135.819 Y155.667 E.0046
G1 X135.819 Y128.648 E.91806
G1 X135.873 Y128.517 E.00483
G1 X154.978 Y109.412 E.91806
G1 X155.11 Y109.357 E.00483
G1 X182.129 Y109.357 E.91806
G1 X182.26 Y109.412 E.00483
G1 X201.365 Y128.517 E.91806
G1 X201.42 Y128.648 E.00483
G1 X201.42 Y155.667 E.91806
;WIDTH:0.417224
G1 X201.387 Y155.775 E.00384
G1 X201.365 Y155.799 E.00111
;WIDTH:0.414408
G1 X182.26 Y174.904 E.91806
G1 X182.129 Y174.958 E.00483
G1 X155.11 Y174.958 E.91806
G1 X154.978 Y174.904 E.00483
G1 X135.911 Y155.836 E.91625
M204 S1000
G1 X135.735 Y155.792 F10800
; stop printing object OV-PAM_5_patterns_1f_60_d7.stl id:2 copy 0
; printing object OV-PAM_one_direction_5_patterns_1f_60_d7.stl id:3 copy 0
G1 E-1 F2400
G1 X154.151 Y30.994 F10800
G1 E1 F1500
M204 S800
G1 F1200
G1 X154.169 Y30.976 E.00084
;WIDTH:0.429106
G1 X154.335 Y30.821 E.00805
G1 X154.563 Y30.813 E.00805
;WIDTH:0.414408
G1 X181.582 Y30.813 E.91806
;WIDTH:0.429106
G1 X181.81 Y30.821 E.00805
G1 X181.976 Y30.976 E.00805
;WIDTH:0.414408
G1 X201.081 Y50.082 E.91806
;WIDTH:0.429106
G1 X201.237 Y50.248 E.00805
G1 X201.237 Y50.328 E.00283
G1 X201.244 Y50.476 E.00523
;WIDTH:0.414408
G1 X201.244 Y77.495 E.91806
;WIDTH:0.429106
G1 X201.237 Y77.723 E.00805
G1 X201.081 Y77.889 E.00805
;WIDTH:0.414408
G1 X181.976 Y96.994 E.91806
;WIDTH:0.429106
G1 X181.81 Y97.15 E.00805
G1 X181.582 Y97.157 E.00805
;WIDTH:0.414408
G1 X154.563 Y97.157 E.91806
;WIDTH:0.429106
G1 X154.335 Y97.15 E.00805
G1 X154.169 Y96.994 E.00805
;WIDTH:0.414408
G1 X135.064 Y77.889 E.91806
;WIDTH:0.429106
G1 X134.908 Y77.723 E.00805
G1 X134.9 Y77.495 E.00805
;WIDTH:0.414408
G1 X134.9 Y50.476 E.91806
;WIDTH:0.429106
G1 X134.908 Y50.248 E.00805
G1 X135.064 Y50.082 E.00805
;WIDTH:0.414408
G1 X154.109 Y31.036 E.91518
M204 S1000
G1 E-1 F2400
G1 X154.49 Y96.756 F10800
M73 P0 R190
G1 E1 F1500
M204 S800
G1 F1200
G1 X154.432 Y96.731 E.00214
G1 X135.326 Y77.626 E.91806
G1 X135.272 Y77.495 E.00483
G1 X135.272 Y50.476 E.91806
G1 X135.326 Y50.344 E.00483
G1 X154.432 Y31.239 E.91806
G1 X154.563 Y31.185 E.00483
G1 X181.582 Y31.185 E.91806
G1 X181.713 Y31.239 E.00483
G1 X200.819 Y50.344 E.91806
G1 X200.873 Y50.476 E.00483
G1 X200.873 Y77.495 E.91806
;WIDTH:0.417224
G1 X200.84 Y77.602 E.00384
G1 X200.819 Y77.626 E.00111
;WIDTH:0.414408
G1 X181.713 Y96.731 E.91806
G1 X181.582 Y96.786 E.00483
M73 Q0 S195
G1 X154.545 Y96.779 E.91866
M204 S1000
G1 X154.445 Y96.8 F10800
; stop printing object OV-PAM_one_direction_5_patterns_1f_60_d7.stl id:3 copy 0
; printing object OV-PAM_one_direction_5_patterns_1f_60.stl id:0 copy 0
G1 E-1 F2400
G1 X76.709 Y29.589 F10800
G1 E1 F1500
M204 S800
;WIDTH:0.429106
G1 F1200
G1 X76.862 Y29.446 E.00742
G1 X77.09 Y29.438 E.00805
;WIDTH:0.414408
G1 X104.109 Y29.438 E.91806
;WIDTH:0.429106
G1 X104.337 Y29.446 E.00805
G1 X104.503 Y29.601 E.00805
;WIDTH:0.414408
G1 X123.608 Y48.707 E.91806
;WIDTH:0.429106
G1 X123.764 Y48.873 E.00805
G1 X123.764 Y48.953 E.00283
G1 X123.771 Y49.101 E.00523
;WIDTH:0.414408
G1 X123.771 Y76.12 E.91806
;WIDTH:0.429106
G1 X123.764 Y76.348 E.00805
G1 X123.608 Y76.514 E.00805
;WIDTH:0.414408
G1 X104.503 Y95.619 E.91806
;WIDTH:0.429106
G1 X104.337 Y95.775 E.00805
G1 X104.109 Y95.782 E.00805
;WIDTH:0.414408
G1 X77.09 Y95.782 E.91806
;WIDTH:0.429106
G1 X76.862 Y95.775 E.00805
G1 X76.696 Y95.619 E.00805
;WIDTH:0.414408
G1 X57.591 Y76.514 E.91806
;WIDTH:0.429106
G1 X57.435 Y76.348 E.00805
G1 X57.427 Y76.12 E.00805
;WIDTH:0.414408
G1 X57.427 Y49.101 E.91806
;WIDTH:0.429106
G1 X57.435 Y48.873 E.00805
G1 X57.591 Y48.707 E.00805
;WIDTH:0.414408
G1 X76.666 Y29.631 E.91663
M204 S1000
G1 E-1 F2400
M73 P1 R190
M73 Q1 S195
G1 X77.03 Y95.386 F10800
G1 E1 F1500
M204 S800
G1 F1200
G1 X76.959 Y95.356 E.00262
G1 X57.853 Y76.251 E.91806
G1 X57.799 Y76.12 E.00483
G1 X57.799 Y49.101 E.91806
G1 X57.853 Y48.969 E.00483
G1 X76.959 Y29.864 E.91806
G1 X77.09 Y29.81 E.00483
G1 X104.109 Y29.81 E.91806
G1 X104.24 Y29.864 E.00483
G1 X123.346 Y48.969 E.91806
G1 X123.4 Y49.101 E.00483
G1 X123.4 Y76.12 E.91806
;WIDTH:0.417224
G1 X123.367 Y76.227 E.00384
G1 X123.346 Y76.251 E.00111
;WIDTH:0.414408
G1 X104.24 Y95.356 E.91806
G1 X104.109 Y95.411 E.00483
G1 X77.085 Y95.409 E.91822
M204 S1000
G1 X76.975 Y95.441 F10800
; stop printing object OV-PAM_one_direction_5_patterns_1f_60.stl id:0 copy 0
;LAYER_CHANGE
;Z:0.4
;HEIGHT:0.2
;BEFORE_LAYER_CHANGE
G92 E0.0
;0.4


G1 E-1 F2400
G1 Z.4 F720
;AFTER_LAYER_CHANGE
;0.4
G1 X53.6 Y95.293 F10800
G1 E1 F1500
;TYPE:Skirt/Brim
;WIDTH:0.42
G1 F1988.97
G1 X53.83 Y48.762 E1.60484
G1 X54.232 Y47.181 E.05627
G1 X54.82 Y46.391 E.03395
G1 X74.38 Y26.83 E.95408
G1 X75.778 Y25.99 E.05627
G1 X76.768 Y25.841 E.03452
G1 X104.491 Y25.842 E.95615
G1 X181.964 Y27.217 E2.67244
G1 X183.54 Y27.639 E.05627
G1 X184.292 Y28.205 E.03248
G1 X203.852 Y47.766 E.95408
G1 X204.693 Y49.164 E.05627
G1 X204.841 Y50.13 E.03371
G1 X205.388 Y128.303 E2.69621
G1 X205.388 Y155.989 E.9549
G1 X204.994 Y157.572 E.05627
G1 X204.399 Y158.377 E.03452
G1 X184.838 Y177.938 E.95408
G1 X183.44 Y178.778 E.05627
G1 X182.471 Y178.927 E.03382
G1 X104.055 Y179.406 E2.70461
G1 X76.371 Y179.406 E.95479
G1 X74.788 Y179.012 E.05627
G1 X73.983 Y178.417 E.03452
G1 X54.423 Y158.857 E.95408
G1 X53.582 Y157.459 E.05627
G1 X53.434 Y156.469 E.03452
G1 X53.434 Y128.806 E.95408
G1 X53.6 Y95.352 E1.15382
; printing object OV-PAM_5_patterns_1f_60.stl id:1 copy 0
G1 E-1 F2400
G1 X57.298 Y156.658 F10800
G1 E1 F1500
M204 S800
;TYPE:External perimeter
;WIDTH:0.421459
G1 X57.188 Y156.548 E.00541
;WIDTH:0.436437
G1 X57.029 Y156.378 E.00836
G1 X57.022 Y156.146 E.00836
;WIDTH:0.42146
G1 X57.022 Y129.129 E.93544
;WIDTH:0.436437
G1 X57.029 Y128.896 E.00836
G1 X57.188 Y128.727 E.00836
;WIDTH:0.421459
G1 X76.292 Y109.623 E.93544
;WIDTH:0.436437
G1 X76.462 Y109.464 E.00836
G1 X76.694 Y109.456 E.00836
;WIDTH:0.42146
G1 X103.712 Y109.456 E.93544
;WIDTH:0.436436
G1 X103.944 Y109.464 E.00836
G1 X104.113 Y109.623 E.00836
;WIDTH:0.421459
G1 X123.218 Y128.727 E.93544
;WIDTH:0.436437
G1 X123.376 Y128.896 E.00836
G1 X123.376 Y128.978 E.00293
G1 X123.384 Y129.129 E.00543
;WIDTH:0.42146
G1 X123.384 Y156.146 E.93544
;WIDTH:0.436437
G1 X123.376 Y156.378 E.00836
G1 X123.218 Y156.548 E.00836
;WIDTH:0.421459
G1 X104.113 Y175.652 E.93544
;WIDTH:0.436436
G1 X103.944 Y175.811 E.00836
G1 X103.712 Y175.819 E.00836
;WIDTH:0.42146
G1 X76.694 Y175.819 E.93544
;WIDTH:0.436437
G1 X76.462 Y175.811 E.00836
M73 P1 R189
G1 X76.292 Y175.652 E.00836
;WIDTH:0.421459
G1 X57.341 Y156.701 E.92795
M204 S1000
G1 E-1 F2400
G1 X57.428 Y129.062 F10800
G1 E1 F1500
M204 S800
G1 X57.456 Y128.995 E.00253
G1 X76.56 Y109.89 E.93544
G1 X76.694 Y109.835 E.00502
G1 X103.712 Y109.835 E.93544
G1 X103.845 Y109.89 E.00502
G1 X122.95 Y128.995 E.93544
G1 X123.005 Y129.129 E.00502
G1 X123.005 Y156.146 E.93544
;WIDTH:0.424329
G1 X122.972 Y156.256 E.00399
G1 X122.95 Y156.28 E.00115
;WIDTH:0.421459
G1 X103.845 Y175.385 E.93544
G1 X103.712 Y175.44 E.00502
G1 X76.694 Y175.44 E.93544
G1 X76.56 Y175.385 E.00502
G1 X57.456 Y156.28 E.93544
G1 X57.4 Y156.146 E.00502
M73 Q1 S194
G1 X57.405 Y129.118 E.93582
M204 S1000
G1 X57.376 Y129.011 F10800
; stop printing object OV-PAM_5_patterns_1f_60.stl id:1 copy 0
; printing object OV-PAM_5_patterns_1f_60_d7.stl id:2 copy 0
G1 E-1 F2400
G1 X182.305 Y175.333 F10800
G1 E1 F1500
M204 S800
;WIDTH:0.436436
G1 X182.128 Y175.339 E.00637
;WIDTH:0.42146
G1 X155.11 Y175.339 E.93544
;WIDTH:0.436437
G1 X154.878 Y175.331 E.00836
G1 X154.709 Y175.173 E.00836
;WIDTH:0.421459
G1 X135.604 Y156.068 E.93544
;WIDTH:0.436437
G1 X135.446 Y155.899 E.00836
G1 X135.438 Y155.667 E.00836
;WIDTH:0.42146
G1 X135.438 Y128.649 E.93544
;WIDTH:0.436437
G1 X135.446 Y128.417 E.00836
G1 X135.604 Y128.247 E.00836
;WIDTH:0.421459
G1 X154.709 Y109.143 E.93544
;WIDTH:0.436437
G1 X154.878 Y108.984 E.00836
G1 X155.11 Y108.977 E.00836
;WIDTH:0.42146
G1 X182.128 Y108.977 E.93544
;WIDTH:0.436436
G1 X182.36 Y108.984 E.00836
G1 X182.53 Y109.143 E.00836
;WIDTH:0.421459
G1 X201.634 Y128.247 E.93544
;WIDTH:0.436437
G1 X201.793 Y128.417 E.00836
G1 X201.793 Y128.498 E.00293
G1 X201.8 Y128.649 E.00543
;WIDTH:0.42146
G1 X201.8 Y155.667 E.93544
;WIDTH:0.436437
G1 X201.793 Y155.899 E.00836
G1 X201.634 Y156.068 E.00836
;WIDTH:0.421459
G1 X182.53 Y175.173 E.93544
;WIDTH:0.436436
G1 X182.364 Y175.328 E.00819
M204 S1000
G1 E-1 F2400
G1 X135.872 Y155.8 F10800
G1 E1 F1500
M204 S800
;WIDTH:0.421459
G1 X135.817 Y155.667 E.00502
G1 X135.817 Y128.649 E.93544
G1 X135.872 Y128.515 E.00502
G1 X154.976 Y109.411 E.93544
G1 X155.11 Y109.355 E.00502
G1 X182.128 Y109.355 E.93544
G1 X182.262 Y109.411 E.00502
G1 X201.366 Y128.515 E.93544
G1 X201.422 Y128.649 E.00502
G1 X201.422 Y155.667 E.93544
;WIDTH:0.424329
G1 X201.389 Y155.776 E.00399
G1 X201.366 Y155.8 E.00115
;WIDTH:0.421459
G1 X182.262 Y174.905 E.93544
G1 X182.128 Y174.96 E.00502
G1 X155.11 Y174.96 E.93544
G1 X154.976 Y174.905 E.00502
G1 X135.914 Y155.843 E.93336
M204 S1000
G1 X135.727 Y155.801 F10800
; stop printing object OV-PAM_5_patterns_1f_60_d7.stl id:2 copy 0
; printing object OV-PAM_one_direction_5_patterns_1f_60_d7.stl id:3 copy 0
G1 E-1 F2400
G1 X154.144 Y30.989 F10800
G1 E1 F1500
M204 S800
G1 X154.162 Y30.97 E.0009
;WIDTH:0.436437
G1 X154.331 Y30.812 E.00836
G1 X154.563 Y30.804 E.00836
;WIDTH:0.42146
G1 X181.581 Y30.804 E.93544
;WIDTH:0.436436
G1 X181.813 Y30.812 E.00836
G1 X181.983 Y30.97 E.00836
;WIDTH:0.421459
G1 X201.087 Y50.075 E.93544
;WIDTH:0.436437
G1 X201.246 Y50.244 E.00836
G1 X201.246 Y50.326 E.00293
G1 X201.254 Y50.476 E.00543
;WIDTH:0.42146
G1 X201.254 Y77.494 E.93544
;WIDTH:0.436437
G1 X201.246 Y77.726 E.00836
G1 X201.087 Y77.896 E.00836
;WIDTH:0.421459
G1 X181.983 Y97 E.93544
;WIDTH:0.436436
G1 X181.813 Y97.159 E.00836
G1 X181.581 Y97.166 E.00836
;WIDTH:0.42146
G1 X154.563 Y97.166 E.93544
;WIDTH:0.436437
G1 X154.331 Y97.159 E.00836
G1 X154.162 Y97 E.00836
