; generated by PrusaSlicer 2.5.2+win64 on 2023-06-22 at 07:26:22 UTC


;
;
; 

; external perimeters extrusion width = 0.45mm
; perimeters extrusion width = 0.45mm
; infill extrusion width = 0.45mm
; solid infill extrusion width = 0.45mm
; top infill extrusion width = 0.40mm
; first layer extrusion width = 0.42mm

; external perimeters extrusion width = 0.45mm
; perimeters extrusion width = 0.45mm
; infill extrusion width = 0.45mm
; solid infill extrusion width = 0.45mm
; top infill extrusion width = 0.40mm
; first layer extrusion width = 0.42mm

; external perimeters extrusion width = 0.45mm
; perimeters extrusion width = 0.45mm
; infill extrusion width = 0.45mm
; solid infill extrusion width = 0.45mm
; top infill extrusion width = 0.40mm
; first layer extrusion width = 0.42mm

; external perimeters extrusion width = 0.45mm
; perimeters extrusion width = 0.45mm
; infill extrusion width = 0.45mm
; solid infill extrusion width = 0.45mm
; top infill extrusion width = 0.40mm
; first layer extrusion width = 0.42mm

; external perimeters extrusion width = 0.45mm
; perimeters extrusion width = 0.45mm
; infill extrusion width = 0.45mm
; solid infill extrusion width = 0.45mm
; top infill extrusion width = 0.40mm
; first layer extrusion width = 0.42mm

M73 P0 R104
M73 Q0 S105
M201 X1000 Y1000 Z200 E5000 ; sets maximum accelerations, mm/sec^2
M203 X200 Y200 Z12 E120 ; sets maximum feedrates, mm / sec
M204 P1250 R1250 T1250 ; sets acceleration (P, T) and retract acceleration (R), mm/sec^2
M205 X8.00 Y8.00 Z0.40 E4.50 ; sets the jerk limits, mm/sec
M205 S0 T0 ; sets the minimum extruding and travel feed rate, mm/sec
M107
;TYPE:Custom
M862.3 P "MK3S" ; printer model check
M862.1 P0.4 ; nozzle diameter check
M115 U3.12.2 ; tell printer latest fw version
G90 ; use absolute coordinates
M83 ; extruder relative mode
M104 S240 ; set extruder temp
M140 S50 ; set bed temp
M190 S50 ; wait for bed temp
M109 S240 ; wait for extruder temp
G28 W ; home all without mesh bed level
G80 ; mesh bed leveling

G1 Z0.2 F720
G1 Y-3 F1000 ; go outside print area
G92 E0
G1 X60 E9 F1000 ; intro line
G1 X100 E12.5 F1000 ; intro line

G92 E0
M221 S95

; Don't change E values below. Excessive value can damage the printer.
M907 E430 ; set extruder motor current
G21 ; set units to millimeters
G90 ; use absolute coordinates
M83 ; use relative distances for extrusion
M900 K0 ; Filament gcode
M107
;LAYER_CHANGE
;Z:0.2
;HEIGHT:0.2
;BEFORE_LAYER_CHANGE
G92 E0.0
;0.2


G1 E-1 F2400
G1 Z.2 F720
;AFTER_LAYER_CHANGE
;0.2
G1 X53.911 Y53.911 F10800
G1 E1 F1500
M204 S800
;TYPE:Skirt/Brim
;WIDTH:0.42
G1 F1200
G1 X72.772 Y35.049 E.91998
G1 X74.17 Y34.208 E.05627
G1 X75.16 Y34.06 E.03452
G1 X102.829 Y34.06 E.95431
G1 X174.324 Y34.201 E2.46585
G1 X175.907 Y34.598 E.05627
G1 X176.706 Y35.19 E.03429
G1 X196.266 Y54.751 E.95408
G1 X196.864 Y55.561 E.03472
M73 P0 R103
G1 X232.758 Y123.471 E2.64926
G1 X233.149 Y125.049 E.05608
G1 X233.149 Y152.712 E.95408
G1 X232.755 Y154.295 E.05627
G1 X232.16 Y155.1 E.03452
G1 X212.6 Y174.661 E.95408
G1 X211.201 Y175.501 E.05627
G1 X210.212 Y175.65 E.03452
G1 X182.549 Y175.65 E.95408
G1 X111.438 Y175.187 E2.45266
G1 X40.578 Y174.455 E2.44407
G1 X38.999 Y174.045 E.05627
G1 X38.225 Y173.467 E.03333
G1 X18.664 Y153.906 E.95408
G1 X17.823 Y152.508 E.05627
G1 X17.675 Y151.518 E.03452
G1 X17.675 Y123.855 E.95408
G1 X18.052 Y122.305 E.05503
G1 X52.599 Y55.447 E2.59556
G1 X53.212 Y54.61 E.03579
G1 X53.868 Y53.953 E.03203
M204 S1000
; printing object OV-PAM_10_patterns_1f.stl id:3 copy 0
G1 E-1 F2400
G1 X173.839 Y37.798 F10800
G1 E1 F1500
M204 S800
;TYPE:External perimeter
;WIDTH:0.414408
G1 F1200
G1 X173.996 Y37.798 E.00533
;WIDTH:0.429106
G1 X174.224 Y37.805 E.00805
G1 X174.39 Y37.961 E.00805
;WIDTH:0.414408
G1 X193.495 Y57.066 E.91806
;WIDTH:0.429106
G1 X193.651 Y57.233 E.00805
G1 X193.651 Y57.313 E.00283
G1 X193.658 Y57.46 E.00523
;WIDTH:0.414408
G1 X193.658 Y84.479 E.91806
;WIDTH:0.429106
G1 X193.651 Y84.707 E.00805
G1 X193.495 Y84.873 E.00805
;WIDTH:0.414408
G1 X174.39 Y103.979 E.91806
;WIDTH:0.429106
G1 X174.224 Y104.135 E.00805
G1 X173.996 Y104.142 E.00805
;WIDTH:0.414408
G1 X146.977 Y104.142 E.91806
;WIDTH:0.429106
G1 X146.749 Y104.135 E.00805
G1 X146.583 Y103.979 E.00805
;WIDTH:0.414408
G1 X127.477 Y84.873 E.91806
;WIDTH:0.429106
G1 X127.322 Y84.707 E.00805
G1 X127.314 Y84.479 E.00805
;WIDTH:0.414408
G1 X127.314 Y57.46 E.91806
;WIDTH:0.429106
G1 X127.322 Y57.233 E.00805
G1 X127.477 Y57.066 E.00805
;WIDTH:0.414408
G1 X146.583 Y37.961 E.91806
;WIDTH:0.429106
G1 X146.749 Y37.805 E.00805
G1 X146.977 Y37.798 E.00805
;WIDTH:0.414408
G1 X173.779 Y37.798 E.91069
M204 S1000
G1 X173.996 Y38.169 F10800
M204 S800
M73 Q0 S104
G1 F1200
G1 X174.127 Y38.224 E.00483
G1 X193.232 Y57.329 E.91806
G1 X193.287 Y57.46 E.00483
G1 X193.287 Y84.479 E.91806
;WIDTH:0.417224
G1 X193.254 Y84.587 E.00384
G1 X193.232 Y84.611 E.00111
;WIDTH:0.414408
G1 X174.127 Y103.716 E.91806
G1 X173.996 Y103.771 E.00483
G1 X146.977 Y103.771 E.91806
G1 X146.845 Y103.716 E.00483
G1 X127.74 Y84.611 E.91806
G1 X127.686 Y84.479 E.00483
G1 X127.686 Y57.46 E.91806
G1 X127.74 Y57.329 E.00483
G1 X146.845 Y38.224 E.91806
G1 X146.977 Y38.169 E.00483
G1 X173.936 Y38.169 E.91602
M204 S1000
G1 X174.096 Y38.069 F10800
; stop printing object OV-PAM_10_patterns_1f.stl id:3 copy 0
; printing object OV-PAM_10_patterns_1f.stl id:2 copy 0
G1 E-1 F2400
G1 X102.349 Y37.657 F10800
G1 E1 F1500
M204 S800
G1 F1200
G1 X102.501 Y37.657 E.00514
;WIDTH:0.429106
G1 X102.729 Y37.664 E.00805
G1 X102.895 Y37.82 E.00805
;WIDTH:0.414408
G1 X122 Y56.925 E.91806
;WIDTH:0.429106
G1 X122.156 Y57.092 E.00805
G1 X122.156 Y57.172 E.00283
G1 X122.163 Y57.319 E.00523
;WIDTH:0.414408
G1 X122.163 Y84.338 E.91806
;WIDTH:0.429106
G1 X122.156 Y84.566 E.00805
M73 P1 R103
M73 Q1 S104
G1 X122 Y84.732 E.00805
;WIDTH:0.414408
G1 X102.895 Y103.838 E.91806
;WIDTH:0.429106
G1 X102.729 Y103.994 E.00805
G1 X102.501 Y104.001 E.00805
;WIDTH:0.414408
G1 X75.482 Y104.001 E.91806
;WIDTH:0.429106
G1 X75.254 Y103.994 E.00805
G1 X75.088 Y103.838 E.00805
;WIDTH:0.414408
G1 X55.983 Y84.732 E.91806
;WIDTH:0.429106
G1 X55.827 Y84.566 E.00805
G1 X55.819 Y84.338 E.00805
;WIDTH:0.414408
G1 X55.819 Y57.319 E.91806
;WIDTH:0.429106
G1 X55.827 Y57.092 E.00805
G1 X55.983 Y56.925 E.00805
;WIDTH:0.414408
G1 X75.088 Y37.82 E.91806
;WIDTH:0.429106
G1 X75.254 Y37.664 E.00805
G1 X75.482 Y37.657 E.00805
;WIDTH:0.414408
G1 X102.289 Y37.657 E.91088
M204 S1000
G1 X102.501 Y38.028 F10800
M204 S800
G1 F1200
G1 X102.632 Y38.083 E.00483
G1 X121.737 Y57.188 E.91806
G1 X121.792 Y57.319 E.00483
G1 X121.792 Y84.338 E.91806
;WIDTH:0.417224
G1 X121.759 Y84.446 E.00384
M73 P1 R102
G1 X121.737 Y84.47 E.00111
;WIDTH:0.414408
G1 X102.632 Y103.575 E.91806
G1 X102.501 Y103.629 E.00483
G1 X75.482 Y103.629 E.91806
G1 X75.351 Y103.575 E.00483
G1 X56.245 Y84.47 E.91806
G1 X56.191 Y84.338 E.00483
G1 X56.191 Y57.319 E.91806
G1 X56.245 Y57.188 E.00483
G1 X75.351 Y38.083 E.91806
G1 X75.482 Y38.028 E.00483
G1 X102.441 Y38.028 E.91602
M204 S1000
G1 X102.601 Y37.928 F10800
; stop printing object OV-PAM_10_patterns_1f.stl id:2 copy 0
; printing object OV-PAM_10_patterns_1f.stl id:0 copy 0
G1 E-1 F2400
G1 X67.797 Y104.515 F10800
G1 E1 F1500
M204 S800
G1 F1200
G1 X67.954 Y104.515 E.00533
;WIDTH:0.429106
G1 X68.181 Y104.522 E.00805
G1 X68.348 Y104.678 E.00805
;WIDTH:0.414408
G1 X87.453 Y123.783 E.91806
;WIDTH:0.429106
G1 X87.609 Y123.949 E.00805
G1 X87.609 Y124.029 E.00283
G1 X87.616 Y124.177 E.00523
;WIDTH:0.414408
G1 X87.616 Y151.196 E.91806
;WIDTH:0.429106
G1 X87.609 Y151.424 E.00805
G1 X87.453 Y151.59 E.00805
;WIDTH:0.414408
G1 X68.348 Y170.696 E.91806
;WIDTH:0.429106
G1 X68.181 Y170.851 E.00805
G1 X67.954 Y170.859 E.00805
;WIDTH:0.414408
G1 X40.935 Y170.859 E.91806
;WIDTH:0.429106
G1 X40.707 Y170.851 E.00805
G1 X40.541 Y170.696 E.00805
;WIDTH:0.414408
G1 X21.435 Y151.59 E.91806
;WIDTH:0.429106
G1 X21.279 Y151.424 E.00805
G1 X21.272 Y151.196 E.00805
;WIDTH:0.414408
G1 X21.272 Y124.177 E.91806
;WIDTH:0.429106
G1 X21.279 Y123.949 E.00805
G1 X21.435 Y123.783 E.00805
;WIDTH:0.414408
G1 X40.541 Y104.678 E.91806
;WIDTH:0.429106
G1 X40.707 Y104.522 E.00805
G1 X40.935 Y104.515 E.00805
;WIDTH:0.414408
G1 X67.737 Y104.515 E.91069
M204 S1000
G1 X67.954 Y104.886 F10800
M204 S800
G1 F1200
G1 X68.085 Y104.941 E.00483
G1 X87.19 Y124.046 E.91806
G1 X87.245 Y124.177 E.00483
G1 X87.245 Y151.196 E.91806
;WIDTH:0.417224
G1 X87.212 Y151.304 E.00384
G1 X87.19 Y151.328 E.00111
;WIDTH:0.414408
G1 X68.085 Y170.433 E.91806
G1 X67.954 Y170.487 E.00483
G1 X40.935 Y170.487 E.91806
G1 X40.803 Y170.433 E.00483
G1 X21.698 Y151.328 E.91806
G1 X21.643 Y151.196 E.00483
G1 X21.643 Y124.177 E.91806
G1 X21.698 Y124.046 E.00483
G1 X40.803 Y104.941 E.91806
G1 X40.935 Y104.886 E.00483
G1 X67.894 Y104.886 E.91602
M204 S1000
G1 X68.054 Y104.786 F10800
; stop printing object OV-PAM_10_patterns_1f.stl id:0 copy 0
; printing object OV-PAM_10_patterns_1f.stl id:1 copy 0
G1 E-1 F2400
G1 X138.644 Y105.246 F10800
G1 E1 F1500
M204 S800
G1 F1200
G1 X138.8 Y105.246 E.0053
;WIDTH:0.429106
G1 X139.028 Y105.253 E.00805
G1 X139.194 Y105.409 E.00805
;WIDTH:0.414408
G1 X158.3 Y124.515 E.91806
;WIDTH:0.429106
G1 X158.456 Y124.681 E.00805
G1 X158.456 Y124.761 E.00283
G1 X158.463 Y124.909 E.00523
;WIDTH:0.414408
G1 X158.463 Y151.928 E.91806
;WIDTH:0.429106
G1 X158.456 Y152.155 E.00805
M73 Q1 S103
G1 X158.3 Y152.322 E.00805
;WIDTH:0.414408
G1 X139.194 Y171.427 E.91806
;WIDTH:0.429106
G1 X139.028 Y171.583 E.00805
G1 X138.8 Y171.59 E.00805
;WIDTH:0.414408
G1 X111.781 Y171.59 E.91806
;WIDTH:0.429106
G1 X111.554 Y171.583 E.00805
G1 X111.387 Y171.427 E.00805
;WIDTH:0.414408
G1 X92.282 Y152.322 E.91806
;WIDTH:0.429106
G1 X92.126 Y152.155 E.00805
G1 X92.119 Y151.928 E.00805
;WIDTH:0.414408
G1 X92.119 Y124.909 E.91806
;WIDTH:0.429106
G1 X92.126 Y124.681 E.00805
G1 X92.282 Y124.515 E.00805
;WIDTH:0.414408
G1 X111.387 Y105.409 E.91806
;WIDTH:0.429106
G1 X111.554 Y105.253 E.00805
G1 X111.781 Y105.246 E.00805
;WIDTH:0.414408
G1 X138.584 Y105.246 E.91072
M204 S1000
G1 X138.8 Y105.618 F10800
M204 S800
G1 F1200
G1 X138.932 Y105.672 E.00483
G1 X158.037 Y124.777 E.91806
G1 X158.091 Y124.909 E.00483
G1 X158.091 Y151.928 E.91806
;WIDTH:0.417224
G1 X158.059 Y152.035 E.00384
G1 X158.037 Y152.059 E.00111
;WIDTH:0.414408
G1 X138.932 Y171.164 E.91806
G1 X138.8 Y171.219 E.00483
G1 X111.781 Y171.219 E.91806
G1 X111.65 Y171.164 E.00483
G1 X92.545 Y152.059 E.91806
G1 X92.49 Y151.928 E.00483
G1 X92.49 Y124.909 E.91806
G1 X92.545 Y124.777 E.00483
M73 P2 R102
G1 X111.65 Y105.672 E.91806
G1 X111.781 Y105.618 E.00483
M73 Q2 S103
G1 X138.74 Y105.618 E.91602
M204 S1000
G1 X138.901 Y105.517 F10800
; stop printing object OV-PAM_10_patterns_1f.stl id:1 copy 0
; printing object OV-PAM_10_patterns_1f.stl id:4 copy 0
G1 E-1 F2400
G1 X209.733 Y105.709 F10800
G1 E1 F1500
M204 S800
G1 F1200
G1 X209.89 Y105.709 E.00531
;WIDTH:0.429106
G1 X210.118 Y105.716 E.00805
G1 X210.284 Y105.872 E.00805
;WIDTH:0.414408
G1 X229.389 Y124.977 E.91806
;WIDTH:0.429106
G1 X229.545 Y125.144 E.00805
G1 X229.545 Y125.224 E.00283
G1 X229.552 Y125.371 E.00523
;WIDTH:0.414408
G1 X229.552 Y152.39 E.91806
;WIDTH:0.429106
G1 X229.545 Y152.618 E.00805
G1 X229.389 Y152.784 E.00805
;WIDTH:0.414408
G1 X210.284 Y171.89 E.91806
;WIDTH:0.429106
G1 X210.118 Y172.045 E.00805
G1 X209.89 Y172.053 E.00805
;WIDTH:0.414408
G1 X182.871 Y172.053 E.91806
;WIDTH:0.429106
G1 X182.643 Y172.045 E.00805
M73 P2 R101
G1 X182.477 Y171.89 E.00805
;WIDTH:0.414408
G1 X163.371 Y152.784 E.91806
;WIDTH:0.429106
G1 X163.216 Y152.618 E.00805
G1 X163.208 Y152.39 E.00805
;WIDTH:0.414408
G1 X163.208 Y125.371 E.91806
;WIDTH:0.429106
G1 X163.216 Y125.144 E.00805
G1 X163.371 Y124.977 E.00805
;WIDTH:0.414408
G1 X182.477 Y105.872 E.91806
;WIDTH:0.429106
G1 X182.643 Y105.716 E.00805
G1 X182.871 Y105.709 E.00805
;WIDTH:0.414408
G1 X209.673 Y105.709 E.91071
M204 S1000
G1 X209.89 Y106.08 F10800
M204 S800
G1 F1200
G1 X210.021 Y106.135 E.00483
G1 X229.126 Y125.24 E.91806
G1 X229.181 Y125.371 E.00483
G1 X229.181 Y152.39 E.91806
;WIDTH:0.417224
G1 X229.148 Y152.498 E.00384
G1 X229.126 Y152.522 E.00111
;WIDTH:0.414408
G1 X210.021 Y171.627 E.91806
G1 X209.89 Y171.681 E.00483
G1 X182.871 Y171.681 E.91806
G1 X182.739 Y171.627 E.00483
G1 X163.634 Y152.522 E.91806
G1 X163.58 Y152.39 E.00483
G1 X163.58 Y125.371 E.91806
G1 X163.634 Y125.24 E.00483
G1 X182.739 Y106.135 E.91806
G1 X182.871 Y106.08 E.00483
G1 X209.83 Y106.08 E.91602
M204 S1000
G1 X209.99 Y105.98 F10800
; stop printing object OV-PAM_10_patterns_1f.stl id:4 copy 0
;LAYER_CHANGE
;Z:0.4
;HEIGHT:0.2
;BEFORE_LAYER_CHANGE
G92 E0.0
;0.4


G1 E-1 F2400
G1 Z.4 F720
;AFTER_LAYER_CHANGE
;0.4
G1 X220.566 Y100.405 F10800
G1 E1 F1500
;TYPE:Skirt/Brim
;WIDTH:0.42
G1 F1988.97
G1 X232.758 Y123.471 E.89982
G1 X233.149 Y125.049 E.05608
G1 X233.149 Y152.712 E.95408
G1 X232.755 Y154.295 E.05627
G1 X232.16 Y155.1 E.03452
G1 X212.6 Y174.661 E.95408
G1 X211.201 Y175.501 E.05627
G1 X210.212 Y175.65 E.03452
G1 X182.549 Y175.65 E.95408
G1 X111.438 Y175.187 E2.45266
G1 X40.578 Y174.455 E2.44407
G1 X38.999 Y174.045 E.05627
G1 X38.225 Y173.467 E.03333
G1 X18.664 Y153.906 E.95408
G1 X17.823 Y152.508 E.05627
G1 X17.675 Y151.518 E.03452
G1 X17.675 Y123.855 E.95408
G1 X18.052 Y122.305 E.05503
G1 X52.599 Y55.447 E2.59556
G1 X53.212 Y54.61 E.03579
G1 X72.772 Y35.049 E.95408
G1 X74.17 Y34.208 E.05627
G1 X75.16 Y34.06 E.03452
G1 X102.829 Y34.06 E.95431
G1 X174.324 Y34.201 E2.46585
G1 X175.907 Y34.598 E.05627
G1 X176.706 Y35.19 E.03429
G1 X196.266 Y54.751 E.95408
G1 X196.864 Y55.561 E.03472
G1 X220.538 Y100.352 E1.74737
; printing object OV-PAM_10_patterns_1f.stl id:3 copy 0
G1 E-1 F2400
M73 Q2 S102
G1 X173.865 Y37.789 F10800
G1 E1 F1500
M204 S800
;TYPE:External perimeter
;WIDTH:0.42146
G1 X173.995 Y37.789 E.0045
;WIDTH:0.436436
G1 X174.227 Y37.796 E.00836
G1 X174.397 Y37.955 E.00836
;WIDTH:0.421459
G1 X193.501 Y57.06 E.93544
;WIDTH:0.436437
G1 X193.66 Y57.229 E.00836
G1 X193.66 Y57.31 E.00293
G1 X193.667 Y57.461 E.00543
;WIDTH:0.42146
G1 X193.667 Y84.479 E.93544
;WIDTH:0.436437
G1 X193.66 Y84.711 E.00836
G1 X193.501 Y84.88 E.00836
;WIDTH:0.421459
G1 X174.397 Y103.985 E.93544
;WIDTH:0.436436
G1 X174.227 Y104.144 E.00836
G1 X173.995 Y104.151 E.00836
;WIDTH:0.42146
G1 X146.977 Y104.151 E.93544
;WIDTH:0.436437
G1 X146.745 Y104.144 E.00836
G1 X146.576 Y103.985 E.00836
;WIDTH:0.421459
G1 X127.471 Y84.88 E.93544
;WIDTH:0.436437
G1 X127.313 Y84.711 E.00836
G1 X127.305 Y84.479 E.00836
;WIDTH:0.42146
G1 X127.305 Y57.461 E.93544
;WIDTH:0.436437
G1 X127.313 Y57.229 E.00836
G1 X127.471 Y57.06 E.00836
;WIDTH:0.421459
G1 X146.576 Y37.955 E.93544
;WIDTH:0.436437
G1 X146.745 Y37.796 E.00836
G1 X146.977 Y37.789 E.00836
;WIDTH:0.42146
G1 X173.805 Y37.789 E.92886
M204 S1000
G1 X174.008 Y38.173 F10800
M204 S800
;WIDTH:0.421459
G1 F1500
G1 X174.129 Y38.223 E.00455
G1 X193.233 Y57.327 E.93544
G1 X193.289 Y57.461 E.00502
G1 X193.289 Y84.479 E.93544
;WIDTH:0.424329
G1 X193.256 Y84.588 E.00399
G1 X193.233 Y84.613 E.00115
;WIDTH:0.421459
G1 X174.129 Y103.717 E.93544
G1 X173.995 Y103.773 E.00502
G1 X146.977 Y103.773 E.93544
G1 X146.844 Y103.717 E.00502
G1 X127.739 Y84.613 E.93544
G1 X127.684 Y84.479 E.00502
G1 X127.684 Y57.461 E.93544
G1 X127.739 Y57.327 E.00502
G1 X146.844 Y38.223 E.93544
G1 X146.977 Y38.167 E.00502
G1 X173.949 Y38.167 E.93383
M204 S1000
G1 X174.101 Y38.08 F10800
; stop printing object OV-PAM_10_patterns_1f.stl id:3 copy 0
; printing object OV-PAM_10_patterns_1f.stl id:2 copy 0
M73 P3 R101
G1 E-1 F2400
G1 X102.375 Y37.648 F10800
G1 E1 F1500
M204 S800
;WIDTH:0.42146
G1 X102.5 Y37.648 E.00434
;WIDTH:0.436436
G1 X102.732 Y37.655 E.00836
G1 X102.902 Y37.814 E.00836
;WIDTH:0.421459
G1 X122.006 Y56.919 E.93544
;WIDTH:0.436437
G1 X122.165 Y57.088 E.00836
M73 Q3 S102
G1 X122.165 Y57.169 E.00293
G1 X122.172 Y57.32 E.00543
;WIDTH:0.42146
G1 X122.172 Y84.338 E.93544
;WIDTH:0.436437
G1 X122.165 Y84.57 E.00836
G1 X122.006 Y84.739 E.00836
;WIDTH:0.421459
G1 X102.902 Y103.844 E.93544
;WIDTH:0.436436
G1 X102.732 Y104.003 E.00836
G1 X102.5 Y104.01 E.00836
