; generated by PrusaSlicer 2.5.2+win64 on 2023-06-21 at 07:59:35 UTC


;
;
; 

; external perimeters extrusion width = 0.45mm
; perimeters extrusion width = 0.45mm
; infill extrusion width = 0.45mm
; solid infill extrusion width = 0.45mm
; top infill extrusion width = 0.40mm
; first layer extrusion width = 0.42mm

; external perimeters extrusion width = 0.45mm
; perimeters extrusion width = 0.45mm
; infill extrusion width = 0.45mm
; solid infill extrusion width = 0.45mm
; top infill extrusion width = 0.40mm
; first layer extrusion width = 0.42mm

; external perimeters extrusion width = 0.45mm
; perimeters extrusion width = 0.45mm
; infill extrusion width = 0.45mm
; solid infill extrusion width = 0.45mm
; top infill extrusion width = 0.40mm
; first layer extrusion width = 0.42mm

; external perimeters extrusion width = 0.45mm
; perimeters extrusion width = 0.45mm
; infill extrusion width = 0.45mm
; solid infill extrusion width = 0.45mm
; top infill extrusion width = 0.40mm
; first layer extrusion width = 0.42mm

; external perimeters extrusion width = 0.45mm
; perimeters extrusion width = 0.45mm
; infill extrusion width = 0.45mm
; solid infill extrusion width = 0.45mm
; top infill extrusion width = 0.40mm
; first layer extrusion width = 0.42mm

M73 P0 R107
M73 Q0 S109
M201 X1000 Y1000 Z200 E5000 ; sets maximum accelerations, mm/sec^2
M203 X200 Y200 Z12 E120 ; sets maximum feedrates, mm / sec
M204 P1250 R1250 T1250 ; sets acceleration (P, T) and retract acceleration (R), mm/sec^2
M205 X8.00 Y8.00 Z0.40 E4.50 ; sets the jerk limits, mm/sec
M205 S0 T0 ; sets the minimum extruding and travel feed rate, mm/sec
M107
;TYPE:Custom
M862.3 P "MK3S" ; printer model check
M862.1 P0.4 ; nozzle diameter check
M115 U3.12.2 ; tell printer latest fw version
G90 ; use absolute coordinates
M83 ; extruder relative mode
M104 S240 ; set extruder temp
M140 S50 ; set bed temp
M190 S50 ; wait for bed temp
M109 S240 ; wait for extruder temp
G28 W ; home all without mesh bed level
G80 ; mesh bed leveling

G1 Z0.2 F720
G1 Y-3 F1000 ; go outside print area
G92 E0
G1 X60 E9 F1000 ; intro line
G1 X100 E12.5 F1000 ; intro line

G92 E0
M221 S95

; Don't change E values below. Excessive value can damage the printer.
M907 E430 ; set extruder motor current
G21 ; set units to millimeters
G90 ; use absolute coordinates
M83 ; use relative distances for extrusion
M900 K0 ; Filament gcode
M107
;LAYER_CHANGE
;Z:0.2
;HEIGHT:0.2
;BEFORE_LAYER_CHANGE
G92 E0.0
;0.2


G1 E-1 F2400
G1 Z.2 F720
;AFTER_LAYER_CHANGE
;0.2
G1 X56.801 Y37.838 F10800
G1 E1 F1500
M204 S800
;TYPE:Skirt/Brim
;WIDTH:0.42
G1 F1200
G1 X57.846 Y36.584 E.05627
G1 X59.841 Y35.932 E.0724
G1 X121.474 Y35.932 E2.12571
G1 X189.881 Y36.603 E2.35945
G1 X191.46 Y37.013 E.05627
G1 X192.86 Y38.453 E.06926
G1 X227.713 Y107.188 E2.658
G1 X228.078 Y108.716 E.05416
G1 X228.078 Y170.316 E2.12457
G1 X227.684 Y171.899 E.05627
G1 X226.593 Y173.112 E.05627
G1 X224.701 Y173.693 E.06828
G1 X163.093 Y173.693 E2.12484
G1 X94.678 Y173.53 E2.35961
G1 X26.503 Y173.122 E2.35139
G1 X24.922 Y172.718 E.05627
M73 P0 R106
G1 X23.715 Y171.621 E.05627
G1 X23.146 Y169.745 E.06761
G1 X23.146 Y108.145 E2.12457
G1 X23.483 Y106.674 E.05206
G1 X56.775 Y37.892 E2.63555
M204 S1000
; printing object square_OV-PAM_10_patterns_1f.stl id:4 copy 0
G1 E-1 F2400
G1 X128.533 Y40.266 F10800
G1 E1 F1500
M204 S800
;TYPE:External perimeter
;WIDTH:0.461746
G1 F1200
G1 X129.249 Y40.192 E.02757
;WIDTH:0.419999
G1 X188.854 Y40.192 E2.05574
;WIDTH:0.461812
G1 X189.563 Y40.265 E.0273
M73 Q0 S108
G1 X189.637 Y40.989 E.02785
;WIDTH:0.42
G1 X189.636 Y100.586 E2.0555
;WIDTH:0.461746
G1 X189.563 Y101.295 E.0273
G1 X188.847 Y101.369 E.02757
;WIDTH:0.42
G1 X129.242 Y101.368 E2.05574
;WIDTH:0.461746
G1 X128.533 Y101.295 E.0273
G1 X128.46 Y100.579 E.02757
;WIDTH:0.42
G1 X128.46 Y40.975 E2.05574
;WIDTH:0.461746
G1 X128.527 Y40.325 E.02501
M204 S1000
G1 E-1 F2400
G1 X189.219 Y100.951 F10800
G1 E1 F1500
M204 S800
G1 F1200
G1 X188.84 Y100.992 E.01461
;WIDTH:0.42
G1 X129.256 Y100.992 E2.05502
;WIDTH:0.461746
G1 X128.877 Y100.951 E.01461
G1 X128.837 Y100.572 E.01461
;WIDTH:0.42
G1 X128.837 Y40.989 E2.05502
;WIDTH:0.461746
G1 X128.877 Y40.609 E.01461
G1 X129.256 Y40.569 E.01461
;WIDTH:0.42
G1 X188.84 Y40.569 E2.05503
;WIDTH:0.461812
G1 X189.219 Y40.609 E.0146
G1 X189.237 Y40.677 E.00267
;WIDTH:0.436378
G1 X189.254 Y40.744 E.0025
;WIDTH:0.42
G1 X189.26 Y100.572 E2.06346
;WIDTH:0.461746
G1 X189.225 Y100.892 E.01231
M204 S1000
; stop printing object square_OV-PAM_10_patterns_1f.stl id:4 copy 0
; printing object square_OV-PAM_10_patterns_1f.stl id:3 copy 0
G1 E-1 F2400
G1 X60.127 Y39.594 F10800
G1 E1 F1500
M204 S800
M73 P1 R106
G1 F1200
G1 X60.842 Y39.52 E.02757
;WIDTH:0.419999
G1 X120.447 Y39.521 E2.05574
;WIDTH:0.461812
G1 X121.156 Y39.594 E.0273
M73 Q1 S108
G1 X121.23 Y40.317 E.02785
;WIDTH:0.42
G1 X121.229 Y99.915 E2.0555
;WIDTH:0.461746
G1 X121.156 Y100.623 E.0273
G1 X120.44 Y100.697 E.02757
;WIDTH:0.42
G1 X60.835 Y100.697 E2.05574
;WIDTH:0.461746
G1 X60.127 Y100.623 E.0273
G1 X60.053 Y99.908 E.02757
;WIDTH:0.42
G1 X60.053 Y40.303 E2.05574
;WIDTH:0.461746
G1 X60.12 Y39.654 E.02501
M204 S1000
G1 E-1 F2400
G1 X120.678 Y100.315 F10800
G1 E1 F1500
M204 S800
;WIDTH:0.419999
G1 F1200
G1 X60.849 Y100.32 E2.06346
;WIDTH:0.461746
G1 X60.47 Y100.28 E.01461
G1 X60.43 Y99.901 E.01461
;WIDTH:0.42
G1 X60.43 Y40.317 E2.05502
;WIDTH:0.461746
G1 X60.47 Y39.938 E.01461
G1 X60.849 Y39.897 E.01461
;WIDTH:0.42
G1 X120.433 Y39.897 E2.05503
;WIDTH:0.461812
G1 X120.812 Y39.938 E.0146
G1 X120.853 Y40.317 E.01462
;WIDTH:0.42
G1 X120.853 Y99.901 E2.05502
;WIDTH:0.461746
G1 X120.812 Y100.28 E.01461
M73 P1 R105
G1 X120.745 Y100.298 E.00266
;WIDTH:0.436346
G1 X120.736 Y100.3 E.00034
M204 S1000
; stop printing object square_OV-PAM_10_patterns_1f.stl id:3 copy 0
; printing object square_OV-PAM_10_patterns_1f.stl id:0 copy 0
G1 E-1 F2400
G1 X26.808 Y108.43 F10800
G1 E1 F1500
M204 S800
;WIDTH:0.461746
G1 F1200
G1 X27.524 Y108.356 E.02757
;WIDTH:0.419999
G1 X87.129 Y108.357 E2.05574
;WIDTH:0.461812
G1 X87.837 Y108.43 E.0273
G1 X87.911 Y109.153 E.02785
;WIDTH:0.42
G1 X87.911 Y168.751 E2.0555
;WIDTH:0.461746
G1 X87.837 Y169.46 E.0273
G1 X87.122 Y169.533 E.02757
;WIDTH:0.42
G1 X27.517 Y169.533 E2.05574
;WIDTH:0.461746
G1 X26.808 Y169.46 E.0273
G1 X26.734 Y168.744 E.02757
;WIDTH:0.42
G1 X26.735 Y109.139 E2.05574
;WIDTH:0.461746
G1 X26.802 Y108.49 E.02501
M204 S1000
M73 Q1 S107
G1 E-1 F2400
G1 X87.494 Y169.116 F10800
G1 E1 F1500
M204 S800
G1 F1200
G1 X87.115 Y169.156 E.01461
;WIDTH:0.42
G1 X27.531 Y169.156 E2.05502
;WIDTH:0.461746
G1 X27.152 Y169.116 E.01461
G1 X27.111 Y168.737 E.01461
;WIDTH:0.42
G1 X27.111 Y109.153 E2.05502
;WIDTH:0.461746
G1 X27.152 Y108.774 E.01461
G1 X27.226 Y108.756 E.00292
;WIDTH:0.436597
G1 X27.3 Y108.738 E.00274
;WIDTH:0.42
G1 X87.115 Y108.733 E2.063
;WIDTH:0.461812
G1 X87.494 Y108.774 E.0146
G1 X87.534 Y109.153 E.01462
;WIDTH:0.42
G1 X87.534 Y168.737 E2.05502
;WIDTH:0.461746
G1 X87.5 Y169.056 E.01231
M204 S1000
; stop printing object square_OV-PAM_10_patterns_1f.stl id:0 copy 0
; printing object square_OV-PAM_10_patterns_1f.stl id:1 copy 0
G1 E-1 F2400
G1 X94.972 Y108.838 F10800
G1 E1 F1500
M204 S800
G1 F1200
G1 X95.687 Y108.764 E.02757
;WIDTH:0.419999
G1 X155.292 Y108.764 E2.05574
;WIDTH:0.461812
G1 X156.001 Y108.838 E.0273
G1 X156.075 Y109.561 E.02785
;WIDTH:0.42
G1 X156.074 Y169.158 E2.0555
;WIDTH:0.461746
G1 X156.001 Y169.867 E.0273
G1 X155.285 Y169.941 E.02757
;WIDTH:0.42
G1 X95.68 Y169.941 E2.05574
;WIDTH:0.461746
G1 X94.972 Y169.867 E.0273
G1 X94.898 Y169.151 E.02757
;WIDTH:0.42
G1 X94.898 Y109.547 E2.05574
;WIDTH:0.461746
G1 X94.965 Y108.898 E.02501
M204 S1000
G1 E-1 F2400
G1 X155.657 Y169.523 F10800
G1 E1 F1500
M204 S800
M73 P2 R105
G1 F1200
G1 X155.278 Y169.564 E.01461
;WIDTH:0.42
G1 X95.694 Y169.564 E2.05502
;WIDTH:0.461746
G1 X95.315 Y169.523 E.01461
M73 Q2 S107
G1 X95.275 Y169.144 E.01461
;WIDTH:0.42
G1 X95.275 Y109.561 E2.05502
;WIDTH:0.461746
G1 X95.315 Y109.181 E.01461
G1 X95.694 Y109.141 E.01461
;WIDTH:0.42
G1 X155.278 Y109.141 E2.05503
;WIDTH:0.461812
G1 X155.657 Y109.181 E.0146
G1 X155.698 Y109.561 E.01462
;WIDTH:0.42
G1 X155.693 Y169.389 E2.06346
;WIDTH:0.436345
G1 X155.675 Y169.456 E.0025
;WIDTH:0.461746
G1 X155.672 Y169.465 E.00037
M204 S1000
; stop printing object square_OV-PAM_10_patterns_1f.stl id:1 copy 0
; printing object square_OV-PAM_10_patterns_1f.stl id:2 copy 0
G1 E-1 F2400
G1 X163.386 Y109.001 F10800
G1 E1 F1500
M204 S800
G1 F1200
G1 X164.102 Y108.927 E.02757
;WIDTH:0.419999
G1 X223.707 Y108.928 E2.05574
;WIDTH:0.461812
G1 X224.415 Y109.001 E.0273
G1 X224.489 Y109.724 E.02785
;WIDTH:0.42
G1 X224.489 Y169.321 E2.0555
;WIDTH:0.461746
G1 X224.415 Y170.03 E.0273
M73 P2 R104
G1 X223.699 Y170.104 E.02757
;WIDTH:0.42
G1 X164.095 Y170.104 E2.05574
;WIDTH:0.461746
G1 X163.386 Y170.03 E.0273
G1 X163.312 Y169.314 E.02757
;WIDTH:0.42
G1 X163.313 Y109.71 E2.05574
;WIDTH:0.461746
G1 X163.38 Y109.061 E.02501
M204 S1000
G1 E-1 F2400
G1 X224.072 Y169.687 F10800
G1 E1 F1500
M204 S800
G1 F1200
G1 X223.692 Y169.727 E.01461
;WIDTH:0.42
G1 X164.109 Y169.727 E2.05502
;WIDTH:0.461746
G1 X163.73 Y169.687 E.01461
G1 X163.689 Y169.307 E.01461
;WIDTH:0.42
G1 X163.689 Y109.724 E2.05502
;WIDTH:0.461746
G1 X163.73 Y109.345 E.01461
M73 Q2 S106
G1 X164.109 Y109.304 E.01461
;WIDTH:0.42
G1 X223.693 Y109.304 E2.05503
;WIDTH:0.461812
G1 X224.072 Y109.344 E.0146
G1 X224.112 Y109.724 E.01462
;WIDTH:0.42
G1 X224.112 Y169.307 E2.05502
;WIDTH:0.461746
G1 X224.078 Y169.627 E.01231
M204 S1000
; stop printing object square_OV-PAM_10_patterns_1f.stl id:2 copy 0
;LAYER_CHANGE
;Z:0.4
;HEIGHT:0.2
;BEFORE_LAYER_CHANGE
G92 E0.0
;0.4


G1 E-1 F2400
G1 Z.4 F720
;AFTER_LAYER_CHANGE
;0.4
G1 X228.078 Y169.627 F10800
G1 E1 F1500
;TYPE:Skirt/Brim
;WIDTH:0.42
G1 F1988.97
G1 X228.078 Y170.316 E.02375
G1 X227.684 Y171.899 E.05627
G1 X226.593 Y173.112 E.05627
G1 X224.701 Y173.693 E.06828
G1 X163.093 Y173.693 E2.12484
G1 X94.678 Y173.53 E2.35961
G1 X26.503 Y173.122 E2.35139
G1 X24.922 Y172.718 E.05627
G1 X23.715 Y171.621 E.05627
G1 X23.146 Y169.745 E.06761
G1 X23.146 Y108.145 E2.12457
G1 X23.483 Y106.674 E.05206
G1 X56.801 Y37.838 E2.63762
G1 X57.846 Y36.584 E.05627
G1 X59.841 Y35.932 E.0724
G1 X121.474 Y35.932 E2.12571
G1 X189.881 Y36.603 E2.35945
G1 X191.46 Y37.013 E.05627
G1 X192.86 Y38.453 E.06926
G1 X227.713 Y107.188 E2.658
G1 X228.078 Y108.716 E.05416
G1 X228.078 Y169.567 E2.09875
; printing object square_OV-PAM_10_patterns_1f.stl id:4 copy 0
G1 E-1 F2400
G1 X128.471 Y40.562 F10800
G1 E1 F1500
M204 S800
;TYPE:External perimeter
;WIDTH:0.453934
G1 X128.475 Y40.491 E.00268
;WIDTH:0.486407
G1 X128.491 Y40.224 E.01088
G1 X128.759 Y40.207 E.01088
;WIDTH:0.453934
G1 X129.027 Y40.191 E.01008
;WIDTH:0.42146
G1 X189.07 Y40.191 E2.07888
;WIDTH:0.453934
G1 X189.337 Y40.207 E.01008
;WIDTH:0.486407
G1 X189.605 Y40.224 E.01088
G1 X189.605 Y40.445 E.00899
G1 X189.621 Y40.602 E.00639
;WIDTH:0.453934
G1 X189.637 Y40.759 E.00593
;WIDTH:0.42146
G1 X189.637 Y100.802 E2.07888
;WIDTH:0.453934
G1 X189.621 Y101.069 E.01008
;WIDTH:0.486407
G1 X189.605 Y101.337 E.01088
G1 X189.337 Y101.353 E.01088
;WIDTH:0.453934
G1 X189.07 Y101.37 E.01008
;WIDTH:0.42146
G1 X129.027 Y101.37 E2.07888
;WIDTH:0.453934
G1 X128.759 Y101.353 E.01008
;WIDTH:0.486407
M73 P3 R104
G1 X128.491 Y101.337 E.01088
G1 X128.475 Y101.069 E.01088
;WIDTH:0.453934
G1 X128.459 Y100.802 E.01008
;WIDTH:0.42146
G1 X128.459 Y40.759 E2.07888
;WIDTH:0.453934
G1 X128.467 Y40.622 E.00514
M204 S1000
M73 Q3 S106
G1 E-1 F2400
G1 X189.226 Y100.959 F10800
G1 E1 F1500
M204 S800
;WIDTH:0.486407
G1 X189.164 Y100.974 E.00259
;WIDTH:0.455368
G1 X189.102 Y100.99 E.00241
;WIDTH:0.424328
G1 X189.07 Y100.991 E.00115
;WIDTH:0.42146
G1 X129.027 Y100.991 E2.07888
;WIDTH:0.453934
G1 X128.948 Y100.975 E.00301
;WIDTH:0.486407
G1 X128.87 Y100.959 E.00325
G1 X128.854 Y100.88 E.00325
;WIDTH:0.453934
G1 X128.837 Y100.802 E.00301
;WIDTH:0.42146
G1 X128.837 Y40.759 E2.07888
;WIDTH:0.453934
G1 X128.854 Y40.68 E.00301
;WIDTH:0.486407
G1 X128.87 Y40.602 E.00325
G1 X128.948 Y40.586 E.00325
;WIDTH:0.453934
G1 X129.027 Y40.57 E.00301
;WIDTH:0.42146
G1 X189.07 Y40.57 E2.07888
;WIDTH:0.453934
G1 X189.148 Y40.586 E.00301
;WIDTH:0.486407
G1 X189.226 Y40.602 E.00325
G1 X189.243 Y40.68 E.00325
;WIDTH:0.453934
G1 X189.259 Y40.759 E.00301
;WIDTH:0.42146
G1 X189.259 Y100.802 E2.07888
;WIDTH:0.453934
G1 X189.243 Y100.88 E.00301
;WIDTH:0.486407
M73 P3 R103
G1 X189.238 Y100.9 E.00081
M204 S1000
; stop printing object square_OV-PAM_10_patterns_1f.stl id:4 copy 0
; printing object square_OV-PAM_10_patterns_1f.stl id:3 copy 0
G1 E-1 F2400
G1 X60.064 Y39.891 F10800
G1 E1 F1500
M204 S800
;WIDTH:0.453934
G1 X60.068 Y39.82 E.00268
;WIDTH:0.486407
G1 X60.084 Y39.552 E.01088
G1 X60.352 Y39.536 E.01088
;WIDTH:0.453934
G1 X60.62 Y39.52 E.01008
;WIDTH:0.42146
G1 X120.663 Y39.52 E2.07888
;WIDTH:0.453934
G1 X120.93 Y39.536 E.01008
;WIDTH:0.486407
G1 X121.198 Y39.552 E.01088
G1 X121.198 Y39.774 E.00899
G1 X121.214 Y39.931 E.00639
;WIDTH:0.453934
G1 X121.23 Y40.087 E.00593
;WIDTH:0.42146
G1 X121.23 Y100.13 E2.07888
;WIDTH:0.453934
G1 X121.214 Y100.398 E.01008
;WIDTH:0.486407
G1 X121.198 Y100.666 E.01088
G1 X120.93 Y100.682 E.01088
;WIDTH:0.453934
G1 X120.663 Y100.698 E.01008
;WIDTH:0.42146
G1 X60.62 Y100.698 E2.07888
;WIDTH:0.453934
G1 X60.352 Y100.682 E.01008
;WIDTH:0.486407
G1 X60.084 Y100.666 E.01088
G1 X60.068 Y100.398 E.01088
;WIDTH:0.453934
G1 X60.052 Y100.13 E.01008
;WIDTH:0.42146
G1 X60.052 Y40.087 E2.07888
;WIDTH:0.453934
G1 X60.06 Y39.951 E.00514
M204 S1000
G1 E-1 F2400
G1 X120.663 Y100.32 F10800
G1 E1 F1500
M204 S800
;WIDTH:0.42146
M73 Q3 S105
G1 X60.62 Y100.32 E2.07888
;WIDTH:0.453934
G1 X60.541 Y100.303 E.00301
;WIDTH:0.486407
G1 X60.463 Y100.287 E.00325
G1 X60.447 Y100.209 E.00325
;WIDTH:0.453934
G1 X60.43 Y100.13 E.00301
;WIDTH:0.42146
G1 X60.43 Y40.087 E2.07888
;WIDTH:0.453934
G1 X60.447 Y40.009 E.00301
;WIDTH:0.486407
G1 X60.463 Y39.931 E.00325
G1 X60.541 Y39.914 E.00325
;WIDTH:0.453934
G1 X60.62 Y39.898 E.00301
;WIDTH:0.42146
G1 X120.663 Y39.898 E2.07888
;WIDTH:0.453934
G1 X120.741 Y39.914 E.00301
;WIDTH:0.486407
G1 X120.819 Y39.931 E.00325
G1 X120.836 Y40.009 E.00325
;WIDTH:0.453934
G1 X120.852 Y40.087 E.00301
;WIDTH:0.42146
G1 X120.852 Y100.13 E2.07888
;WIDTH:0.453934
G1 X120.836 Y100.209 E.00301
;WIDTH:0.486407
G1 X120.819 Y100.287 E.00325
G1 X120.741 Y100.303 E.00325
;WIDTH:0.453934
G1 X120.721 Y100.307 E.00075
M204 S1000
; stop printing object square_OV-PAM_10_patterns_1f.stl id:3 copy 0
; printing object square_OV-PAM_10_patterns_1f.stl id:0 copy 0
G1 E-1 F2400
G1 X26.745 Y108.727 F10800
G1 E1 F1500
M204 S800
G1 X26.75 Y108.656 E.00268
;WIDTH:0.486407
G1 X26.766 Y108.388 E.01088
G1 X27.034 Y108.372 E.01088
;WIDTH:0.453934
G1 X27.301 Y108.356 E.01008
;WIDTH:0.42146
G1 X87.344 Y108.356 E2.07888
;WIDTH:0.453934
G1 X87.612 Y108.372 E.01008
;WIDTH:0.486407
G1 X87.88 Y108.388 E.01088
G1 X87.88 Y108.61 E.00899
G1 X87.896 Y108.767 E.00639
;WIDTH:0.453934
G1 X87.912 Y108.923 E.00593
;WIDTH:0.42146
G1 X87.912 Y168.966 E2.07888
;WIDTH:0.453934
G1 X87.896 Y169.234 E.01008
;WIDTH:0.486407
G1 X87.88 Y169.502 E.01088
G1 X87.612 Y169.518 E.01088
;WIDTH:0.453934
G1 X87.344 Y169.534 E.01008
;WIDTH:0.42146
G1 X27.301 Y169.534 E2.07888
;WIDTH:0.453934
G1 X27.034 Y169.518 E.01008
;WIDTH:0.486407
G1 X26.766 Y169.502 E.01088
G1 X26.75 Y169.234 E.01088
;WIDTH:0.453934
G1 X26.734 Y168.966 E.01008
;WIDTH:0.42146
G1 X26.734 Y108.923 E2.07888
;WIDTH:0.453934
G1 X26.742 Y108.787 E.00514
M204 S1000
G1 E-1 F2400
G1 X87.501 Y169.123 F10800
G1 E1 F1500
M204 S800
;WIDTH:0.486407
G1 X87.439 Y169.139 E.00259
;WIDTH:0.455368
G1 X87.377 Y169.154 E.00241
;WIDTH:0.424328
G1 X87.344 Y169.156 E.00115
;WIDTH:0.42146
G1 X27.301 Y169.156 E2.07888
;WIDTH:0.453934
G1 X27.223 Y169.139 E.00301
;WIDTH:0.486407
G1 X27.145 Y169.123 E.00325
G1 X27.128 Y169.045 E.00325
;WIDTH:0.453934
G1 X27.112 Y168.966 E.00301
;WIDTH:0.42146
G1 X27.112 Y108.923 E2.07888
;WIDTH:0.453934
G1 X27.128 Y108.845 E.00301
;WIDTH:0.486407
