; generated by PrusaSlicer 2.5.2+win64 on 2023-10-12 at 04:06:22 UTC


;
;
; 

; external perimeters extrusion width = 0.40mm
; perimeters extrusion width = 0.40mm
; infill extrusion width = 0.40mm
; solid infill extrusion width = 0.40mm
; top infill extrusion width = 0.40mm
; first layer extrusion width = 0.40mm

M73 P0 R26
M73 Q0 S26
M201 X1000 Y1000 Z200 E5000 ; sets maximum accelerations, mm/sec^2
M203 X200 Y200 Z12 E120 ; sets maximum feedrates, mm / sec
M204 P1250 R1250 T1250 ; sets acceleration (P, T) and retract acceleration (R), mm/sec^2
M205 X8.00 Y8.00 Z0.40 E4.50 ; sets the jerk limits, mm/sec
M205 S0 T0 ; sets the minimum extruding and travel feed rate, mm/sec
M107
;TYPE:Custom
M862.3 P "MK3S" ; printer model check
M862.1 P0.4 ; nozzle diameter check
M115 U3.12.2 ; tell printer latest fw version
G90 ; use absolute coordinates
M83 ; extruder relative mode
M104 S230 ; set extruder temp
M140 S50 ; set bed temp
M190 S50 ; wait for bed temp
M109 S230 ; wait for extruder temp
G28 W ; home all without mesh bed level
G80 ; mesh bed leveling

G1 Z0.2 F720
G1 Y-3 F1000 ; go outside print area
G92 E0
G1 X60 E9 F1000 ; intro line
G1 X100 E12.5 F1000 ; intro line

G92 E0
M221 S95

; Don't change E values below. Excessive value can damage the printer.
M907 E430 ; set extruder motor current
G21 ; set units to millimeters
G90 ; use absolute coordinates
M83 ; use relative distances for extrusion
M900 K0 ; Filament gcode
M107
;LAYER_CHANGE
;Z:0.2
;HEIGHT:0.2
;BEFORE_LAYER_CHANGE
G92 E0.0
;0.2


G1 E-1 F2400
G1 Z.2 F720
;AFTER_LAYER_CHANGE
;0.2
G1 X89.234 Y88.795 F4200
G1 E1 F1500
M204 S300
;TYPE:Skirt/Brim
;WIDTH:0.4
G1 F1200
G1 X108.795 Y69.234 E.90348
G1 X110.189 Y68.397 E.05312
G1 X111.169 Y68.251 E.03234
G1 X138.831 Y68.251 E.90348
G1 X140.409 Y68.645 E.05312
G1 X141.205 Y69.234 E.03234
G1 X160.766 Y88.795 E.90348
G1 X161.603 Y90.189 E.05312
G1 X161.749 Y91.169 E.03234
G1 X161.749 Y118.831 E.90348
G1 X161.355 Y120.409 E.05312
G1 X160.766 Y121.205 E.03234
G1 X141.205 Y140.766 E.90348
G1 X139.811 Y141.603 E.05312
G1 X138.831 Y141.749 E.03234
G1 X111.169 Y141.749 E.90348
G1 X109.591 Y141.355 E.05312
M73 P1 R26
M73 Q1 S26
G1 X108.795 Y140.766 E.03234
G1 X89.234 Y121.205 E.90348
G1 X88.397 Y119.811 E.05312
G1 X88.251 Y118.831 E.03234
G1 X88.251 Y91.169 E.90348
G1 X88.645 Y89.591 E.05312
G1 X89.199 Y88.843 E.03038
; printing object OV-PAM_standard_0.4wall_1F.stl id:0 copy 0
G1 E-1 F2400
G1 X158.085 Y118.654 F4200
G1 E1 F1500
;TYPE:External perimeter
;WIDTH:0.666659
G1 F1200
G1 X158.08 Y118.702 E.00279
G1 X158.004 Y118.795 E.00684
G1 X138.702 Y138.08 E1.55663
G1 X111.298 Y138.08 E1.56343
G1 X91.92 Y118.702 E1.56343
G1 X91.92 Y91.298 E1.56343
G1 X111.298 Y71.92 E1.56343
G1 X138.702 Y71.92 E1.56343
G1 X158.08 Y91.298 E1.56343
G1 X158.091 Y118.594 E1.55725
G1 X158.129 Y118.675 F4200
; stop printing object OV-PAM_standard_0.4wall_1F.stl id:0 copy 0
;LAYER_CHANGE
;Z:0.4
;HEIGHT:0.2
;BEFORE_LAYER_CHANGE
G92 E0.0
;0.4


M73 P2 R26
M73 Q2 S26
G1 E-1 F2400
G1 Z.4 F720
;AFTER_LAYER_CHANGE
;0.4
G1 X161.59 Y119.468 F4200
G1 E1 F1500
;TYPE:Skirt/Brim
;WIDTH:0.4
G1 F2100.372
G1 X161.355 Y120.409 E.03171
G1 X160.766 Y121.205 E.03234
G1 X141.205 Y140.766 E.90348
G1 X139.811 Y141.603 E.05312
G1 X138.831 Y141.749 E.03234
G1 X111.169 Y141.749 E.90348
G1 X109.591 Y141.355 E.05312
G1 X108.795 Y140.766 E.03234
G1 X89.234 Y121.205 E.90348
G1 X88.397 Y119.811 E.05312
G1 X88.251 Y118.831 E.03234
G1 X88.251 Y91.169 E.90348
G1 X88.645 Y89.591 E.05312
G1 X89.234 Y88.795 E.03234
G1 X108.795 Y69.234 E.90348
G1 X110.189 Y68.397 E.05312
G1 X111.169 Y68.251 E.03234
G1 X138.831 Y68.251 E.90348
G1 X140.409 Y68.645 E.05312
G1 X141.205 Y69.234 E.03234
G1 X160.766 Y88.795 E.90348
G1 X161.603 Y90.189 E.05312
G1 X161.749 Y91.169 E.03234
G1 X161.749 Y118.831 E.90348
G1 X161.605 Y119.409 E.01946
; printing object OV-PAM_standard_0.4wall_1F.stl id:0 copy 0
G1 E-1 F2400
G1 X157.958 Y118.652 F4200
G1 X157.958 Y118.652
G1 X157.958 Y118.636
G1 X158.087 Y118.636
G1 E1 F1500
;TYPE:External perimeter
;WIDTH:0.666659
G1 F1200
G1 X158.08 Y118.702 E.00382
G1 X158.004 Y118.795 E.00684
G1 X138.702 Y138.08 E1.55663
G1 X111.298 Y138.08 E1.56343
G1 X91.92 Y118.702 E1.56343
G1 X91.92 Y91.298 E1.56343
G1 X111.298 Y71.92 E1.56343
M73 P2 R25
M73 Q2 S25
G1 X138.702 Y71.92 E1.56343
G1 X158.08 Y91.298 E1.56343
M73 P3 R25
M73 Q3 S25
G1 X158.092 Y118.576 E1.55623
G1 X158.147 Y118.665 F4200
; stop printing object OV-PAM_standard_0.4wall_1F.stl id:0 copy 0
;LAYER_CHANGE
;Z:0.6
;HEIGHT:0.2
;BEFORE_LAYER_CHANGE
G92 E0.0
;0.6


G1 E-1 F2400
G1 Z.6 F720
;AFTER_LAYER_CHANGE
;0.6
G1 X161.594 Y119.45 F4200
G1 E1 F1500
;TYPE:Skirt/Brim
;WIDTH:0.4
G1 F2100.372
G1 X161.355 Y120.409 E.03228
G1 X160.766 Y121.205 E.03234
G1 X141.205 Y140.766 E.90348
G1 X139.811 Y141.603 E.05312
G1 X138.831 Y141.749 E.03234
G1 X111.169 Y141.749 E.90348
G1 X109.591 Y141.355 E.05312
G1 X108.795 Y140.766 E.03234
G1 X89.234 Y121.205 E.90348
G1 X88.397 Y119.811 E.05312
G1 X88.251 Y118.831 E.03234
G1 X88.251 Y91.169 E.90348
G1 X88.645 Y89.591 E.05312
G1 X89.234 Y88.795 E.03234
G1 X108.795 Y69.234 E.90348
G1 X110.189 Y68.397 E.05312
G1 X111.169 Y68.251 E.03234
G1 X138.831 Y68.251 E.90348
G1 X140.409 Y68.645 E.05312
G1 X141.205 Y69.234 E.03234
G1 X160.766 Y88.795 E.90348
G1 X161.603 Y90.189 E.05312
G1 X161.749 Y91.169 E.03234
G1 X161.749 Y118.831 E.90348
G1 X161.609 Y119.392 E.01888
; printing object OV-PAM_standard_0.4wall_1F.stl id:0 copy 0
G1 E-1 F2400
G1 X157.958 Y118.646 F4200
G1 X157.958 Y118.616
G1 X158.089 Y118.616
G1 E1 F1500
;TYPE:External perimeter
;WIDTH:0.666659
G1 F1200
G1 X158.08 Y118.702 E.00497
G1 X158.004 Y118.795 E.00684
G1 X138.702 Y138.08 E1.55663
G1 X111.298 Y138.08 E1.56343
G1 X91.92 Y118.702 E1.56343
G1 X91.92 Y91.298 E1.56343
G1 X111.298 Y71.92 E1.56343
M73 P4 R25
M73 Q4 S25
G1 X138.702 Y71.92 E1.56343
G1 X158.08 Y91.298 E1.56343
G1 X158.092 Y118.556 E1.55507
G1 X158.167 Y118.654 F4200
; stop printing object OV-PAM_standard_0.4wall_1F.stl id:0 copy 0
;LAYER_CHANGE
;Z:0.8
;HEIGHT:0.2
;BEFORE_LAYER_CHANGE
G92 E0.0
;0.8


G1 E-1 F2400
G1 Z.8 F720
;AFTER_LAYER_CHANGE
;0.8
; printing object OV-PAM_standard_0.4wall_1F.stl id:0 copy 0
G1 X158.091 Y118.593 F4200
G1 E1 F1500
G1 F1200
G1 X158.08 Y118.702 E.00626
G1 X158.004 Y118.795 E.00684
G1 X138.702 Y138.08 E1.55663
G1 X111.298 Y138.08 E1.56343
G1 X91.92 Y118.702 E1.56343
G1 X91.92 Y91.298 E1.56343
G1 X111.298 Y71.92 E1.56343
G1 X138.702 Y71.92 E1.56343
G1 X158.08 Y91.298 E1.56343
G1 X158.092 Y118.533 E1.55379
G1 X158.189 Y118.642 F4200
; stop printing object OV-PAM_standard_0.4wall_1F.stl id:0 copy 0
;LAYER_CHANGE
;Z:1
;HEIGHT:0.2
;BEFORE_LAYER_CHANGE
G92 E0.0
;1


M73 P5 R25
M73 Q5 S25
G1 E-1 F2400
G1 Z1 F720
;AFTER_LAYER_CHANGE
;1
; printing object OV-PAM_standard_0.4wall_1F.stl id:0 copy 0
G1 X158.092 Y118.561 F4200
G1 E1 F1500
G1 F1200
G1 X158.08 Y118.702 E.00807
G1 X158.004 Y118.795 E.00684
G1 X138.702 Y138.08 E1.55663
G1 X111.298 Y138.08 E1.56343
G1 X91.92 Y118.702 E1.56343
G1 X91.92 Y91.298 E1.56343
G1 X111.298 Y71.92 E1.56343
G1 X138.702 Y71.92 E1.56343
G1 X158.08 Y91.298 E1.56343
G1 X158.092 Y118.501 E1.55197
G1 X158.219 Y118.623 F4200
; stop printing object OV-PAM_standard_0.4wall_1F.stl id:0 copy 0
;LAYER_CHANGE
;Z:1.2
;HEIGHT:0.2
;BEFORE_LAYER_CHANGE
G92 E0.0
;1.2


G1 E-1 F2400
G1 Z1.2 F720
;AFTER_LAYER_CHANGE
;1.2
; printing object OV-PAM_standard_0.4wall_1F.stl id:0 copy 0
G1 X158.09 Y118.53 F4200
G1 E1 F1500
;WIDTH:0.670967
G1 F1194.179
G1 X158.078 Y118.701 E.00987
G1 X158.001 Y118.795 E.00694
G1 X138.701 Y138.078 E1.56723
G1 X111.299 Y138.078 E1.57413
G1 X91.922 Y118.701 E1.57413
G1 X91.922 Y91.299 E1.57413
M73 P6 R25
M73 Q6 S25
G1 X111.299 Y71.922 E1.57413
G1 X138.701 Y71.922 E1.57413
G1 X158.078 Y91.299 E1.57413
G1 X158.09 Y118.47 E1.56083
G1 X158.245 Y118.603 F4200
; stop printing object OV-PAM_standard_0.4wall_1F.stl id:0 copy 0
;LAYER_CHANGE
;Z:1.4
;HEIGHT:0.2
;BEFORE_LAYER_CHANGE
G92 E0.0
;1.4


G1 E-1 F2400
G1 Z1.4 F720
;AFTER_LAYER_CHANGE
;1.4
; printing object OV-PAM_standard_0.4wall_1F.stl id:0 copy 0
G1 X157.903 Y118.471 F4200
G1 E1 F1500
;WIDTH:0.523074
G1 F1200
G1 X157.894 Y118.625 E.00678
G1 X157.836 Y118.697 E.00405
G1 X138.625 Y137.894 E1.19273
G1 X111.375 Y137.894 E1.19677
M73 P6 R24
M73 Q6 S24
G1 X92.106 Y118.625 E1.19677
G1 X92.106 Y91.375 E1.19677
G1 X111.375 Y72.106 E1.19677
G1 X138.625 Y72.106 E1.19677
G1 X157.894 Y91.375 E1.19677
G1 X157.903 Y118.411 E1.18736
M73 P7 R24
M73 Q7 S24
G1 X158.043 Y118.536 F4200
; stop printing object OV-PAM_standard_0.4wall_1F.stl id:0 copy 0
;LAYER_CHANGE
;Z:1.6
;HEIGHT:0.2
;BEFORE_LAYER_CHANGE
G92 E0.0
;1.6


G1 E-1 F2400
G1 Z1.6 F720
;AFTER_LAYER_CHANGE
;1.6
; printing object OV-PAM_standard_0.4wall_1F.stl id:0 copy 0
G1 X157.788 Y118.409 F4200
G1 E1 F1500
;WIDTH:0.529263
G1 F1200
G1 X157.787 Y118.565 E.00693
G1 X157.72 Y118.649 E.00476
G1 X138.592 Y137.776 E1.2033
G1 X111.435 Y137.787 E1.20803
G1 X92.224 Y118.592 E1.20803
G1 X92.213 Y91.435 E1.20803
G1 X111.408 Y72.224 E1.20803
G1 X138.565 Y72.213 E1.20803
G1 X157.776 Y91.408 E1.20803
G1 X157.788 Y118.349 E1.19842
G1 X157.664 Y118.503 F4200
; stop printing object OV-PAM_standard_0.4wall_1F.stl id:0 copy 0
;LAYER_CHANGE
;Z:1.8
;HEIGHT:0.2
;BEFORE_LAYER_CHANGE
G92 E0.0
;1.8


G1 E-1 F2400
G1 Z1.8 F720
;AFTER_LAYER_CHANGE
;1.8
; printing object OV-PAM_standard_0.4wall_1F.stl id:0 copy 0
G1 X157.675 Y118.347 F4200
G1 E1 F1500
;WIDTH:0.504802
G1 F1200
G1 X157.687 Y118.438 E.00386
;WIDTH:0.556729
G1 X157.696 Y118.473 E.00172
;WIDTH:0.556728
G1 X157.605 Y118.601 E.00738
;WIDTH:0.504801
G1 X138.683 Y137.523 E1.13047
G1 X138.611 Y137.615 E.00494
;WIDTH:0.556727
G1 X138.593 Y137.646 E.00172
G1 X138.438 Y137.672 E.00738
;WIDTH:0.504802
G1 X111.678 Y137.672 E1.13047
G1 X111.562 Y137.687 E.00494
;WIDTH:0.556729
M73 P8 R24
M73 Q8 S24
G1 X111.527 Y137.696 E.00172
G1 X111.399 Y137.605 E.00738
;WIDTH:0.504801
G1 X92.477 Y118.683 E1.13047
G1 X92.385 Y118.611 E.00494
;WIDTH:0.556727
G1 X92.354 Y118.593 E.00172
G1 X92.328 Y118.438 E.00738
;WIDTH:0.504802
G1 X92.328 Y91.678 E1.13047
G1 X92.313 Y91.562 E.00494
;WIDTH:0.556729
G1 X92.304 Y91.527 E.00172
G1 X92.395 Y91.399 E.00738
;WIDTH:0.504801
G1 X111.317 Y72.477 E1.13047
G1 X111.389 Y72.385 E.00494
;WIDTH:0.556727
G1 X111.407 Y72.354 E.00172
G1 X111.562 Y72.328 E.00738
;WIDTH:0.504802
G1 X138.322 Y72.328 E1.13047
G1 X138.438 Y72.313 E.00494
;WIDTH:0.556729
G1 X138.473 Y72.304 E.00172
G1 X138.601 Y72.395 E.00738
;WIDTH:0.504801
G1 X157.523 Y91.317 E1.13047
G1 X157.615 Y91.389 E.00494
;WIDTH:0.556727
G1 X157.646 Y91.407 E.00172
G1 X157.672 Y91.562 E.00738
;WIDTH:0.504802
G1 X157.672 Y118.287 E1.12902
; stop printing object OV-PAM_standard_0.4wall_1F.stl id:0 copy 0
;LAYER_CHANGE
;Z:2
;HEIGHT:0.2
;BEFORE_LAYER_CHANGE
G92 E0.0
;2


G1 E-1 F2400
G1 Z2 F720
;AFTER_LAYER_CHANGE
;2
; printing object OV-PAM_standard_0.4wall_1F.stl id:0 copy 0
G1 X157.585 Y118.273 F4200
G1 E1 F1500
;WIDTH:0.604426
G1 F1200
G1 X157.607 Y118.365 E.00488
;WIDTH:0.604425
G1 X157.543 Y118.471 E.00637
;WIDTH:0.544424
G1 X157.489 Y118.553 E.00448
G1 X138.722 Y137.32 E1.21742
G1 X138.664 Y137.414 E.00505
;WIDTH:0.604425
G1 X138.606 Y137.507 E.00566
G1 X138.485 Y137.537 E.00637
;WIDTH:0.544425
G1 X138.39 Y137.557 E.00448
G1 X111.849 Y137.557 E1.21742
G1 X111.742 Y137.582 E.00505
;WIDTH:0.604426
G1 X111.635 Y137.607 E.00566
G1 X111.529 Y137.543 E.00637
;WIDTH:0.544424
G1 X111.447 Y137.489 E.00448
G1 X92.68 Y118.722 E1.21742
G1 X92.586 Y118.664 E.00505
;WIDTH:0.604425
G1 X92.493 Y118.606 E.00566
G1 X92.463 Y118.485 E.00637
;WIDTH:0.544425
G1 X92.443 Y118.39 E.00448
G1 X92.443 Y91.849 E1.21742
G1 X92.418 Y91.742 E.00505
;WIDTH:0.604426
G1 X92.393 Y91.635 E.00566
G1 X92.457 Y91.529 E.00637
;WIDTH:0.544424
G1 X92.511 Y91.447 E.00448
G1 X111.278 Y72.68 E1.21742
G1 X111.336 Y72.586 E.00505
;WIDTH:0.604425
G1 X111.394 Y72.493 E.00566
G1 X111.515 Y72.463 E.00637
;WIDTH:0.544425
G1 X111.61 Y72.443 E.00448
G1 X138.151 Y72.443 E1.21742
G1 X138.258 Y72.418 E.00505
;WIDTH:0.604426
M73 P9 R24
M73 Q9 S24
G1 X138.365 Y72.393 E.00566
G1 X138.471 Y72.457 E.00637
;WIDTH:0.544424
G1 X138.553 Y72.511 E.00448
G1 X157.32 Y91.278 E1.21742
G1 X157.414 Y91.336 E.00505
;WIDTH:0.604425
G1 X157.507 Y91.394 E.00566
G1 X157.537 Y91.515 E.00637
;WIDTH:0.544425
G1 X157.557 Y91.61 E.00448
G1 X157.557 Y118.151 E1.21742
G1 X157.572 Y118.214 E.00299
G1 X157.511 Y118.332 F4200
; stop printing object OV-PAM_standard_0.4wall_1F.stl id:0 copy 0
;LAYER_CHANGE
;Z:2.2
;HEIGHT:0.2
;BEFORE_LAYER_CHANGE
G92 E0.0
;2.2


G1 E-1 F2400
G1 Z2.2 F720
;AFTER_LAYER_CHANGE
;2.2
; printing object OV-PAM_standard_0.4wall_1F.stl id:0 copy 0
G1 X157.5 Y118.295 F4200
G1 E1 F1500
;WIDTH:0.661291
G1 F1200
G1 X157.481 Y118.342 E.00285
;WIDTH:0.584048
G1 X157.374 Y118.505 E.00967
;WIDTH:0.504801
G1 X138.761 Y137.118 E1.112
G1 X138.728 Y137.179 E.00296
;WIDTH:0.583045
G1 X138.66 Y137.302 E.00692
;WIDTH:0.661291
G1 X138.627 Y137.363 E.00396
G1 X138.533 Y137.402 E.00571
;WIDTH:0.584048
G1 X138.342 Y137.441 E.00967
;WIDTH:0.504802
G1 X112.02 Y137.441 E1.112
G1 X111.953 Y137.461 E.00296
;WIDTH:0.583047
G1 X111.818 Y137.5 E.00692
;WIDTH:0.661292
G1 X111.751 Y137.52 E.00396
G1 X111.658 Y137.481 E.00571
;WIDTH:0.584048
G1 X111.495 Y137.374 E.00967
;WIDTH:0.504801
G1 X92.882 Y118.761 E1.112
G1 X92.821 Y118.728 E.00296
;WIDTH:0.583045
G1 X92.698 Y118.66 E.00692
;WIDTH:0.661291
G1 X92.637 Y118.627 E.00396
G1 X92.598 Y118.533 E.00571
;WIDTH:0.584048
G1 X92.559 Y118.342 E.00967
;WIDTH:0.504802
G1 X92.559 Y92.02 E1.112
G1 X92.539 Y91.953 E.00296
;WIDTH:0.583047
G1 X92.5 Y91.818 E.00692
;WIDTH:0.661292
G1 X92.48 Y91.751 E.00396
G1 X92.519 Y91.658 E.00571
;WIDTH:0.584048
G1 X92.626 Y91.495 E.00967
;WIDTH:0.504801
G1 X111.239 Y72.882 E1.112
G1 X111.272 Y72.821 E.00296
;WIDTH:0.583045
G1 X111.34 Y72.698 E.00692
;WIDTH:0.661291
G1 X111.373 Y72.637 E.00396
G1 X111.467 Y72.598 E.00571
;WIDTH:0.584048
G1 X111.658 Y72.559 E.00967
;WIDTH:0.504802
G1 X137.98 Y72.559 E1.112
G1 X138.047 Y72.539 E.00296
;WIDTH:0.583047
G1 X138.182 Y72.5 E.00692
;WIDTH:0.661292
G1 X138.249 Y72.48 E.00396
G1 X138.342 Y72.519 E.00571
;WIDTH:0.584048
G1 X138.505 Y72.626 E.00967
;WIDTH:0.504801
G1 X157.118 Y91.239 E1.112
G1 X157.179 Y91.272 E.00296
;WIDTH:0.583045
G1 X157.302 Y91.34 E.00692
;WIDTH:0.661291
G1 X157.363 Y91.373 E.00396
G1 X157.402 Y91.467 E.00571
;WIDTH:0.584048
G1 X157.441 Y91.658 E.00967
;WIDTH:0.504802
G1 X157.441 Y117.98 E1.112
G1 X157.461 Y118.047 E.00296
;WIDTH:0.583047
G1 X157.5 Y118.182 E.00692
;WIDTH:0.661292
G1 X157.517 Y118.24 E.00342
; stop printing object OV-PAM_standard_0.4wall_1F.stl id:0 copy 0
;LAYER_CHANGE
;Z:2.4
;HEIGHT:0.2
;BEFORE_LAYER_CHANGE
G92 E0.0
;2.4


G1 E-1 F2400
G1 Z2.4 F720
;AFTER_LAYER_CHANGE
;2.4
; printing object OV-PAM_standard_0.4wall_1F.stl id:0 copy 0
G1 X138.8 Y136.915 F4200
G1 E1 F1500
;WIDTH:0.504803
G1 F1200
G1 X157.095 Y118.621 E1.09301
G1 X157.295 Y118.009 F4200
;WIDTH:0.4
M73 P10 R24
M73 Q10 S24
G1 F1200
G1 X157.75 Y118.009 E.01487
G1 X157.295 Y118.465 E.02104
G1 X157.295 Y118.069 E.01291
G1 X157.095 Y118.355 F4200
G1 X157.326 Y117.809
;WIDTH:0.504804
G1 F1200
G1 X157.326 Y91.937 E1.09301
G1 X157.035 Y91.363 F4200
;WIDTH:0.4
G1 F1200
G1 X157.357 Y91.041 E.01487
G1 X157.357 Y91.685 E.02104
G1 X157.077 Y91.405 E.01291
G1 X157.138 Y91.749 F4200
G1 X156.915 Y91.2
;WIDTH:0.504803
G1 F1200
G1 X138.621 Y72.905 E1.09301
G1 X138.009 Y72.705 F4200
;WIDTH:0.4
G1 F1200
G1 X138.009 Y72.25 E.01487
G1 X138.465 Y72.705 E.02104
G1 X138.069 Y72.705 E.01291
G1 X138.355 Y72.905 F4200
G1 X137.809 Y72.674
;WIDTH:0.504804
G1 F1200
G1 X111.937 Y72.674 E1.09301
G1 X111.363 Y72.965 F4200
;WIDTH:0.4
M73 P10 R23
M73 Q10 S23
G1 F1200
G1 X111.041 Y72.643 E.01487
G1 X111.685 Y72.643 E.02104
G1 X111.405 Y72.923 E.01291
G1 X111.749 Y72.862 F4200
G1 X111.2 Y73.085
;WIDTH:0.504803
G1 F1200
G1 X92.905 Y91.379 E1.09301
G1 X92.705 Y91.991 F4200
;WIDTH:0.4
G1 F1200
G1 X92.25 Y91.991 E.01487
G1 X92.705 Y91.535 E.02104
G1 X92.705 Y91.931 E.01291
G1 X92.905 Y91.645 F4200
G1 X92.674 Y92.191
;WIDTH:0.504804
G1 F1200
