; generated by PrusaSlicer 2.5.2+win64 on 2023-10-12 at 06:12:26 UTC


;
;
; 

; external perimeters extrusion width = 0.30mm
; perimeters extrusion width = 0.30mm
; infill extrusion width = 0.30mm
; solid infill extrusion width = 0.30mm
; top infill extrusion width = 0.30mm
; first layer extrusion width = 0.30mm

M73 P0 R29
M73 Q0 S29
M201 X1000 Y1000 Z200 E5000 ; sets maximum accelerations, mm/sec^2
M203 X200 Y200 Z12 E120 ; sets maximum feedrates, mm / sec
M204 P1250 R1250 T1250 ; sets acceleration (P, T) and retract acceleration (R), mm/sec^2
M205 X8.00 Y8.00 Z0.40 E4.50 ; sets the jerk limits, mm/sec
M205 S0 T0 ; sets the minimum extruding and travel feed rate, mm/sec
M107
;TYPE:Custom
M862.3 P "MK3S" ; printer model check
M862.1 P0.4 ; nozzle diameter check
M115 U3.12.2 ; tell printer latest fw version
G90 ; use absolute coordinates
M83 ; extruder relative mode
M104 S230 ; set extruder temp
M140 S50 ; set bed temp
M190 S50 ; wait for bed temp
M109 S230 ; wait for extruder temp
G28 W ; home all without mesh bed level
G80 ; mesh bed leveling

G1 Z0.2 F720
G1 Y-3 F1000 ; go outside print area
G92 E0
G1 X60 E9 F1000 ; intro line
G1 X100 E12.5 F1000 ; intro line

G92 E0
M221 S95

; Don't change E values below. Excessive value can damage the printer.
M907 E430 ; set extruder motor current
G21 ; set units to millimeters
G90 ; use absolute coordinates
M83 ; use relative distances for extrusion
M900 K0 ; Filament gcode
M107
;LAYER_CHANGE
;Z:0.2
;HEIGHT:0.2
;BEFORE_LAYER_CHANGE
G92 E0.0
;0.2


G1 E-1 F2400
G1 Z.2 F720
;AFTER_LAYER_CHANGE
;0.2
G1 X89.305 Y88.866 F4200
G1 E1 F1500
M204 S300
;TYPE:Skirt/Brim
;WIDTH:0.3
G1 F1200
G1 X108.866 Y69.305 E.65046
G1 X110.242 Y68.486 E.03766
G1 X111.169 Y68.351 E.02202
G1 X138.831 Y68.351 E.65046
G1 X140.384 Y68.745 E.03766
G1 X141.134 Y69.305 E.02202
G1 X160.695 Y88.866 E.65046
G1 X161.514 Y90.242 E.03766
G1 X161.649 Y91.169 E.02202
G1 X161.649 Y118.831 E.65046
G1 X161.255 Y120.384 E.03766
G1 X160.695 Y121.134 E.02202
G1 X141.134 Y140.695 E.65046
G1 X139.758 Y141.514 E.03766
G1 X138.831 Y141.649 E.02202
G1 X111.169 Y141.649 E.65046
G1 X109.616 Y141.255 E.03766
G1 X108.866 Y140.695 E.02202
G1 X89.305 Y121.134 E.65046
G1 X88.486 Y119.758 E.03766
M73 P1 R29
M73 Q1 S29
G1 X88.351 Y118.831 E.02202
G1 X88.351 Y91.169 E.65046
G1 X88.745 Y89.616 E.03766
G1 X89.269 Y88.914 E.02061
; printing object OV-PAM_standard_0.3wall_1F.stl id:0 copy 0
G1 E-1 F2400
G1 X158.013 Y118.715 F4200
G1 E1 F1500
;TYPE:External perimeter
G1 F1200
G1 X138.686 Y138.042 E.64269
G1 X111.314 Y138.042 E.64364
G1 X91.958 Y118.686 E.64364
G1 X91.958 Y91.314 E.64364
G1 X111.314 Y71.958 E.64364
G1 X138.686 Y71.958 E.64364
G1 X158.042 Y91.314 E.64364
G1 X158.042 Y118.667 E.64318
G1 X158.257 Y119.032 F4200
G1 E-1 F2400
G1 X158.233 Y118.687 F4200
G1 X158.147 Y91.141
G1 X138.762 Y71.775
G1 X138.762 Y71.775
G1 X138.769 Y71.758
G1 E1 F1500
G1 F1200
G1 X158.242 Y91.231 E.64754
G1 X158.242 Y118.769 E.64754
G1 X138.769 Y138.242 E.64754
M73 P2 R28
M73 Q2 S28
G1 X111.231 Y138.242 E.64754
G1 X91.758 Y118.769 E.64754
G1 X91.758 Y91.231 E.64754
G1 X111.231 Y71.758 E.64754
G1 X138.709 Y71.758 E.64613
G1 X138.821 Y72.155 F4200
; stop printing object OV-PAM_standard_0.3wall_1F.stl id:0 copy 0
;LAYER_CHANGE
;Z:0.4
;HEIGHT:0.2
;BEFORE_LAYER_CHANGE
G92 E0.0
;0.4


G1 E-1 F2400
G1 Z.4 F720
;AFTER_LAYER_CHANGE
;0.4
G1 X139.529 Y68.528 F4200
G1 E1 F1500
;TYPE:Skirt/Brim
G1 F2917.384
G1 X140.384 Y68.745 E.02075
G1 X141.134 Y69.305 E.02202
G1 X160.695 Y88.866 E.65046
G1 X161.514 Y90.242 E.03766
G1 X161.649 Y91.169 E.02202
G1 X161.649 Y118.831 E.65046
G1 X161.255 Y120.384 E.03766
G1 X160.695 Y121.134 E.02202
G1 X141.134 Y140.695 E.65046
G1 X139.758 Y141.514 E.03766
G1 X138.831 Y141.649 E.02202
G1 X111.169 Y141.649 E.65046
G1 X109.616 Y141.255 E.03766
G1 X108.866 Y140.695 E.02202
G1 X89.305 Y121.134 E.65046
G1 X88.486 Y119.758 E.03766
G1 X88.351 Y118.831 E.02202
G1 X88.351 Y91.169 E.65046
G1 X88.745 Y89.616 E.03766
G1 X89.305 Y88.866 E.02202
G1 X108.866 Y69.305 E.65046
G1 X110.242 Y68.486 E.03766
G1 X111.169 Y68.351 E.02202
G1 X138.831 Y68.351 E.65046
G1 X139.471 Y68.513 E.0155
; printing object OV-PAM_standard_0.3wall_1F.stl id:0 copy 0
G1 E-1 F2400
G1 X141.786 Y74.78 F4200
G1 X158.238 Y91.361
G1 X158.225 Y118.762
G1 X158.168 Y118.833
G1 X158.017 Y118.711
G1 E1 F1500
;TYPE:External perimeter
G1 F1200
G1 X138.686 Y138.042 E.64281
G1 X111.314 Y138.042 E.64364
G1 X91.958 Y118.686 E.64364
M73 P3 R28
M73 Q3 S28
G1 X91.958 Y91.314 E.64364
G1 X111.314 Y71.958 E.64364
G1 X138.686 Y71.958 E.64364
G1 X158.042 Y91.314 E.64364
G1 X158.042 Y118.662 E.64306
G1 X158.26 Y119.029 F4200
G1 E-1 F2400
G1 X158.233 Y118.682 F4200
G1 X158.147 Y91.141
G1 X138.762 Y71.775
G1 X138.762 Y71.775
G1 X138.769 Y71.758
G1 E1 F1500
G1 F1200
G1 X158.242 Y91.231 E.64754
G1 X158.242 Y118.769 E.64754
G1 X138.769 Y138.242 E.64754
G1 X111.231 Y138.242 E.64754
G1 X91.758 Y118.769 E.64754
G1 X91.758 Y91.231 E.64754
M73 P4 R28
M73 Q4 S28
G1 X111.231 Y71.758 E.64754
G1 X138.709 Y71.758 E.64613
G1 X138.821 Y72.155 F4200
; stop printing object OV-PAM_standard_0.3wall_1F.stl id:0 copy 0
;LAYER_CHANGE
;Z:0.6
;HEIGHT:0.2
;BEFORE_LAYER_CHANGE
G92 E0.0
;0.6


G1 E-1 F2400
G1 Z.6 F720
;AFTER_LAYER_CHANGE
;0.6
G1 X139.529 Y68.528 F4200
G1 E1 F1500
;TYPE:Skirt/Brim
G1 F2917.384
G1 X140.384 Y68.745 E.02075
G1 X141.134 Y69.305 E.02202
G1 X160.695 Y88.866 E.65046
G1 X161.514 Y90.242 E.03766
G1 X161.649 Y91.169 E.02202
G1 X161.649 Y118.831 E.65046
G1 X161.255 Y120.384 E.03766
G1 X160.695 Y121.134 E.02202
G1 X141.134 Y140.695 E.65046
G1 X139.758 Y141.514 E.03766
G1 X138.831 Y141.649 E.02202
G1 X111.169 Y141.649 E.65046
G1 X109.616 Y141.255 E.03766
G1 X108.866 Y140.695 E.02202
G1 X89.305 Y121.134 E.65046
G1 X88.486 Y119.758 E.03766
G1 X88.351 Y118.831 E.02202
G1 X88.351 Y91.169 E.65046
G1 X88.745 Y89.616 E.03766
G1 X89.305 Y88.866 E.02202
G1 X108.866 Y69.305 E.65046
G1 X110.242 Y68.486 E.03766
G1 X111.169 Y68.351 E.02202
G1 X138.831 Y68.351 E.65046
G1 X139.471 Y68.513 E.0155
; printing object OV-PAM_standard_0.3wall_1F.stl id:0 copy 0
G1 E-1 F2400
G1 X141.787 Y74.781 F4200
G1 X158.238 Y91.361
G1 X158.225 Y118.762
G1 X158.172 Y118.828
G1 X158.021 Y118.707
G1 E1 F1500
;TYPE:External perimeter
G1 F1200
G1 X138.686 Y138.042 E.64296
G1 X111.314 Y138.042 E.64364
G1 X91.958 Y118.686 E.64364
G1 X91.958 Y91.314 E.64364
G1 X111.314 Y71.958 E.64364
G1 X138.686 Y71.958 E.64364
M73 P5 R28
M73 Q5 S28
G1 X158.042 Y91.314 E.64364
G1 X158.042 Y118.655 E.64291
G1 X158.265 Y119.024 F4200
G1 E-1 F2400
G1 X158.234 Y118.676 F4200
G1 X158.147 Y91.141
G1 X138.762 Y71.775
G1 X138.762 Y71.775
G1 X138.769 Y71.758
G1 E1 F1500
G1 F1200
G1 X158.242 Y91.231 E.64754
G1 X158.242 Y118.769 E.64754
M73 P5 R27
M73 Q5 S27
G1 X138.769 Y138.242 E.64754
G1 X111.231 Y138.242 E.64754
G1 X91.758 Y118.769 E.64754
G1 X91.758 Y91.231 E.64754
G1 X111.231 Y71.758 E.64754
G1 X138.709 Y71.758 E.64613
G1 X138.821 Y72.155 F4200
; stop printing object OV-PAM_standard_0.3wall_1F.stl id:0 copy 0
;LAYER_CHANGE
;Z:0.8
;HEIGHT:0.2
;BEFORE_LAYER_CHANGE
G92 E0.0
;0.8


G1 E-1 F2400
G1 Z.8 F720
;AFTER_LAYER_CHANGE
;0.8
; printing object OV-PAM_standard_0.3wall_1F.stl id:0 copy 0
G1 X138.688 Y71.954 F4200
G1 X158.046 Y91.312
G1 X158.046 Y118.688
M73 P6 R27
M73 Q6 S27
G1 X158.029 Y118.704
G1 X158.027 Y118.702
G1 E1 F1500
G1 F1200
G1 X138.686 Y138.042 E.64313
G1 X111.314 Y138.042 E.64364
G1 X91.958 Y118.686 E.64364
G1 X91.958 Y91.314 E.64364
G1 X111.314 Y71.958 E.64364
G1 X138.686 Y71.958 E.64364
G1 X158.042 Y91.314 E.64364
G1 X158.042 Y118.648 E.64274
G1 X158.27 Y119.019 F4200
G1 E-1 F2400
G1 X158.235 Y118.669 F4200
G1 X158.147 Y91.141
G1 X138.762 Y71.775
G1 X138.762 Y71.775
G1 X138.769 Y71.758
G1 E1 F1500
G1 F1200
G1 X158.242 Y91.231 E.64754
G1 X158.242 Y118.769 E.64754
G1 X138.769 Y138.242 E.64754
G1 X111.231 Y138.242 E.64754
G1 X91.758 Y118.769 E.64754
M73 P7 R27
M73 Q7 S27
G1 X91.758 Y91.231 E.64754
G1 X111.231 Y71.758 E.64754
G1 X138.709 Y71.758 E.64613
G1 X138.821 Y72.155 F4200
; stop printing object OV-PAM_standard_0.3wall_1F.stl id:0 copy 0
;LAYER_CHANGE
;Z:1
;HEIGHT:0.2
;BEFORE_LAYER_CHANGE
G92 E0.0
;1


G1 E-1 F2400
G1 Z1 F720
;AFTER_LAYER_CHANGE
;1
; printing object OV-PAM_standard_0.3wall_1F.stl id:0 copy 0
G1 X138.688 Y71.954 F4200
G1 X158.046 Y91.312
G1 X158.046 Y118.65
G1 X158.042 Y118.65
G1 E1 F1500
G1 F1200
G1 X158.042 Y118.686 E.00085
G1 X138.686 Y138.042 E.64364
G1 X111.314 Y138.042 E.64364
G1 X91.958 Y118.686 E.64364
G1 X91.958 Y91.314 E.64364
G1 X111.314 Y71.958 E.64364
G1 X138.686 Y71.958 E.64364
G1 X158.042 Y91.314 E.64364
G1 X158.042 Y118.59 E.64138
G1 X158.075 Y118.664 F4200
M73 P8 R27
M73 Q8 S27
G1 E-1 F2400
G1 X158.238 Y118.59 F4200
G1 X158.147 Y91.141
G1 X138.762 Y71.775
G1 X138.762 Y71.775
G1 X138.769 Y71.758
G1 E1 F1500
G1 F1200
G1 X158.242 Y91.231 E.64754
G1 X158.242 Y118.769 E.64754
G1 X138.769 Y138.242 E.64754
G1 X111.231 Y138.242 E.64754
G1 X91.758 Y118.769 E.64754
G1 X91.758 Y91.231 E.64754
G1 X111.231 Y71.758 E.64754
G1 X138.709 Y71.758 E.64613
G1 X138.821 Y72.155 F4200
; stop printing object OV-PAM_standard_0.3wall_1F.stl id:0 copy 0
;LAYER_CHANGE
;Z:1.2
;HEIGHT:0.2
;BEFORE_LAYER_CHANGE
G92 E0.0
;1.2


M73 P8 R26
M73 Q8 S26
G1 E-1 F2400
G1 Z1.2 F720
;AFTER_LAYER_CHANGE
;1.2
; printing object OV-PAM_standard_0.3wall_1F.stl id:0 copy 0
G1 X138.688 Y71.954 F4200
G1 X158.046 Y91.312
G1 X158.046 Y118.615
G1 X158.042 Y118.615
G1 E1 F1500
G1 F1200
G1 X158.042 Y118.686 E.00168
G1 X138.686 Y138.042 E.64364
G1 X111.314 Y138.042 E.64364
G1 X91.958 Y118.686 E.64364
G1 X91.958 Y91.314 E.64364
M73 P9 R26
M73 Q9 S26
G1 X111.314 Y71.958 E.64364
G1 X138.686 Y71.958 E.64364
G1 X158.042 Y91.314 E.64364
G1 X158.042 Y118.555 E.64055
G1 X158.108 Y118.642 F4200
G1 E-1 F2400
G1 X158.238 Y118.555 F4200
G1 X158.147 Y91.141
G1 X138.762 Y71.775
G1 X138.762 Y71.775
G1 X138.769 Y71.758
G1 E1 F1500
G1 F1200
G1 X158.242 Y91.231 E.64754
G1 X158.242 Y118.769 E.64754
G1 X138.769 Y138.242 E.64754
G1 X111.231 Y138.242 E.64754
G1 X91.758 Y118.769 E.64754
G1 X91.758 Y91.231 E.64754
G1 X111.231 Y71.758 E.64754
G1 X138.709 Y71.758 E.64613
M73 P10 R26
M73 Q10 S26
G1 X138.821 Y72.155 F4200
; stop printing object OV-PAM_standard_0.3wall_1F.stl id:0 copy 0
;LAYER_CHANGE
;Z:1.4
;HEIGHT:0.2
;BEFORE_LAYER_CHANGE
G92 E0.0
;1.4


G1 E-1 F2400
G1 Z1.4 F720
;AFTER_LAYER_CHANGE
;1.4
; printing object OV-PAM_standard_0.3wall_1F.stl id:0 copy 0
G1 X138.746 Y71.998 F4200
G1 X158.056 Y91.387
G1 X158.057 Y118.47
G1 X158.056 Y118.52
G1 X157.961 Y118.518
G1 E1 F1500
;WIDTH:0.403036
G1 F1200
G1 X157.954 Y118.65 E.00435
G1 X157.91 Y118.704 E.00228
G1 X138.65 Y137.954 E.89694
G1 X111.35 Y137.954 E.89921
G1 X92.046 Y118.65 E.89921
G1 X92.046 Y91.35 E.89921
G1 X111.35 Y72.046 E.89921
G1 X138.65 Y72.046 E.89921
G1 X157.954 Y91.35 E.89921
G1 X157.961 Y118.458 E.89289
G1 X158.081 Y118.573 F4200
; stop printing object OV-PAM_standard_0.3wall_1F.stl id:0 copy 0
;LAYER_CHANGE
;Z:1.6
;HEIGHT:0.2
;BEFORE_LAYER_CHANGE
G92 E0.0
;1.6


G1 E-1 F2400
G1 Z1.6 F720
;AFTER_LAYER_CHANGE
;1.6
; printing object OV-PAM_standard_0.3wall_1F.stl id:0 copy 0
G1 X157.845 Y118.428 F4200
G1 E1 F1500
;WIDTH:0.415956
G1 F1200
G1 X157.853 Y118.578 E.00515
G1 X157.795 Y118.656 E.00331
G1 X138.629 Y137.832 E.92505
G1 X138.533 Y137.845 E.00331
G1 X111.422 Y137.853 E.92505
G1 X111.344 Y137.795 E.00331
M73 P11 R26
M73 Q11 S26
G1 X92.168 Y118.629 E.92505
G1 X92.155 Y118.533 E.00331
G1 X92.147 Y91.422 E.92505
G1 X92.205 Y91.344 E.00331
G1 X111.371 Y72.168 E.92505
G1 X111.467 Y72.155 E.00331
G1 X138.578 Y72.147 E.92505
G1 X138.656 Y72.205 E.00331
G1 X157.832 Y91.371 E.92505
G1 X157.845 Y91.467 E.00331
G1 X157.845 Y118.368 E.91786
G1 X157.718 Y118.508 F4200
; stop printing object OV-PAM_standard_0.3wall_1F.stl id:0 copy 0
;LAYER_CHANGE
;Z:1.8
;HEIGHT:0.2
;BEFORE_LAYER_CHANGE
G92 E0.0
;1.8


G1 E-1 F2400
G1 Z1.8 F720
;AFTER_LAYER_CHANGE
;1.8
; printing object OV-PAM_standard_0.3wall_1F.stl id:0 copy 0
G1 X157.733 Y118.333 F4200
G1 E1 F1500
;WIDTH:0.38933
G1 F1200
G1 X157.747 Y118.398 E.00212
;WIDTH:0.45739
G1 X157.764 Y118.475 E.00298
;WIDTH:0.457391
G1 X157.679 Y118.608 E.00598
;WIDTH:0.389332
G1 X138.724 Y137.563 E.84937
G1 X138.682 Y137.63 E.00249
;WIDTH:0.457391
G1 X138.639 Y137.696 E.00298
G1 X138.485 Y137.73 E.00598
;WIDTH:0.38933
G1 X111.678 Y137.73 E.84937
G1 X111.602 Y137.747 E.00249
;WIDTH:0.45739
G1 X111.525 Y137.764 E.00298
G1 X111.392 Y137.679 E.00598
;WIDTH:0.389332
G1 X92.437 Y118.724 E.84937
G1 X92.37 Y118.682 E.00249
;WIDTH:0.457391
G1 X92.304 Y118.639 E.00298
G1 X92.27 Y118.485 E.00598
;WIDTH:0.38933
G1 X92.27 Y91.678 E.84937
G1 X92.253 Y91.602 E.00249
;WIDTH:0.45739
G1 X92.236 Y91.525 E.00298
G1 X92.321 Y91.392 E.00598
;WIDTH:0.389332
G1 X111.276 Y72.437 E.84937
G1 X111.318 Y72.37 E.00249
;WIDTH:0.457391
G1 X111.361 Y72.304 E.00298
G1 X111.515 Y72.27 E.00598
;WIDTH:0.38933
G1 X138.322 Y72.27 E.84937
G1 X138.398 Y72.253 E.00249
;WIDTH:0.45739
G1 X138.475 Y72.236 E.00298
G1 X138.608 Y72.321 E.00598
;WIDTH:0.389331
G1 X157.563 Y91.276 E.84937
G1 X157.63 Y91.318 E.00249
;WIDTH:0.457391
M73 P12 R26
M73 Q12 S26
G1 X157.696 Y91.361 E.00298
G1 X157.73 Y91.515 E.00598
;WIDTH:0.38933
G1 X157.73 Y118.273 E.84784
; stop printing object OV-PAM_standard_0.3wall_1F.stl id:0 copy 0
;LAYER_CHANGE
;Z:2
;HEIGHT:0.2
;BEFORE_LAYER_CHANGE
G92 E0.0
;2


G1 E-1 F2400
G1 Z2 F720
;AFTER_LAYER_CHANGE
;2
; printing object OV-PAM_standard_0.3wall_1F.stl id:0 copy 0
G1 X138.763 Y137.361 F4200
G1 E1 F1500
;WIDTH:0.389332
M73 P12 R25
M73 Q12 S25
G1 F1200
G1 X157.441 Y118.683 E.83695
G1 X157.591 Y118.565 F4200
;WIDTH:0.3
G1 F1200
G1 X157.591 Y118.301 E.00622
G1 X157.856 Y118.301 E.00622
G1 X157.634 Y118.523 E.00739
G1 X157.821 Y118.698 F4200
G1 X157.615 Y118.151
;WIDTH:0.38933
G1 F1200
G1 X157.615 Y91.736 E.83695
G1 X157.638 Y91.547 F4200
;WIDTH:0.3
G1 F1200
G1 X157.451 Y91.359 E.00622
G1 X157.638 Y91.172 E.00622
G1 X157.638 Y91.487 E.00739
G1 X157.893 Y91.478 F4200
G1 X157.361 Y91.237
;WIDTH:0.389332
G1 F1200
G1 X138.683 Y72.559 E.83695
G1 X138.565 Y72.409 F4200
;WIDTH:0.3
G1 F1200
G1 X138.301 Y72.409 E.00622
G1 X138.301 Y72.144 E.00622
G1 X138.523 Y72.366 E.00739
G1 X138.698 Y72.179 F4200
G1 X138.151 Y72.385
;WIDTH:0.38933
G1 F1200
G1 X111.736 Y72.385 E.83695
G1 X111.172 Y72.362 F4200
;WIDTH:0.3
G1 F1200
G1 X111.547 Y72.362 E.0088
G1 X111.359 Y72.549 E.00622
G1 X111.215 Y72.405 E.00481
G1 X110.985 Y72.686 F4200
G1 X111.237 Y72.639
;WIDTH:0.389332
G1 F1200
G1 X92.559 Y91.317 E.83695
G1 X92.144 Y91.699 F4200
;WIDTH:0.3
G1 F1200
G1 X92.409 Y91.435 E.0088
G1 X92.409 Y91.699 E.00622
G1 X92.204 Y91.699 E.00481
G1 X92.241 Y92.061 F4200
G1 X92.385 Y91.849
;WIDTH:0.38933
G1 F1200
G1 X92.385 Y118.264 E.83695
G1 X92.362 Y118.828 F4200
;WIDTH:0.3
G1 F1200
G1 X92.362 Y118.453 E.0088
G1 X92.549 Y118.641 E.00622
G1 X92.405 Y118.785 E.00481
G1 X92.686 Y119.015 F4200
G1 X92.639 Y118.763
;WIDTH:0.389332
G1 F1200
G1 X111.317 Y137.441 E.83695
G1 X111.699 Y137.856 F4200
;WIDTH:0.3
G1 F1200
G1 X111.435 Y137.591 E.0088
G1 X111.699 Y137.591 E.00622
G1 X111.699 Y137.796 E.00481
G1 X112.061 Y137.759 F4200
G1 X111.849 Y137.615
;WIDTH:0.38933
G1 F1200
G1 X138.264 Y137.615 E.83695
G1 X138.453 Y137.638 F4200
;WIDTH:0.3
G1 F1200
G1 X138.641 Y137.451 E.00622
G1 X138.828 Y137.638 E.00622
G1 X138.513 Y137.638 E.00739
G1 X138.522 Y137.893 F4200
; stop printing object OV-PAM_standard_0.3wall_1F.stl id:0 copy 0
;LAYER_CHANGE
;Z:2.2
;HEIGHT:0.2
;BEFORE_LAYER_CHANGE
G92 E0.0
;2.2


G1 E-1 F2400
G1 Z2.2 F720
;AFTER_LAYER_CHANGE
;2.2
; printing object OV-PAM_standard_0.3wall_1F.stl id:0 copy 0
G1 X138.802 Y137.158 F4200
G1 E1 F1500
;WIDTH:0.389332
G1 F1200
G1 X157.326 Y118.635 E.83003
G1 X157.476 Y118.13 F4200
;WIDTH:0.3
G1 F1200
G1 X157.864 Y118.13 E.00912
G1 X157.476 Y118.518 E.01289
G1 X157.476 Y118.19 E.00771
G1 X157.282 Y118.466 F4200
G1 X157.499 Y117.98
;WIDTH:0.38933
G1 F1200
G1 X157.499 Y91.783 E.83002
G1 X157.522 Y91.594 F4200
;WIDTH:0.3
M73 P13 R25
M73 Q13 S25
G1 F1200
G1 X157.248 Y91.32 E.00912
G1 X157.522 Y91.046 E.00912
G1 X157.522 Y91.534 E.01148
