; generated by PrusaSlicer 2.5.2+win64 on 2023-12-08 at 03:02:47 UTC


;
;
; 

; external perimeters extrusion width = 0.50mm
; perimeters extrusion width = 0.50mm
; infill extrusion width = 0.50mm
; solid infill extrusion width = 0.50mm
; top infill extrusion width = 0.50mm
; first layer extrusion width = 0.50mm

M73 P0 R5
M73 Q0 S5
M201 X1000 Y1000 Z200 E5000 ; sets maximum accelerations, mm/sec^2
M203 X200 Y200 Z12 E120 ; sets maximum feedrates, mm / sec
M204 P1250 R1250 T1250 ; sets acceleration (P, T) and retract acceleration (R), mm/sec^2
M205 X8.00 Y8.00 Z0.40 E4.50 ; sets the jerk limits, mm/sec
M205 S0 T0 ; sets the minimum extruding and travel feed rate, mm/sec
M107
;TYPE:Custom
M862.3 P "MK3S" ; printer model check
M862.1 P0.4 ; nozzle diameter check
M115 U3.12.2 ; tell printer latest fw version
G90 ; use absolute coordinates
M83 ; extruder relative mode
M104 S240 ; set extruder temp
M140 S60 ; set bed temp
M190 S60 ; wait for bed temp
M109 S240 ; wait for extruder temp
G28 W ; home all without mesh bed level
G80 ; mesh bed leveling

G1 Z0.2 F720
G1 Y-3 F1000 ; go outside print area
G92 E0
G1 X60 E9 F1000 ; intro line
G1 X100 E12.5 F1000 ; intro line

G92 E0
M221 S95

; Don't change E values below. Excessive value can damage the printer.
M907 E430 ; set extruder motor current
G21 ; set units to millimeters
G90 ; use absolute coordinates
M83 ; use relative distances for extrusion
M900 K0 ; Filament gcode
M107
;LAYER_CHANGE
;Z:0.2
;HEIGHT:0.2
;BEFORE_LAYER_CHANGE
G92 E0.0
;0.2


M73 P1 R5
M73 Q1 S5
G1 E-1 F2400
G1 Z.2 F720
;AFTER_LAYER_CHANGE
;0.2
G1 X109.095 Y90.36 F4200
G1 E1 F1500
M204 S300
;TYPE:Skirt/Brim
;WIDTH:0.5
M73 P2 R5
M73 Q2 S5
G1 F1200
G1 X110.36 Y89.095 E.07481
G1 X118.546 Y84.369 E.39516
G1 X120.274 Y83.905 E.07481
G1 X129.726 Y83.905 E.39516
G1 X131.454 Y84.369 E.07481
G1 X139.64 Y89.095 E.39516
G1 X140.905 Y90.36 E.07481
G1 X145.631 Y98.546 E.39516
G1 X146.095 Y100.274 E.07481
G1 X146.095 Y109.726 E.39516
G1 X145.631 Y111.454 E.07481
M73 P3 R5
M73 Q3 S5
G1 X140.905 Y119.64 E.39516
G1 X139.64 Y120.905 E.07481
G1 X131.454 Y125.631 E.39516
G1 X129.726 Y126.095 E.07481
G1 X120.274 Y126.095 E.39516
G1 X118.546 Y125.631 E.07481
G1 X110.36 Y120.905 E.39516
G1 X109.095 Y119.64 E.07481
G1 X104.369 Y111.454 E.39516
G1 X103.905 Y109.726 E.07481
G1 X103.905 Y100.274 E.39516
G1 X104.369 Y98.546 E.07481
G1 X109.065 Y90.412 E.39265
; printing object (x0.5)_POSPA_Tiny.stl id:0 copy 0
M73 P4 R5
M73 Q4 S5
G1 E-1 F2400
G1 X129.658 Y87.617 F4200
G1 E1 F1500
;TYPE:External perimeter
;WIDTH:0.551589
G1 F1200
G1 X137.725 Y92.275 E.43341
G1 X142.354 Y100.283 E.43035
G1 X142.383 Y100.342 E.00307
G1 X142.387 Y100.408 E.00307
G1 X142.383 Y109.658 E.43035
G1 X137.725 Y117.725 E.43341
G1 X129.717 Y122.354 E.43035
G1 X129.658 Y122.383 E.00307
G1 X129.592 Y122.387 E.00307
G1 X120.342 Y122.383 E.43035
G1 X112.275 Y117.725 E.43341
M73 P5 R5
M73 Q5 S5
G1 X107.646 Y109.717 E.43035
G1 X107.617 Y109.658 E.00307
G1 X107.613 Y109.592 E.00307
G1 X107.617 Y100.342 E.43035
G1 X112.238 Y92.329 E.43035
G1 X112.275 Y92.275 E.00307
G1 X112.329 Y92.238 E.00307
G1 X120.342 Y87.617 E.43035
G1 X129.598 Y87.613 E.43063
G1 X129.941 Y87.334 F4200
; stop printing object (x0.5)_POSPA_Tiny.stl id:0 copy 0
;LAYER_CHANGE
;Z:0.4
;HEIGHT:0.2
;BEFORE_LAYER_CHANGE
G92 E0.0
;0.4


G1 E-1 F2400
G1 Z.4 F720
;AFTER_LAYER_CHANGE
;0.4
G1 X130.533 Y84.122 F4200
G1 E1 F1500
;TYPE:Skirt/Brim
;WIDTH:0.5
M73 P6 R5
M73 Q6 S5
G1 F1200
G1 X131.454 Y84.369 E.03987
G1 X139.64 Y89.095 E.39516
G1 X140.905 Y90.36 E.07481
G1 X145.631 Y98.546 E.39516
G1 X146.095 Y100.274 E.07481
G1 X146.095 Y109.726 E.39516
G1 X145.631 Y111.454 E.07481
G1 X140.905 Y119.64 E.39516
G1 X139.64 Y120.905 E.07481
G1 X131.454 Y125.631 E.39516
G1 X129.726 Y126.095 E.07481
G1 X120.274 Y126.095 E.39516
G1 X118.546 Y125.631 E.07481
G1 X110.36 Y120.905 E.39516
M73 P7 R5
M73 Q7 S5
G1 X109.095 Y119.64 E.07481
G1 X104.369 Y111.454 E.39516
G1 X103.905 Y109.726 E.07481
G1 X103.905 Y100.274 E.39516
G1 X104.369 Y98.546 E.07481
G1 X109.095 Y90.36 E.39516
G1 X110.36 Y89.095 E.07481
G1 X118.546 Y84.369 E.39516
G1 X120.274 Y83.905 E.07481
G1 X129.726 Y83.905 E.39516
G1 X130.475 Y84.106 E.03244
; printing object (x0.5)_POSPA_Tiny.stl id:0 copy 0
G1 E-1 F2400
G1 X129.699 Y87.449 F4200
G1 X129.662 Y87.448
M73 P8 R5
M73 Q8 S5
G1 X129.658 Y87.617
G1 E1 F1500
;TYPE:External perimeter
;WIDTH:0.551589
G1 F1200
G1 X137.725 Y92.275 E.43341
G1 X142.354 Y100.283 E.43035
G1 X142.383 Y100.342 E.00307
G1 X142.387 Y100.408 E.00307
G1 X142.383 Y109.658 E.43035
G1 X137.725 Y117.725 E.43341
G1 X129.717 Y122.354 E.43035
G1 X129.658 Y122.383 E.00307
G1 X129.592 Y122.387 E.00307
G1 X120.342 Y122.383 E.43035
G1 X112.275 Y117.725 E.43341
G1 X107.646 Y109.717 E.43035
G1 X107.617 Y109.658 E.00307
M73 P9 R5
M73 Q9 S5
G1 X107.613 Y109.592 E.00307
G1 X107.617 Y100.342 E.43035
G1 X112.238 Y92.329 E.43035
G1 X112.275 Y92.275 E.00307
G1 X112.329 Y92.238 E.00307
G1 X120.342 Y87.617 E.43035
G1 X129.598 Y87.613 E.43063
G1 X129.941 Y87.334 F4200
; stop printing object (x0.5)_POSPA_Tiny.stl id:0 copy 0
;LAYER_CHANGE
;Z:0.6
;HEIGHT:0.2
;BEFORE_LAYER_CHANGE
G92 E0.0
;0.6


G1 E-1 F2400
G1 Z.6 F720
;AFTER_LAYER_CHANGE
;0.6
G1 X130.533 Y84.122 F4200
G1 E1 F1500
;TYPE:Skirt/Brim
;WIDTH:0.5
G1 F1200
G1 X131.454 Y84.369 E.03987
G1 X139.64 Y89.095 E.39516
G1 X140.905 Y90.36 E.07481
G1 X145.631 Y98.546 E.39516
G1 X146.095 Y100.274 E.07481
M73 P10 R5
M73 Q10 S5
G1 X146.095 Y109.726 E.39516
G1 X145.631 Y111.454 E.07481
G1 X140.905 Y119.64 E.39516
G1 X139.64 Y120.905 E.07481
G1 X131.454 Y125.631 E.39516
G1 X129.726 Y126.095 E.07481
G1 X120.274 Y126.095 E.39516
G1 X118.546 Y125.631 E.07481
G1 X110.36 Y120.905 E.39516
G1 X109.095 Y119.64 E.07481
G1 X104.369 Y111.454 E.39516
G1 X103.905 Y109.726 E.07481
M73 P11 R5
M73 Q11 S5
G1 X103.905 Y100.274 E.39516
G1 X104.369 Y98.546 E.07481
G1 X109.095 Y90.36 E.39516
G1 X110.36 Y89.095 E.07481
G1 X118.546 Y84.369 E.39516
G1 X120.274 Y83.905 E.07481
G1 X129.726 Y83.905 E.39516
G1 X130.475 Y84.106 E.03244
; printing object (x0.5)_POSPA_Tiny.stl id:0 copy 0
G1 E-1 F2400
G1 X129.699 Y87.449 F4200
G1 X129.662 Y87.448
G1 X129.658 Y87.617
G1 E1 F1500
;TYPE:External perimeter
;WIDTH:0.551589
G1 F1200
G1 X137.725 Y92.275 E.43341
G1 X142.354 Y100.283 E.43035
G1 X142.383 Y100.342 E.00307
M73 P12 R5
M73 Q12 S5
G1 X142.387 Y100.408 E.00307
G1 X142.383 Y109.658 E.43035
G1 X137.725 Y117.725 E.43341
G1 X129.717 Y122.354 E.43035
G1 X129.658 Y122.383 E.00307
G1 X129.592 Y122.387 E.00307
G1 X120.342 Y122.383 E.43035
G1 X112.275 Y117.725 E.43341
G1 X107.646 Y109.717 E.43035
G1 X107.617 Y109.658 E.00307
G1 X107.613 Y109.592 E.00307
G1 X107.617 Y100.342 E.43035
G1 X112.238 Y92.329 E.43035
G1 X112.275 Y92.275 E.00307
M73 P13 R5
M73 Q13 S5
G1 X112.329 Y92.238 E.00307
G1 X120.342 Y87.617 E.43035
G1 X129.598 Y87.613 E.43063
G1 X129.941 Y87.334 F4200
; stop printing object (x0.5)_POSPA_Tiny.stl id:0 copy 0
;LAYER_CHANGE
;Z:0.8
;HEIGHT:0.2
;BEFORE_LAYER_CHANGE
G92 E0.0
;0.8


G1 E-1 F2400
G1 Z.8 F720
;AFTER_LAYER_CHANGE
;0.8
; printing object (x0.5)_POSPA_Tiny.stl id:0 copy 0
G1 X129.658 Y87.617 F4200
G1 E1 F1500
G1 F1200
G1 X137.725 Y92.275 E.43341
G1 X142.354 Y100.283 E.43035
G1 X142.383 Y100.342 E.00307
G1 X142.387 Y100.408 E.00307
G1 X142.383 Y109.658 E.43035
G1 X137.725 Y117.725 E.43341
G1 X129.717 Y122.354 E.43035
G1 X129.658 Y122.383 E.00307
M73 P14 R5
M73 Q14 S5
G1 X129.592 Y122.387 E.00307
G1 X120.342 Y122.383 E.43035
G1 X112.275 Y117.725 E.43341
G1 X107.646 Y109.717 E.43035
G1 X107.617 Y109.658 E.00307
G1 X107.613 Y109.592 E.00307
G1 X107.617 Y100.342 E.43035
G1 X112.238 Y92.329 E.43035
M73 P14 R4
M73 Q14 S4
G1 X112.275 Y92.275 E.00307
G1 X112.329 Y92.238 E.00307
G1 X120.342 Y87.617 E.43035
G1 X129.598 Y87.613 E.43063
G1 X129.941 Y87.334 F4200
; stop printing object (x0.5)_POSPA_Tiny.stl id:0 copy 0
;LAYER_CHANGE
;Z:1
;HEIGHT:0.2
;BEFORE_LAYER_CHANGE
G92 E0.0
;1


M73 P15 R4
M73 Q15 S4
G1 E-1 F2400
G1 Z1 F720
;AFTER_LAYER_CHANGE
;1
; printing object (x0.5)_POSPA_Tiny.stl id:0 copy 0
G1 X129.658 Y87.617 F4200
G1 E1 F1500
G1 F1200
G1 X137.725 Y92.275 E.43341
G1 X142.354 Y100.283 E.43035
G1 X142.383 Y100.342 E.00307
G1 X142.387 Y100.408 E.00307
G1 X142.383 Y109.658 E.43035
G1 X137.725 Y117.725 E.43341
G1 X129.717 Y122.354 E.43035
G1 X129.658 Y122.383 E.00307
G1 X129.592 Y122.387 E.00307
G1 X120.342 Y122.383 E.43035
G1 X112.275 Y117.725 E.43341
G1 X107.646 Y109.717 E.43035
M73 P16 R4
M73 Q16 S4
G1 X107.617 Y109.658 E.00307
G1 X107.613 Y109.592 E.00307
G1 X107.617 Y100.342 E.43035
G1 X112.238 Y92.329 E.43035
G1 X112.275 Y92.275 E.00307
G1 X112.329 Y92.238 E.00307
G1 X120.342 Y87.617 E.43035
G1 X129.598 Y87.613 E.43063
G1 X129.941 Y87.334 F4200
; stop printing object (x0.5)_POSPA_Tiny.stl id:0 copy 0
;LAYER_CHANGE
;Z:1.2
;HEIGHT:0.2
;BEFORE_LAYER_CHANGE
G92 E0.0
;1.2


G1 E-1 F2400
G1 Z1.2 F720
;AFTER_LAYER_CHANGE
;1.2
; printing object (x0.5)_POSPA_Tiny.stl id:0 copy 0
G1 X129.639 Y87.626 F4200
G1 E1 F1500
;WIDTH:0.571544
G1 F1200
G1 X137.661 Y92.244 E.44754
G1 X137.718 Y92.282 E.00331
G1 X137.756 Y92.339 E.00331
G1 X142.373 Y100.345 E.44685
G1 X142.373 Y109.655 E.45016
M73 P17 R4
M73 Q17 S4
G1 X137.718 Y117.718 E.45016
G1 X129.717 Y122.343 E.44685
G1 X129.655 Y122.373 E.00331
G1 X129.587 Y122.378 E.00331
G1 X120.345 Y122.373 E.44685
G1 X112.282 Y117.718 E.45016
G1 X107.657 Y109.717 E.44685
G1 X107.627 Y109.655 E.00331
G1 X107.622 Y109.587 E.00331
G1 X107.627 Y100.345 E.44685
G1 X112.244 Y92.339 E.44685
M73 P18 R4
M73 Q18 S4
G1 X112.282 Y92.282 E.00331
G1 X112.339 Y92.244 E.00331
G1 X120.345 Y87.627 E.44685
G1 X129.579 Y87.622 E.4465
G1 X129.922 Y87.343 F4200
; stop printing object (x0.5)_POSPA_Tiny.stl id:0 copy 0
;LAYER_CHANGE
;Z:1.4
;HEIGHT:0.2
;BEFORE_LAYER_CHANGE
G92 E0.0
;1.4


G1 E-1 F2400
G1 Z1.4 F720
;AFTER_LAYER_CHANGE
;1.4
; printing object (x0.5)_POSPA_Tiny.stl id:0 copy 0
G1 X129.611 Y87.713 F4200
G1 E1 F1500
;WIDTH:0.630279
G1 F1200
G1 X129.7 Y87.748 E.00517
G1 X137.591 Y92.303 E.4895
G1 X137.654 Y92.346 E.00409
G1 X137.697 Y92.409 E.00409
G1 X142.286 Y100.368 E.49358
G1 X142.286 Y109.632 E.49767
G1 X137.654 Y117.654 E.49767
G1 X129.7 Y122.252 E.49358
M73 P19 R4
M73 Q19 S4
G1 X129.632 Y122.286 E.00409
G1 X129.556 Y122.291 E.00409
G1 X120.368 Y122.286 E.49358
G1 X112.346 Y117.654 E.49767
G1 X107.748 Y109.7 E.49358
G1 X107.714 Y109.632 E.00409
G1 X107.709 Y109.556 E.00409
G1 X107.714 Y100.368 E.49358
G1 X112.303 Y92.409 E.49358
G1 X112.346 Y92.346 E.00409
G1 X112.409 Y92.303 E.00409
G1 X120.368 Y87.714 E.49358
G1 X129.551 Y87.709 E.49331
G1 X129.671 Y87.638 F4200
; stop printing object (x0.5)_POSPA_Tiny.stl id:0 copy 0
;LAYER_CHANGE
;Z:1.6
;HEIGHT:0.2
;BEFORE_LAYER_CHANGE
G92 E0.0
;1.6


M73 P20 R4
M73 Q20 S4
G1 E-1 F2400
G1 Z1.6 F720
;AFTER_LAYER_CHANGE
;1.6
; printing object (x0.5)_POSPA_Tiny.stl id:0 copy 0
G1 X129.578 Y87.828 F4200
G1 E1 F1500
;WIDTH:0.63028
G1 F1200
G1 X129.669 Y87.863 E.00524
G1 X137.506 Y92.388 E.48618
G1 X137.57 Y92.43 E.00409
G1 X137.612 Y92.494 E.00409
G1 X142.171 Y100.399 E.49026
G1 X142.171 Y109.601 E.49434
G1 X137.57 Y117.57 E.49434
G1 X129.669 Y122.137 E.49026
G1 X129.601 Y122.171 E.00409
G1 X129.525 Y122.176 E.00409
G1 X120.399 Y122.171 E.49026
G1 X112.43 Y117.57 E.49434
G1 X107.863 Y109.669 E.49026
M73 P21 R4
M73 Q21 S4
G1 X107.829 Y109.601 E.00409
G1 X107.824 Y109.525 E.00409
G1 X107.829 Y100.399 E.49026
G1 X112.388 Y92.494 E.49026
G1 X112.43 Y92.43 E.00409
G1 X112.494 Y92.388 E.00409
G1 X120.399 Y87.829 E.49026
G1 X129.518 Y87.824 E.48991
G1 X129.64 Y87.752 F4200
; stop printing object (x0.5)_POSPA_Tiny.stl id:0 copy 0
;LAYER_CHANGE
;Z:1.8
;HEIGHT:0.2
;BEFORE_LAYER_CHANGE
G92 E0.0
;1.8


G1 E-1 F2400
G1 Z1.8 F720
;AFTER_LAYER_CHANGE
;1.8
; printing object (x0.5)_POSPA_Tiny.stl id:0 copy 0
G1 X129.592 Y87.956 F4200
G1 E1 F1500
G1 F1200
G1 X137.485 Y92.515 E.48971
G1 X142.021 Y100.362 E.48694
G1 X142.055 Y100.43 E.00409
M73 P22 R4
M73 Q22 S4
G1 X142.06 Y100.506 E.00409
G1 X142.055 Y109.57 E.48694
G1 X137.485 Y117.485 E.49102
G1 X129.638 Y122.021 E.48694
G1 X129.57 Y122.055 E.00409
G1 X129.494 Y122.06 E.00409
G1 X120.43 Y122.055 E.48694
G1 X112.515 Y117.485 E.49102
G1 X107.979 Y109.638 E.48694
G1 X107.945 Y109.57 E.00409
G1 X107.94 Y109.494 E.00409
G1 X107.945 Y100.43 E.48694
G1 X112.472 Y92.578 E.48694
G1 X112.515 Y92.515 E.00409
M73 P23 R4
M73 Q23 S4
G1 X112.578 Y92.472 E.00409
G1 X120.43 Y87.945 E.48694
G1 X129.534 Y87.943 E.48912
G1 X129.875 Y87.673 F4200
; stop printing object (x0.5)_POSPA_Tiny.stl id:0 copy 0
;LAYER_CHANGE
;Z:2
;HEIGHT:0.2
;BEFORE_LAYER_CHANGE
G92 E0.0
;2


G1 E-1 F2400
G1 Z2 F720
;AFTER_LAYER_CHANGE
;2
; printing object (x0.5)_POSPA_Tiny.stl id:0 copy 0
G1 X129.513 Y88.059 F4200
G1 E1 F1500
G1 F1200
G1 X129.607 Y88.094 E.00543
G1 X137.337 Y92.557 E.47953
G1 X137.401 Y92.599 E.00409
G1 X137.443 Y92.663 E.00409
G1 X141.94 Y100.461 E.48361
G1 X141.94 Y109.539 E.48769
G1 X137.401 Y117.401 E.48769
G1 X129.607 Y121.906 E.48361
G1 X129.539 Y121.94 E.00409
M73 P24 R4
M73 Q24 S4
G1 X129.463 Y121.945 E.00409
G1 X120.461 Y121.94 E.48361
G1 X112.599 Y117.401 E.48769
G1 X108.094 Y109.607 E.48361
G1 X108.06 Y109.539 E.00409
G1 X108.055 Y109.463 E.00409
G1 X108.06 Y100.461 E.48361
G1 X112.557 Y92.663 E.48361
G1 X112.599 Y92.599 E.00409
G1 X112.663 Y92.557 E.00409
G1 X120.461 Y88.06 E.48361
G1 X129.453 Y88.055 E.48306
G1 X129.576 Y87.98 F4200
; stop printing object (x0.5)_POSPA_Tiny.stl id:0 copy 0
;LAYER_CHANGE
;Z:2.2
;HEIGHT:0.2
;BEFORE_LAYER_CHANGE
G92 E0.0
;2.2


G1 E-1 F2400
G1 Z2.2 F720
;AFTER_LAYER_CHANGE
;2.2
; printing object (x0.5)_POSPA_Tiny.stl id:0 copy 0
G1 X129.48 Y88.174 F4200
M73 P25 R4
M73 Q25 S4
G1 E1 F1500
G1 F1200
G1 X129.576 Y88.209 E.00554
G1 X137.253 Y92.642 E.4762
G1 X137.316 Y92.684 E.00409
G1 X137.358 Y92.747 E.00409
G1 X141.824 Y100.492 E.48029
G1 X141.824 Y109.508 E.48437
G1 X137.316 Y117.316 E.48437
G1 X129.576 Y121.791 E.48029
G1 X129.508 Y121.824 E.00409
G1 X129.432 Y121.829 E.00409
G1 X120.492 Y121.824 E.48029
G1 X112.684 Y117.316 E.48437
G1 X108.209 Y109.576 E.48029
G1 X108.176 Y109.508 E.00409
M73 P26 R4
M73 Q26 S4
G1 X108.171 Y109.432 E.00409
G1 X108.176 Y100.492 E.48029
G1 X112.642 Y92.747 E.48029
G1 X112.684 Y92.684 E.00409
G1 X112.747 Y92.642 E.00409
G1 X120.492 Y88.176 E.48029
G1 X129.42 Y88.171 E.47962
G1 X129.544 Y88.093 F4200
; stop printing object (x0.5)_POSPA_Tiny.stl id:0 copy 0
;LAYER_CHANGE
;Z:2.4
;HEIGHT:0.2
;BEFORE_LAYER_CHANGE
G92 E0.0
;2.4


G1 E-1 F2400
G1 Z2.4 F720
;AFTER_LAYER_CHANGE
;2.4
; printing object (x0.5)_POSPA_Tiny.stl id:0 copy 0
G1 X129.504 Y88.305 F4200
G1 E1 F1500
;WIDTH:0.630279
G1 F1200
G1 X137.232 Y92.768 E.47941
G1 X141.675 Y100.455 E.47696
G1 X141.709 Y100.523 E.00409
G1 X141.714 Y100.599 E.00409
G1 X141.709 Y109.477 E.47696
G1 X137.232 Y117.232 E.48104
M73 P27 R4
M73 Q27 S4
G1 X129.545 Y121.675 E.47696
G1 X129.477 Y121.709 E.00409
G1 X129.401 Y121.714 E.00409
G1 X120.523 Y121.709 E.47696
G1 X112.768 Y117.232 E.48104
G1 X108.325 Y109.545 E.47696
G1 X108.291 Y109.477 E.00409
G1 X108.286 Y109.401 E.00409
G1 X108.291 Y100.523 E.47696
G1 X112.726 Y92.832 E.47696
G1 X112.768 Y92.768 E.00409
G1 X112.832 Y92.726 E.00409
G1 X120.523 Y88.291 E.47696
G1 X129.448 Y88.289 E.47946
M73 P28 R4
M73 Q28 S4
G1 X129.788 Y88.022 F4200
; stop printing object (x0.5)_POSPA_Tiny.stl id:0 copy 0
;LAYER_CHANGE
;Z:2.6
;HEIGHT:0.2
;BEFORE_LAYER_CHANGE
G92 E0.0
;2.6


G1 E-1 F2400
G1 Z2.6 F720
;AFTER_LAYER_CHANGE
;2.6
; printing object (x0.5)_POSPA_Tiny.stl id:0 copy 0
G1 X129.475 Y88.421 F4200
G1 E1 F1500
;WIDTH:0.63028
G1 F1200
G1 X137.147 Y92.853 E.476
G1 X141.56 Y100.486 E.47364
G1 X141.593 Y100.554 E.00409
G1 X141.598 Y100.63 E.00409
G1 X141.593 Y109.446 E.47364
G1 X137.147 Y117.147 E.47772
G1 X129.514 Y121.56 E.47364
G1 X129.446 Y121.593 E.00409
G1 X129.37 Y121.598 E.00409
G1 X120.554 Y121.593 E.47364
G1 X112.853 Y117.147 E.47772
M73 P29 R4
M73 Q29 S4
G1 X108.44 Y109.514 E.47364
G1 X108.407 Y109.446 E.00409
G1 X108.402 Y109.37 E.00409
G1 X108.407 Y100.554 E.47364
G1 X112.811 Y92.916 E.47364
G1 X112.853 Y92.853 E.00409
