; generated by PrusaSlicer 2.5.2+win64 on 2023-12-08 at 03:02:02 UTC


;
;
; 

; external perimeters extrusion width = 0.50mm
; perimeters extrusion width = 0.50mm
; infill extrusion width = 0.50mm
; solid infill extrusion width = 0.50mm
; top infill extrusion width = 0.50mm
; first layer extrusion width = 0.50mm

M73 P0 R18
M73 Q0 S18
M201 X1000 Y1000 Z200 E5000 ; sets maximum accelerations, mm/sec^2
M203 X200 Y200 Z12 E120 ; sets maximum feedrates, mm / sec
M204 P1250 R1250 T1250 ; sets acceleration (P, T) and retract acceleration (R), mm/sec^2
M205 X8.00 Y8.00 Z0.40 E4.50 ; sets the jerk limits, mm/sec
M205 S0 T0 ; sets the minimum extruding and travel feed rate, mm/sec
M107
;TYPE:Custom
M862.3 P "MK3S" ; printer model check
M862.1 P0.4 ; nozzle diameter check
M115 U3.12.2 ; tell printer latest fw version
G90 ; use absolute coordinates
M83 ; extruder relative mode
M104 S240 ; set extruder temp
M140 S60 ; set bed temp
M190 S60 ; wait for bed temp
M109 S240 ; wait for extruder temp
G28 W ; home all without mesh bed level
G80 ; mesh bed leveling

G1 Z0.2 F720
G1 Y-3 F1000 ; go outside print area
G92 E0
G1 X60 E9 F1000 ; intro line
G1 X100 E12.5 F1000 ; intro line

G92 E0
M221 S95

; Don't change E values below. Excessive value can damage the printer.
M907 E430 ; set extruder motor current
G21 ; set units to millimeters
G90 ; use absolute coordinates
M83 ; use relative distances for extrusion
M900 K0 ; Filament gcode
M107
;LAYER_CHANGE
;Z:0.2
;HEIGHT:0.2
;BEFORE_LAYER_CHANGE
G92 E0.0
;0.2


G1 E-1 F2400
G1 Z.2 F720
;AFTER_LAYER_CHANGE
;0.2
G1 X96.622 Y77.888 F4200
G1 E1 F1500
M204 S300
;TYPE:Skirt/Brim
;WIDTH:0.5
G1 F1200
G1 X97.888 Y76.622 E.07481
G1 X113.98 Y67.331 E.77687
G1 X115.709 Y66.868 E.07481
G1 X134.291 Y66.868 E.77687
G1 X136.02 Y67.331 E.07481
G1 X152.112 Y76.622 E.77687
G1 X153.378 Y77.888 E.07481
G1 X162.669 Y93.98 E.77687
G1 X163.132 Y95.709 E.07481
M73 P1 R18
M73 Q1 S18
G1 X163.132 Y114.291 E.77687
G1 X162.669 Y116.02 E.07481
G1 X153.378 Y132.112 E.77687
G1 X152.112 Y133.378 E.07481
G1 X136.02 Y142.669 E.77687
G1 X134.291 Y143.132 E.07481
G1 X115.709 Y143.132 E.77687
G1 X113.98 Y142.669 E.07481
G1 X97.888 Y133.378 E.77687
G1 X96.622 Y132.112 E.07481
G1 X87.331 Y116.02 E.77687
G1 X86.868 Y114.291 E.07481
G1 X86.868 Y95.709 E.77687
G1 X87.331 Y93.98 E.07481
G1 X96.592 Y77.94 E.77436
; printing object (x1)_POSPA_Standard.stl id:0 copy 0
G1 E-1 F2400
G1 X159.424 Y95.832 F4200
G1 E1 F1500
;TYPE:External perimeter
;WIDTH:0.551587
G1 F1200
G1 X159.421 Y114.223 E.85567
G1 X150.234 Y130.143 E.85514
G1 X150.198 Y130.198 E.00307
M73 P2 R18
M73 Q2 S18
G1 X150.143 Y130.234 E.00307
G1 X134.223 Y139.421 E.85514
G1 X115.843 Y139.425 E.85514
G1 X115.777 Y139.421 E.00307
G1 X115.718 Y139.391 E.00307
G1 X99.802 Y130.198 E.85514
G1 X90.579 Y114.223 E.85821
G1 X90.575 Y95.843 E.85514
G1 X90.579 Y95.777 E.00307
G1 X90.609 Y95.718 E.00307
G1 X99.802 Y79.802 E.85514
G1 X115.777 Y70.579 E.85821
G1 X134.157 Y70.575 E.85514
G1 X134.223 Y70.579 E.00307
G1 X134.282 Y70.609 E.00307
G1 X150.198 Y79.802 E.85514
G1 X159.418 Y95.772 E.85796
G1 X159.811 Y95.935 F4200
; stop printing object (x1)_POSPA_Standard.stl id:0 copy 0
;LAYER_CHANGE
;Z:0.4
;HEIGHT:0.2
;BEFORE_LAYER_CHANGE
G92 E0.0
;0.4


G1 E-1 F2400
G1 Z.4 F720
;AFTER_LAYER_CHANGE
;0.4
G1 X162.899 Y94.84 F4200
G1 E1 F1500
;TYPE:Skirt/Brim
;WIDTH:0.5
G1 F1200
G1 X163.132 Y95.709 E.03763
G1 X163.132 Y114.291 E.77687
G1 X162.669 Y116.02 E.07481
G1 X153.378 Y132.112 E.77687
G1 X152.112 Y133.378 E.07481
M73 P3 R18
M73 Q3 S18
G1 X136.02 Y142.669 E.77687
G1 X134.291 Y143.132 E.07481
G1 X115.709 Y143.132 E.77687
G1 X113.98 Y142.669 E.07481
G1 X97.888 Y133.378 E.77687
G1 X96.622 Y132.112 E.07481
G1 X87.331 Y116.02 E.77687
G1 X86.868 Y114.291 E.07481
G1 X86.868 Y95.709 E.77687
G1 X87.331 Y93.98 E.07481
G1 X96.622 Y77.888 E.77687
G1 X97.888 Y76.622 E.07481
G1 X113.98 Y67.331 E.77687
G1 X115.709 Y66.868 E.07481
G1 X134.291 Y66.868 E.77687
G1 X136.02 Y67.331 E.07481
G1 X152.112 Y76.622 E.77687
G1 X153.378 Y77.888 E.07481
G1 X162.669 Y93.98 E.77687
G1 X162.884 Y94.782 E.03468
; printing object (x1)_POSPA_Standard.stl id:0 copy 0
G1 E-1 F2400
G1 X159.589 Y95.787 F4200
G1 X159.591 Y95.835
G1 X159.425 Y95.839
G1 E1 F1500
;TYPE:External perimeter
;WIDTH:0.551587
G1 F1200
G1 X159.421 Y114.223 E.85531
G1 X150.234 Y130.143 E.85514
M73 P4 R18
M73 Q4 S18
G1 X150.198 Y130.198 E.00307
G1 X150.143 Y130.234 E.00307
G1 X134.223 Y139.421 E.85514
G1 X115.843 Y139.425 E.85514
G1 X115.777 Y139.421 E.00307
G1 X115.718 Y139.391 E.00307
G1 X99.802 Y130.198 E.85514
G1 X90.579 Y114.223 E.85821
G1 X90.575 Y95.843 E.85514
G1 X90.579 Y95.777 E.00307
G1 X90.609 Y95.718 E.00307
G1 X99.802 Y79.802 E.85514
G1 X115.777 Y70.579 E.85821
G1 X134.223 Y70.579 E.85821
G1 X150.143 Y79.766 E.85514
G1 X150.198 Y79.802 E.00307
M73 P4 R17
M73 Q4 S17
G1 X150.234 Y79.857 E.00307
G1 X159.421 Y95.779 E.85524
G1 X159.801 Y95.976 F4200
; stop printing object (x1)_POSPA_Standard.stl id:0 copy 0
;LAYER_CHANGE
;Z:0.6
;HEIGHT:0.2
;BEFORE_LAYER_CHANGE
G92 E0.0
;0.6


G1 E-1 F2400
G1 Z.6 F720
;AFTER_LAYER_CHANGE
;0.6
G1 X162.901 Y94.847 F4200
G1 E1 F1500
;TYPE:Skirt/Brim
;WIDTH:0.5
G1 F1200
G1 X163.132 Y95.709 E.03731
G1 X163.132 Y114.291 E.77687
G1 X162.669 Y116.02 E.07481
M73 P5 R17
M73 Q5 S17
G1 X153.378 Y132.112 E.77687
G1 X152.112 Y133.378 E.07481
G1 X136.02 Y142.669 E.77687
G1 X134.291 Y143.132 E.07481
G1 X115.709 Y143.132 E.77687
G1 X113.98 Y142.669 E.07481
G1 X97.888 Y133.378 E.77687
G1 X96.622 Y132.112 E.07481
G1 X87.331 Y116.02 E.77687
G1 X86.868 Y114.291 E.07481
G1 X86.868 Y95.709 E.77687
G1 X87.331 Y93.98 E.07481
G1 X96.622 Y77.888 E.77687
G1 X97.888 Y76.622 E.07481
G1 X113.98 Y67.331 E.77687
G1 X115.709 Y66.868 E.07481
G1 X134.291 Y66.868 E.77687
G1 X136.02 Y67.331 E.07481
G1 X152.112 Y76.622 E.77687
G1 X153.378 Y77.888 E.07481
G1 X162.669 Y93.98 E.77687
G1 X162.886 Y94.789 E.03499
; printing object (x1)_POSPA_Standard.stl id:0 copy 0
M73 P6 R17
M73 Q6 S17
G1 E-1 F2400
G1 X159.59 Y95.796 F4200
G1 X159.591 Y95.844
G1 X159.425 Y95.848
G1 E1 F1500
;TYPE:External perimeter
;WIDTH:0.551587
G1 F1200
G1 X159.421 Y114.223 E.8549
G1 X150.234 Y130.143 E.85514
G1 X150.198 Y130.198 E.00307
G1 X150.143 Y130.234 E.00307
G1 X134.223 Y139.421 E.85514
G1 X115.843 Y139.425 E.85514
G1 X115.777 Y139.421 E.00307
G1 X115.718 Y139.391 E.00307
G1 X99.802 Y130.198 E.85514
G1 X90.579 Y114.223 E.85821
G1 X90.575 Y95.843 E.85514
G1 X90.579 Y95.777 E.00307
G1 X90.609 Y95.718 E.00307
G1 X99.802 Y79.802 E.85514
G1 X115.777 Y70.579 E.85821
G1 X134.223 Y70.579 E.85821
G1 X150.143 Y79.766 E.85514
G1 X150.198 Y79.802 E.00307
G1 X150.234 Y79.857 E.00307
G1 X159.421 Y95.788 E.85561
G1 X159.801 Y95.985 F4200
; stop printing object (x1)_POSPA_Standard.stl id:0 copy 0
;LAYER_CHANGE
;Z:0.8
;HEIGHT:0.2
;BEFORE_LAYER_CHANGE
G92 E0.0
;0.8


M73 P7 R17
M73 Q7 S17
G1 E-1 F2400
G1 Z.8 F720
;AFTER_LAYER_CHANGE
;0.8
; printing object (x1)_POSPA_Standard.stl id:0 copy 0
G1 X159.425 Y95.86 F4200
G1 E1 F1500
G1 F1200
G1 X159.421 Y114.223 E.85434
G1 X150.234 Y130.143 E.85514
G1 X150.198 Y130.198 E.00307
G1 X150.143 Y130.234 E.00307
G1 X134.223 Y139.421 E.85514
G1 X115.843 Y139.425 E.85514
G1 X115.777 Y139.421 E.00307
G1 X115.718 Y139.391 E.00307
G1 X99.802 Y130.198 E.85514
G1 X90.579 Y114.223 E.85821
G1 X90.575 Y95.843 E.85514
G1 X90.579 Y95.777 E.00307
G1 X90.609 Y95.718 E.00307
G1 X99.802 Y79.802 E.85514
G1 X115.777 Y70.579 E.85821
G1 X134.223 Y70.579 E.85821
G1 X150.143 Y79.766 E.85514
G1 X150.198 Y79.802 E.00307
G1 X150.234 Y79.857 E.00307
G1 X159.391 Y95.718 E.85208
G1 X159.422 Y95.8 E.00409
M73 P8 R17
M73 Q8 S17
G1 X159.801 Y95.997 F4200
; stop printing object (x1)_POSPA_Standard.stl id:0 copy 0
;LAYER_CHANGE
;Z:1
;HEIGHT:0.2
;BEFORE_LAYER_CHANGE
G92 E0.0
;1


G1 E-1 F2400
G1 Z1 F720
;AFTER_LAYER_CHANGE
;1
; printing object (x1)_POSPA_Standard.stl id:0 copy 0
G1 X159.425 Y95.873 F4200
G1 E1 F1500
G1 F1200
G1 X159.421 Y114.223 E.85374
G1 X150.234 Y130.143 E.85514
G1 X150.198 Y130.198 E.00307
G1 X150.143 Y130.234 E.00307
G1 X134.223 Y139.421 E.85514
G1 X115.843 Y139.425 E.85514
G1 X115.777 Y139.421 E.00307
G1 X115.718 Y139.391 E.00307
G1 X99.802 Y130.198 E.85514
G1 X90.579 Y114.223 E.85821
G1 X90.575 Y95.843 E.85514
G1 X90.579 Y95.777 E.00307
G1 X90.609 Y95.718 E.00307
G1 X99.802 Y79.802 E.85514
G1 X115.777 Y70.579 E.85821
G1 X134.223 Y70.579 E.85821
G1 X150.143 Y79.766 E.85514
G1 X150.198 Y79.802 E.00307
G1 X150.234 Y79.857 E.00307
G1 X159.391 Y95.718 E.85208
G1 X159.423 Y95.813 E.00467
M73 P9 R17
M73 Q9 S17
G1 X159.801 Y96.01 F4200
; stop printing object (x1)_POSPA_Standard.stl id:0 copy 0
;LAYER_CHANGE
;Z:1.2
;HEIGHT:0.2
;BEFORE_LAYER_CHANGE
G92 E0.0
;1.2


G1 E-1 F2400
G1 Z1.2 F720
;AFTER_LAYER_CHANGE
;1.2
; printing object (x1)_POSPA_Standard.stl id:0 copy 0
G1 X159.415 Y95.888 F4200
G1 E1 F1500
;WIDTH:0.571543
G1 F1200
G1 X159.411 Y114.22 E.88639
G1 X150.228 Y130.133 E.88831
G1 X150.19 Y130.19 E.00331
G1 X150.133 Y130.228 E.00331
G1 X134.22 Y139.411 E.88831
G1 X115.78 Y139.411 E.89162
G1 X99.867 Y130.228 E.88831
G1 X99.81 Y130.19 E.00331
G1 X99.772 Y130.133 E.00331
G1 X90.589 Y114.22 E.88831
G1 X90.589 Y95.78 E.89162
G1 X99.772 Y79.867 E.88831
G1 X99.81 Y79.81 E.00331
G1 X99.867 Y79.772 E.00331
G1 X115.78 Y70.589 E.88831
G1 X134.22 Y70.589 E.89162
G1 X150.133 Y79.772 E.88831
G1 X150.19 Y79.81 E.00331
G1 X150.228 Y79.867 E.00331
G1 X159.38 Y95.718 E.885
G1 X159.414 Y95.828 E.00554
M73 P10 R17
M73 Q10 S17
G1 X159.791 Y96.025 F4200
; stop printing object (x1)_POSPA_Standard.stl id:0 copy 0
;LAYER_CHANGE
;Z:1.4
;HEIGHT:0.2
;BEFORE_LAYER_CHANGE
G92 E0.0
;1.4


G1 E-1 F2400
G1 Z1.4 F720
;AFTER_LAYER_CHANGE
;1.4
; printing object (x1)_POSPA_Standard.stl id:0 copy 0
G1 X159.329 Y95.907 F4200
G1 E1 F1500
;WIDTH:0.630279
G1 F1200
G1 X159.324 Y114.197 E.98256
G1 X150.169 Y130.063 E.98409
M73 P10 R16
M73 Q10 S16
G1 X150.127 Y130.127 E.00409
G1 X150.063 Y130.169 E.00409
G1 X134.197 Y139.324 E.98409
G1 X115.803 Y139.324 E.98818
G1 X99.937 Y130.169 E.98409
G1 X99.873 Y130.127 E.00409
G1 X99.831 Y130.063 E.00409
G1 X90.676 Y114.197 E.98409
G1 X90.676 Y95.803 E.98818
G1 X99.831 Y79.937 E.98409
G1 X99.873 Y79.873 E.00409
G1 X99.937 Y79.831 E.00409
G1 X115.803 Y70.676 E.98409
G1 X134.197 Y70.676 E.98818
G1 X150.063 Y79.831 E.98409
G1 X150.127 Y79.873 E.00409
G1 X150.169 Y79.937 E.00409
G1 X159.29 Y95.735 E.98001
G1 X159.326 Y95.848 E.00637
M73 P11 R16
M73 Q11 S16
G1 X159.704 Y96.045 F4200
; stop printing object (x1)_POSPA_Standard.stl id:0 copy 0
;LAYER_CHANGE
;Z:1.6
;HEIGHT:0.2
;BEFORE_LAYER_CHANGE
G92 E0.0
;1.6


G1 E-1 F2400
G1 Z1.6 F720
;AFTER_LAYER_CHANGE
;1.6
; printing object (x1)_POSPA_Standard.stl id:0 copy 0
G1 X159.213 Y95.928 F4200
G1 E1 F1500
;WIDTH:0.630278
G1 F1200
G1 X159.208 Y114.166 E.97979
G1 X150.084 Y129.979 E.98077
G1 X150.042 Y130.042 E.00409
G1 X149.979 Y130.084 E.00409
G1 X134.166 Y139.208 E.98077
G1 X115.834 Y139.208 E.98485
G1 X100.021 Y130.084 E.98077
G1 X99.958 Y130.042 E.00409
G1 X99.916 Y129.979 E.00409
G1 X90.792 Y114.166 E.98077
G1 X90.792 Y95.834 E.98485
G1 X99.916 Y80.021 E.98077
G1 X99.958 Y79.958 E.00409
G1 X100.021 Y79.916 E.00409
G1 X115.834 Y70.792 E.98077
G1 X134.166 Y70.792 E.98485
G1 X149.979 Y79.916 E.98077
G1 X150.042 Y79.958 E.00409
G1 X150.084 Y80.021 E.00409
G1 X159.174 Y95.766 E.97668
G1 X159.21 Y95.868 E.00584
M73 P12 R16
M73 Q12 S16
G1 X159.589 Y96.065 F4200
; stop printing object (x1)_POSPA_Standard.stl id:0 copy 0
;LAYER_CHANGE
;Z:1.8
;HEIGHT:0.2
;BEFORE_LAYER_CHANGE
G92 E0.0
;1.8


G1 E-1 F2400
G1 Z1.8 F720
;AFTER_LAYER_CHANGE
;1.8
; printing object (x1)_POSPA_Standard.stl id:0 copy 0
G1 X159.098 Y95.95 F4200
G1 E1 F1500
;WIDTH:0.630279
G1 F1200
G1 X159.093 Y114.135 E.97696
G1 X150 Y129.894 E.97744
G1 X149.958 Y129.958 E.00409
G1 X149.894 Y130 E.00409
G1 X134.135 Y139.093 E.97744
G1 X115.941 Y139.098 E.97744
G1 X115.865 Y139.093 E.00409
G1 X115.797 Y139.059 E.00409
G1 X100.042 Y129.958 E.97744
G1 X90.907 Y114.135 E.98153
G1 X90.902 Y95.941 E.97744
G1 X90.907 Y95.865 E.00409
G1 X90.941 Y95.797 E.00409
G1 X100.042 Y80.042 E.97744
G1 X115.865 Y70.907 E.98153
G1 X134.135 Y70.907 E.98153
G1 X149.894 Y80 E.97744
G1 X149.958 Y80.042 E.00409
G1 X150 Y80.106 E.00409
G1 X159.059 Y95.797 E.97336
G1 X159.094 Y95.89 E.00537
M73 P13 R16
M73 Q13 S16
G1 X159.473 Y96.087 F4200
; stop printing object (x1)_POSPA_Standard.stl id:0 copy 0
;LAYER_CHANGE
;Z:2
;HEIGHT:0.2
;BEFORE_LAYER_CHANGE
G92 E0.0
;2


G1 E-1 F2400
G1 Z2 F720
;AFTER_LAYER_CHANGE
;2
; printing object (x1)_POSPA_Standard.stl id:0 copy 0
G1 X158.982 Y95.973 F4200
G1 E1 F1500
;WIDTH:0.630278
G1 F1200
G1 X158.977 Y114.104 E.97408
G1 X149.915 Y129.81 E.97412
G1 X149.873 Y129.873 E.00409
G1 X149.81 Y129.915 E.00409
G1 X134.104 Y138.977 E.97412
G1 X115.972 Y138.982 E.97412
G1 X115.896 Y138.977 E.00409
G1 X115.828 Y138.943 E.00409
G1 X100.127 Y129.873 E.97412
G1 X91.023 Y114.104 E.9782
G1 X91.018 Y95.972 E.97412
G1 X91.023 Y95.896 E.00409
G1 X91.057 Y95.828 E.00409
G1 X100.127 Y80.127 E.97412
G1 X115.896 Y71.023 E.9782
G1 X134.104 Y71.023 E.9782
G1 X149.81 Y80.085 E.97412
G1 X149.873 Y80.127 E.00409
G1 X149.915 Y80.19 E.00409
G1 X158.978 Y95.913 E.97493
G1 X159.358 Y96.11 F4200
; stop printing object (x1)_POSPA_Standard.stl id:0 copy 0
;LAYER_CHANGE
;Z:2.2
;HEIGHT:0.2
;BEFORE_LAYER_CHANGE
G92 E0.0
;2.2


M73 P14 R16
M73 Q14 S16
G1 E-1 F2400
G1 Z2.2 F720
;AFTER_LAYER_CHANGE
;2.2
; printing object (x1)_POSPA_Standard.stl id:0 copy 0
G1 X158.866 Y95.997 F4200
G1 E1 F1500
;WIDTH:0.630278
G1 F1200
G1 X158.862 Y114.073 E.9711
G1 X149.831 Y129.725 E.97079
G1 X149.788 Y129.788 E.00409
G1 X149.725 Y129.831 E.00409
G1 X134.073 Y138.862 E.97079
G1 X115.927 Y138.862 E.97488
G1 X100.275 Y129.831 E.97079
G1 X100.212 Y129.788 E.00409
G1 X100.169 Y129.725 E.00409
G1 X91.138 Y114.073 E.97079
G1 X91.138 Y95.927 E.97488
G1 X100.169 Y80.275 E.97079
G1 X100.212 Y80.212 E.00409
G1 X100.275 Y80.169 E.00409
G1 X115.927 Y71.138 E.97079
G1 X134.073 Y71.138 E.97488
G1 X149.725 Y80.169 E.97079
G1 X149.788 Y80.212 E.00409
G1 X149.831 Y80.275 E.00409
G1 X158.862 Y95.937 E.9713
G1 X159.242 Y96.134 F4200
; stop printing object (x1)_POSPA_Standard.stl id:0 copy 0
;LAYER_CHANGE
;Z:2.4
;HEIGHT:0.2
;BEFORE_LAYER_CHANGE
G92 E0.0
;2.4


M73 P15 R16
M73 Q15 S16
G1 E-1 F2400
G1 Z2.4 F720
;AFTER_LAYER_CHANGE
;2.4
; printing object (x1)_POSPA_Standard.stl id:0 copy 0
G1 X158.751 Y96.023 F4200
G1 E1 F1500
;WIDTH:0.630278
G1 F1200
G1 X158.746 Y114.042 E.96802
G1 X149.746 Y129.641 E.96747
G1 X149.704 Y129.704 E.00409
G1 X149.641 Y129.746 E.00409
G1 X134.042 Y138.746 E.96747
G1 X116.034 Y138.751 E.96747
G1 X115.958 Y138.746 E.00409
G1 X115.889 Y138.713 E.00409
G1 X100.296 Y129.704 E.96747
G1 X91.254 Y114.042 E.97155
M73 P15 R15
M73 Q15 S15
G1 X91.249 Y96.034 E.96747
G1 X91.254 Y95.958 E.00409
G1 X91.287 Y95.889 E.00409
G1 X100.296 Y80.296 E.96747
G1 X115.958 Y71.254 E.97155
G1 X134.042 Y71.254 E.97155
G1 X149.641 Y80.254 E.96747
G1 X149.704 Y80.296 E.00409
G1 X149.746 Y80.359 E.00409
G1 X158.747 Y95.964 E.96775
G1 X159.126 Y96.16 F4200
; stop printing object (x1)_POSPA_Standard.stl id:0 copy 0
;LAYER_CHANGE
;Z:2.6
;HEIGHT:0.2
;BEFORE_LAYER_CHANGE
G92 E0.0
;2.6


M73 P16 R15
M73 Q16 S15
G1 E-1 F2400
G1 Z2.6 F720
;AFTER_LAYER_CHANGE
;2.6
; printing object (x1)_POSPA_Standard.stl id:0 copy 0
G1 X158.635 Y96.05 F4200
G1 E1 F1500
G1 F1200
G1 X158.631 Y114.011 E.96491
G1 X149.662 Y129.556 E.96415
G1 X149.619 Y129.619 E.00409
G1 X149.556 Y129.662 E.00409
G1 X134.011 Y138.631 E.96415
G1 X116.065 Y138.636 E.96415
G1 X115.989 Y138.631 E.00409
G1 X115.92 Y138.597 E.00409
G1 X100.381 Y129.619 E.96415
G1 X91.369 Y114.011 E.96823
G1 X91.364 Y96.065 E.96415
G1 X91.369 Y95.989 E.00409
G1 X91.403 Y95.92 E.00409
G1 X100.381 Y80.381 E.96415
G1 X115.989 Y71.369 E.96823
G1 X134.011 Y71.369 E.96823
G1 X149.556 Y80.338 E.96415
G1 X149.619 Y80.381 E.00409
G1 X149.662 Y80.444 E.00409
G1 X158.631 Y95.991 E.96424
G1 X159.011 Y96.187 F4200
; stop printing object (x1)_POSPA_Standard.stl id:0 copy 0
;LAYER_CHANGE
;Z:2.8
;HEIGHT:0.2
