; generated by PrusaSlicer 2.5.2+win64 on 2023-12-08 at 03:01:50 UTC


;
;
; 

; external perimeters extrusion width = 0.50mm
; perimeters extrusion width = 0.50mm
; infill extrusion width = 0.50mm
; solid infill extrusion width = 0.50mm
; top infill extrusion width = 0.50mm
; first layer extrusion width = 0.50mm

M73 P0 R67
M73 Q0 S67
M201 X1000 Y1000 Z200 E5000 ; sets maximum accelerations, mm/sec^2
M203 X200 Y200 Z12 E120 ; sets maximum feedrates, mm / sec
M204 P1250 R1250 T1250 ; sets acceleration (P, T) and retract acceleration (R), mm/sec^2
M205 X8.00 Y8.00 Z0.40 E4.50 ; sets the jerk limits, mm/sec
M205 S0 T0 ; sets the minimum extruding and travel feed rate, mm/sec
M107
;TYPE:Custom
M862.3 P "MK3S" ; printer model check
M862.1 P0.4 ; nozzle diameter check
M115 U3.12.2 ; tell printer latest fw version
G90 ; use absolute coordinates
M83 ; extruder relative mode
M104 S240 ; set extruder temp
M140 S60 ; set bed temp
M190 S60 ; wait for bed temp
M109 S240 ; wait for extruder temp
G28 W ; home all without mesh bed level
G80 ; mesh bed leveling

G1 Z0.2 F720
G1 Y-3 F1000 ; go outside print area
G92 E0
G1 X60 E9 F1000 ; intro line
G1 X100 E12.5 F1000 ; intro line

G92 E0
M221 S95

; Don't change E values below. Excessive value can damage the printer.
M907 E430 ; set extruder motor current
G21 ; set units to millimeters
G90 ; use absolute coordinates
M83 ; use relative distances for extrusion
M900 K0 ; Filament gcode
M107
;LAYER_CHANGE
;Z:0.2
;HEIGHT:0.2
;BEFORE_LAYER_CHANGE
G92 E0.0
;0.2


G1 E-1 F2400
G1 Z.2 F720
;AFTER_LAYER_CHANGE
;0.2
G1 X71.678 Y52.943 F4200
G1 E1 F1500
M204 S300
;TYPE:Skirt/Brim
;WIDTH:0.5
G1 F1200
G1 X72.943 Y51.678 E.07481
G1 X104.85 Y33.256 E1.54029
G1 X106.579 Y32.793 E.07481
G1 X143.421 Y32.793 E1.54029
G1 X145.15 Y33.256 E.07481
G1 X177.057 Y51.678 E1.54029
G1 X178.322 Y52.943 E.07481
G1 X196.744 Y84.85 E1.54029
G1 X197.207 Y86.579 E.07481
G1 X197.207 Y123.421 E1.54029
G1 X196.744 Y125.15 E.07481
G1 X178.322 Y157.057 E1.54029
G1 X177.057 Y158.322 E.07481
G1 X145.15 Y176.744 E1.54029
G1 X143.421 Y177.207 E.07481
G1 X106.579 Y177.207 E1.54029
G1 X104.85 Y176.744 E.07481
G1 X72.943 Y158.322 E1.54029
G1 X71.678 Y157.057 E.07481
G1 X53.256 Y125.15 E1.54029
G1 X52.793 Y123.421 E.07481
G1 X52.793 Y86.579 E1.54029
G1 X53.256 Y84.85 E.07481
G1 X71.648 Y52.995 E1.53778
; printing object (x2)_POSPA_Large.stl id:0 copy 0
G1 E-1 F2400
G1 X143.382 Y36.519 F4200
G1 E1 F1500
;TYPE:External perimeter
;WIDTH:0.551588
G1 F1200
G1 X175.142 Y54.858 E1.70629
G1 X193.466 Y86.587 E1.70473
G1 X193.496 Y86.647 E.00307
G1 X193.5 Y86.712 E.00307
G1 X193.496 Y123.353 E1.70473
G1 X175.142 Y155.142 E1.70779
G1 X143.413 Y173.466 E1.70473
G1 X143.353 Y173.496 E.00307
M73 P1 R67
M73 Q1 S67
G1 X143.288 Y173.5 E.00307
G1 X106.647 Y173.496 E1.70473
G1 X74.858 Y155.142 E1.70779
G1 X56.534 Y123.413 E1.70473
G1 X56.504 Y123.353 E.00307
M73 P1 R66
M73 Q1 S66
G1 X56.5 Y123.288 E.00307
G1 X56.504 Y86.647 E1.70473
G1 X74.821 Y54.913 E1.70473
G1 X74.858 Y54.858 E.00307
G1 X74.913 Y54.821 E.00307
G1 X106.647 Y36.504 E1.70473
G1 X143.326 Y36.503 E1.70651
G1 X143.665 Y36.236 F4200
; stop printing object (x2)_POSPA_Large.stl id:0 copy 0
;LAYER_CHANGE
;Z:0.4
;HEIGHT:0.2
;BEFORE_LAYER_CHANGE
G92 E0.0
;0.4


G1 E-1 F2400
G1 Z.4 F720
;AFTER_LAYER_CHANGE
;0.4
G1 X144.26 Y33.018 F4200
G1 E1 F1500
;TYPE:Skirt/Brim
;WIDTH:0.5
G1 F1200
G1 X145.15 Y33.256 E.03854
G1 X177.057 Y51.678 E1.54029
G1 X178.322 Y52.943 E.07481
G1 X196.744 Y84.85 E1.54029
G1 X197.207 Y86.579 E.07481
G1 X197.207 Y123.421 E1.54029
G1 X196.744 Y125.15 E.07481
G1 X178.322 Y157.057 E1.54029
G1 X177.057 Y158.322 E.07481
G1 X145.15 Y176.744 E1.54029
G1 X143.421 Y177.207 E.07481
G1 X106.579 Y177.207 E1.54029
G1 X104.85 Y176.744 E.07481
G1 X72.943 Y158.322 E1.54029
G1 X71.678 Y157.057 E.07481
G1 X53.256 Y125.15 E1.54029
G1 X52.793 Y123.421 E.07481
G1 X52.793 Y86.579 E1.54029
G1 X53.256 Y84.85 E.07481
G1 X71.678 Y52.943 E1.54029
G1 X72.943 Y51.678 E.07481
G1 X104.85 Y33.256 E1.54029
G1 X106.579 Y32.793 E.07481
G1 X143.421 Y32.793 E1.54029
G1 X144.202 Y33.002 E.03377
; printing object (x2)_POSPA_Large.stl id:0 copy 0
G1 E-1 F2400
G1 X143.424 Y36.351 F4200
G1 X143.471 Y36.377
G1 X143.392 Y36.523
G1 E1 F1500
;TYPE:External perimeter
;WIDTH:0.551588
G1 F1200
G1 X175.142 Y54.858 E1.70581
G1 X193.466 Y86.587 E1.70473
G1 X193.496 Y86.647 E.00307
M73 P2 R66
M73 Q2 S66
G1 X193.5 Y86.712 E.00307
G1 X193.496 Y123.353 E1.70473
G1 X175.142 Y155.142 E1.70779
G1 X143.413 Y173.466 E1.70473
G1 X143.353 Y173.496 E.00307
G1 X143.288 Y173.5 E.00307
G1 X106.647 Y173.496 E1.70473
G1 X74.858 Y155.142 E1.70779
G1 X56.534 Y123.413 E1.70473
G1 X56.504 Y123.353 E.00307
G1 X56.5 Y123.288 E.00307
G1 X56.504 Y86.647 E1.70473
G1 X74.821 Y54.913 E1.70473
G1 X74.858 Y54.858 E.00307
G1 X74.913 Y54.821 E.00307
G1 X106.647 Y36.504 E1.70473
G1 X143.336 Y36.503 E1.70699
G1 X143.675 Y36.24 F4200
; stop printing object (x2)_POSPA_Large.stl id:0 copy 0
;LAYER_CHANGE
;Z:0.6
;HEIGHT:0.2
;BEFORE_LAYER_CHANGE
G92 E0.0
;0.6


G1 E-1 F2400
G1 Z.6 F720
;AFTER_LAYER_CHANGE
;0.6
G1 X144.269 Y33.02 F4200
G1 E1 F1500
;TYPE:Skirt/Brim
;WIDTH:0.5
G1 F1200
G1 X145.15 Y33.256 E.03812
G1 X177.057 Y51.678 E1.54029
G1 X178.322 Y52.943 E.07481
G1 X196.744 Y84.85 E1.54029
G1 X197.207 Y86.579 E.07481
G1 X197.207 Y123.421 E1.54029
G1 X196.744 Y125.15 E.07481
M73 P2 R65
M73 Q2 S65
G1 X178.322 Y157.057 E1.54029
G1 X177.057 Y158.322 E.07481
G1 X145.15 Y176.744 E1.54029
G1 X143.421 Y177.207 E.07481
G1 X106.579 Y177.207 E1.54029
G1 X104.85 Y176.744 E.07481
G1 X72.943 Y158.322 E1.54029
G1 X71.678 Y157.057 E.07481
G1 X53.256 Y125.15 E1.54029
G1 X52.793 Y123.421 E.07481
G1 X52.793 Y86.579 E1.54029
G1 X53.256 Y84.85 E.07481
G1 X71.678 Y52.943 E1.54029
G1 X72.943 Y51.678 E.07481
G1 X104.85 Y33.256 E1.54029
G1 X106.579 Y32.793 E.07481
G1 X143.421 Y32.793 E1.54029
G1 X144.211 Y33.005 E.03419
; printing object (x2)_POSPA_Large.stl id:0 copy 0
M73 P3 R65
M73 Q3 S65
G1 E-1 F2400
G1 X143.433 Y36.356 F4200
G1 X143.481 Y36.382
G1 X143.402 Y36.528
G1 E1 F1500
;TYPE:External perimeter
;WIDTH:0.551588
G1 F1200
G1 X175.142 Y54.858 E1.70529
G1 X193.466 Y86.587 E1.70473
G1 X193.496 Y86.647 E.00307
G1 X193.5 Y86.712 E.00307
G1 X193.496 Y123.353 E1.70473
G1 X175.142 Y155.142 E1.70779
G1 X143.413 Y173.466 E1.70473
G1 X143.353 Y173.496 E.00307
G1 X143.288 Y173.5 E.00307
G1 X106.647 Y173.496 E1.70473
G1 X74.858 Y155.142 E1.70779
G1 X56.534 Y123.413 E1.70473
G1 X56.504 Y123.353 E.00307
G1 X56.5 Y123.288 E.00307
G1 X56.504 Y86.647 E1.70473
G1 X74.821 Y54.913 E1.70473
G1 X74.858 Y54.858 E.00307
G1 X74.913 Y54.821 E.00307
G1 X106.647 Y36.504 E1.70473
G1 X143.347 Y36.504 E1.70751
G1 X143.685 Y36.246 F4200
; stop printing object (x2)_POSPA_Large.stl id:0 copy 0
;LAYER_CHANGE
;Z:0.8
;HEIGHT:0.2
;BEFORE_LAYER_CHANGE
G92 E0.0
;0.8


G1 E-1 F2400
G1 Z.8 F720
;AFTER_LAYER_CHANGE
;0.8
; printing object (x2)_POSPA_Large.stl id:0 copy 0
G1 X143.413 Y36.534 F4200
G1 E1 F1500
G1 F1200
G1 X175.142 Y54.858 E1.70473
G1 X193.466 Y86.587 E1.70473
G1 X193.496 Y86.647 E.00307
G1 X193.5 Y86.712 E.00307
G1 X193.496 Y123.353 E1.70473
G1 X175.142 Y155.142 E1.70779
G1 X143.413 Y173.466 E1.70473
G1 X143.353 Y173.496 E.00307
G1 X143.288 Y173.5 E.00307
G1 X106.647 Y173.496 E1.70473
G1 X74.858 Y155.142 E1.70779
G1 X56.534 Y123.413 E1.70473
G1 X56.504 Y123.353 E.00307
G1 X56.5 Y123.288 E.00307
G1 X56.504 Y86.647 E1.70473
G1 X74.858 Y54.858 E1.70779
G1 X106.587 Y36.534 E1.70473
M73 P4 R65
M73 Q4 S65
G1 X106.647 Y36.504 E.00307
M73 P4 R64
M73 Q4 S64
G1 X106.712 Y36.5 E.00307
G1 X143.359 Y36.507 E1.70498
G1 X143.719 Y36.277 F4200
; stop printing object (x2)_POSPA_Large.stl id:0 copy 0
;LAYER_CHANGE
;Z:1
;HEIGHT:0.2
;BEFORE_LAYER_CHANGE
G92 E0.0
;1


G1 E-1 F2400
G1 Z1 F720
;AFTER_LAYER_CHANGE
;1
; printing object (x2)_POSPA_Large.stl id:0 copy 0
G1 X143.427 Y36.542 F4200
G1 E1 F1500
G1 F1200
G1 X175.142 Y54.858 E1.70394
G1 X193.466 Y86.587 E1.70473
G1 X193.496 Y86.647 E.00307
G1 X193.5 Y86.712 E.00307
G1 X193.496 Y123.353 E1.70473
G1 X175.142 Y155.142 E1.70779
G1 X143.413 Y173.466 E1.70473
G1 X143.353 Y173.496 E.00307
G1 X143.288 Y173.5 E.00307
G1 X106.647 Y173.496 E1.70473
G1 X74.858 Y155.142 E1.70779
G1 X56.534 Y123.413 E1.70473
G1 X56.504 Y123.353 E.00307
G1 X56.5 Y123.288 E.00307
G1 X56.504 Y86.647 E1.70473
G1 X74.858 Y54.858 E1.70779
G1 X106.587 Y36.534 E1.70473
G1 X106.647 Y36.504 E.00307
G1 X106.712 Y36.5 E.00307
G1 X143.288 Y36.5 E1.70167
G1 X143.374 Y36.515 E.00407
G1 X143.734 Y36.285 F4200
; stop printing object (x2)_POSPA_Large.stl id:0 copy 0
;LAYER_CHANGE
;Z:1.2
;HEIGHT:0.2
;BEFORE_LAYER_CHANGE
G92 E0.0
;1.2


G1 E-1 F2400
G1 Z1.2 F720
;AFTER_LAYER_CHANGE
;1.2
; printing object (x2)_POSPA_Large.stl id:0 copy 0
G1 X143.439 Y36.56 F4200
G1 E1 F1500
;WIDTH:0.571542
G1 F1200
G1 X175.135 Y54.865 E1.76972
G1 X193.455 Y86.588 E1.77122
G1 X193.486 Y86.649 E.00331
G1 X193.49 Y86.718 E.00331
G1 X193.486 Y123.351 E1.77122
G1 X175.135 Y155.135 E1.77453
G1 X143.412 Y173.455 E1.77122
G1 X143.351 Y173.486 E.00331
G1 X143.282 Y173.49 E.00331
G1 X106.649 Y173.486 E1.77122
G1 X74.865 Y155.135 E1.77453
G1 X56.545 Y123.412 E1.77122
M73 P5 R64
M73 Q5 S64
G1 X56.514 Y123.351 E.00331
G1 X56.51 Y123.282 E.00331
G1 X56.514 Y86.649 E1.77122
G1 X74.865 Y54.865 E1.77453
G1 X106.588 Y36.545 E1.77122
G1 X106.649 Y36.514 E.00331
G1 X106.718 Y36.51 E.00331
G1 X143.282 Y36.51 E1.76792
G1 X143.386 Y36.532 E.00514
G1 X143.746 Y36.303 F4200
; stop printing object (x2)_POSPA_Large.stl id:0 copy 0
;LAYER_CHANGE
;Z:1.4
;HEIGHT:0.2
;BEFORE_LAYER_CHANGE
G92 E0.0
;1.4


G1 E-1 F2400
G1 Z1.4 F720
;AFTER_LAYER_CHANGE
;1.4
; printing object (x2)_POSPA_Large.stl id:0 copy 0
G1 X143.417 Y36.647 F4200
G1 E1 F1500
;WIDTH:0.630277
G1 F1200
G1 X175.071 Y54.929 E1.96378
G1 X193.365 Y86.604 E1.96511
G1 X193.399 Y86.673 E.00409
G1 X193.404 Y86.749 E.00409
G1 X193.399 Y123.327 E1.96511
G1 X175.071 Y155.071 E1.96919
G1 X143.396 Y173.365 E1.96511
G1 X143.327 Y173.399 E.00409
G1 X143.251 Y173.404 E.00409
G1 X106.673 Y173.399 E1.96511
G1 X74.929 Y155.071 E1.96919
G1 X56.635 Y123.396 E1.96511
M73 P5 R63
M73 Q5 S63
G1 X56.601 Y123.327 E.00409
G1 X56.596 Y123.251 E.00409
G1 X56.601 Y86.673 E1.96511
G1 X74.929 Y54.929 E1.96919
G1 X106.604 Y36.635 E1.96511
G1 X106.673 Y36.601 E.00409
G1 X106.749 Y36.596 E.00409
G1 X143.251 Y36.596 E1.96102
G1 X143.364 Y36.62 E.00618
G1 X143.724 Y36.391 F4200
; stop printing object (x2)_POSPA_Large.stl id:0 copy 0
;LAYER_CHANGE
;Z:1.6
;HEIGHT:0.2
;BEFORE_LAYER_CHANGE
G92 E0.0
;1.6


G1 E-1 F2400
G1 Z1.6 F720
;AFTER_LAYER_CHANGE
;1.6
; printing object (x2)_POSPA_Large.stl id:0 copy 0
G1 X143.381 Y36.76 F4200
G1 E1 F1500
G1 F1200
G1 X174.987 Y55.013 E1.96075
G1 X193.249 Y86.635 E1.96178
G1 X193.283 Y86.704 E.00409
G1 X193.288 Y86.78 E.00409
G1 X193.283 Y123.296 E1.96178
G1 X174.987 Y154.987 E1.96587
G1 X143.365 Y173.249 E1.96178
G1 X143.296 Y173.283 E.00409
M73 P6 R63
M73 Q6 S63
G1 X143.22 Y173.288 E.00409
G1 X106.704 Y173.283 E1.96178
G1 X75.013 Y154.987 E1.96587
G1 X56.751 Y123.365 E1.96178
G1 X56.717 Y123.296 E.00409
G1 X56.712 Y123.22 E.00409
G1 X56.717 Y86.704 E1.96178
G1 X75.013 Y55.013 E1.96587
G1 X106.635 Y36.751 E1.96178
G1 X106.704 Y36.717 E.00409
G1 X106.78 Y36.712 E.00409
G1 X143.22 Y36.712 E1.9577
G1 X143.328 Y36.733 E.0059
G1 X143.688 Y36.503 F4200
; stop printing object (x2)_POSPA_Large.stl id:0 copy 0
;LAYER_CHANGE
;Z:1.8
;HEIGHT:0.2
;BEFORE_LAYER_CHANGE
G92 E0.0
;1.8


G1 E-1 F2400
G1 Z1.8 F720
;AFTER_LAYER_CHANGE
;1.8
; printing object (x2)_POSPA_Large.stl id:0 copy 0
G1 X143.346 Y36.873 F4200
G1 E1 F1500
;WIDTH:0.630277
G1 F1200
G1 X174.902 Y55.098 E1.95767
G1 X193.134 Y86.666 E1.95846
G1 X193.168 Y86.735 E.00409
G1 X193.173 Y86.811 E.00409
G1 X193.168 Y123.265 E1.95846
G1 X174.902 Y154.902 E1.96254
G1 X143.334 Y173.134 E1.95846
G1 X143.265 Y173.168 E.00409
G1 X143.189 Y173.173 E.00409
G1 X106.735 Y173.168 E1.95846
G1 X75.098 Y154.902 E1.96254
G1 X56.866 Y123.334 E1.95846
G1 X56.832 Y123.265 E.00409
G1 X56.827 Y123.189 E.00409
G1 X56.832 Y86.735 E1.95846
G1 X75.098 Y55.098 E1.96254
G1 X106.666 Y36.866 E1.95846
G1 X106.735 Y36.832 E.00409
G1 X106.811 Y36.827 E.00409
G1 X143.189 Y36.827 E1.95437
G1 X143.293 Y36.846 E.00566
G1 X143.653 Y36.616 F4200
; stop printing object (x2)_POSPA_Large.stl id:0 copy 0
;LAYER_CHANGE
;Z:2
;HEIGHT:0.2
;BEFORE_LAYER_CHANGE
G92 E0.0
;2


G1 E-1 F2400
G1 Z2 F720
;AFTER_LAYER_CHANGE
;2
; printing object (x2)_POSPA_Large.stl id:0 copy 0
G1 X143.312 Y36.987 F4200
G1 E1 F1500
G1 F1200
G1 X174.818 Y55.182 E1.95455
G1 X193.018 Y86.697 E1.95513
G1 X193.052 Y86.765 E.00409
G1 X193.057 Y86.842 E.00409
G1 X193.052 Y123.235 E1.95513
G1 X174.818 Y154.818 E1.95922
M73 P7 R63
M73 Q7 S63
G1 X143.303 Y173.018 E1.95513
M73 P7 R62
M73 Q7 S62
G1 X143.235 Y173.052 E.00409
G1 X143.158 Y173.057 E.00409
G1 X106.765 Y173.052 E1.95513
G1 X75.182 Y154.818 E1.95922
G1 X56.982 Y123.303 E1.95513
G1 X56.948 Y123.235 E.00409
G1 X56.943 Y123.158 E.00409
G1 X56.948 Y86.765 E1.95513
G1 X75.182 Y55.182 E1.95922
G1 X106.697 Y36.982 E1.95513
G1 X106.765 Y36.948 E.00409
G1 X106.842 Y36.943 E.00409
G1 X143.158 Y36.943 E1.95105
G1 X143.259 Y36.96 E.00546
G1 X143.619 Y36.73 F4200
; stop printing object (x2)_POSPA_Large.stl id:0 copy 0
;LAYER_CHANGE
;Z:2.2
;HEIGHT:0.2
;BEFORE_LAYER_CHANGE
G92 E0.0
;2.2


G1 E-1 F2400
G1 Z2.2 F720
;AFTER_LAYER_CHANGE
;2.2
; printing object (x2)_POSPA_Large.stl id:0 copy 0
G1 X143.279 Y37.101 F4200
G1 E1 F1500
G1 F1200
G1 X174.733 Y55.267 E1.95139
G1 X192.903 Y86.728 E1.95181
G1 X192.937 Y86.796 E.00409
G1 X192.942 Y86.872 E.00409
G1 X192.937 Y123.204 E1.95181
G1 X174.733 Y154.733 E1.95589
G1 X143.272 Y172.903 E1.95181
G1 X143.204 Y172.937 E.00409
G1 X143.128 Y172.942 E.00409
G1 X106.796 Y172.937 E1.95181
G1 X75.267 Y154.733 E1.95589
G1 X57.097 Y123.272 E1.95181
G1 X57.063 Y123.204 E.00409
G1 X57.058 Y123.128 E.00409
G1 X57.063 Y86.796 E1.95181
G1 X75.267 Y55.267 E1.95589
G1 X106.728 Y37.097 E1.95181
G1 X106.796 Y37.063 E.00409
G1 X106.872 Y37.058 E.00409
G1 X143.128 Y37.058 E1.94773
G1 X143.225 Y37.074 E.00531
G1 X143.585 Y36.844 F4200
; stop printing object (x2)_POSPA_Large.stl id:0 copy 0
;LAYER_CHANGE
;Z:2.4
;HEIGHT:0.2
;BEFORE_LAYER_CHANGE
G92 E0.0
;2.4


G1 E-1 F2400
G1 Z2.4 F720
;AFTER_LAYER_CHANGE
;2.4
; printing object (x2)_POSPA_Large.stl id:0 copy 0
G1 X143.246 Y37.215 F4200
G1 E1 F1500
;WIDTH:0.630278
G1 F1200
G1 X174.649 Y55.351 E1.9482
G1 X192.787 Y86.759 E1.94849
M73 P8 R62
M73 Q8 S62
G1 X192.821 Y86.827 E.00409
G1 X192.826 Y86.903 E.00409
G1 X192.821 Y123.173 E1.94849
G1 X174.649 Y154.649 E1.95257
G1 X143.241 Y172.787 E1.94849
G1 X143.173 Y172.821 E.00409
G1 X143.097 Y172.826 E.00409
G1 X106.827 Y172.821 E1.94849
G1 X75.351 Y154.649 E1.95257
G1 X57.213 Y123.241 E1.94849
G1 X57.179 Y123.173 E.00409
G1 X57.174 Y123.097 E.00409
G1 X57.179 Y86.827 E1.94849
G1 X75.351 Y55.351 E1.95257
G1 X106.759 Y37.213 E1.94849
G1 X106.827 Y37.179 E.00409
G1 X106.903 Y37.174 E.00409
G1 X143.097 Y37.174 E1.94441
G1 X143.192 Y37.188 E.00518
M73 P8 R61
M73 Q8 S61
G1 X143.552 Y36.958 F4200
; stop printing object (x2)_POSPA_Large.stl id:0 copy 0
;LAYER_CHANGE
;Z:2.6
;HEIGHT:0.2
;BEFORE_LAYER_CHANGE
G92 E0.0
;2.6


G1 E-1 F2400
G1 Z2.6 F720
;AFTER_LAYER_CHANGE
;2.6
; printing object (x2)_POSPA_Large.stl id:0 copy 0
G1 X143.213 Y37.33 F4200
G1 E1 F1500
G1 F1200
G1 X174.564 Y55.436 E1.94498
G1 X192.672 Y86.79 E1.94516
G1 X192.706 Y86.858 E.00409
G1 X192.711 Y86.934 E.00409
G1 X192.706 Y123.142 E1.94516
G1 X174.564 Y154.564 E1.94925
G1 X143.21 Y172.672 E1.94516
G1 X143.142 Y172.706 E.00409
G1 X143.066 Y172.711 E.00409
G1 X106.858 Y172.706 E1.94516
G1 X75.436 Y154.564 E1.94925
G1 X57.328 Y123.21 E1.94516
G1 X57.294 Y123.142 E.00409
G1 X57.289 Y123.066 E.00409
G1 X57.294 Y86.858 E1.94516
G1 X75.436 Y55.436 E1.94925
G1 X106.79 Y37.328 E1.94516
G1 X106.858 Y37.294 E.00409
M73 P9 R61
M73 Q9 S61
G1 X106.934 Y37.289 E.00409
G1 X143.066 Y37.289 E1.94108
G1 X143.159 Y37.303 E.00508
G1 X143.52 Y37.073 F4200
; stop printing object (x2)_POSPA_Large.stl id:0 copy 0
;LAYER_CHANGE
;Z:2.8
