; generated by PrusaSlicer 2.5.2+win64 on 2023-12-08 at 03:01:33 UTC


;
;
; 

; external perimeters extrusion width = 0.50mm
; perimeters extrusion width = 0.50mm
; infill extrusion width = 0.50mm
; solid infill extrusion width = 0.50mm
; top infill extrusion width = 0.50mm
; first layer extrusion width = 0.50mm

M73 P0 R103
M73 Q0 S103
M201 X1000 Y1000 Z200 E5000 ; sets maximum accelerations, mm/sec^2
M203 X200 Y200 Z12 E120 ; sets maximum feedrates, mm / sec
M204 P1250 R1250 T1250 ; sets acceleration (P, T) and retract acceleration (R), mm/sec^2
M205 X8.00 Y8.00 Z0.40 E4.50 ; sets the jerk limits, mm/sec
M205 S0 T0 ; sets the minimum extruding and travel feed rate, mm/sec
M107
;TYPE:Custom
M862.3 P "MK3S" ; printer model check
M862.1 P0.4 ; nozzle diameter check
M115 U3.12.2 ; tell printer latest fw version
G90 ; use absolute coordinates
M83 ; extruder relative mode
M104 S240 ; set extruder temp
M140 S60 ; set bed temp
M190 S60 ; wait for bed temp
M109 S240 ; wait for extruder temp
G28 W ; home all without mesh bed level
G80 ; mesh bed leveling

G1 Z0.2 F720
G1 Y-3 F1000 ; go outside print area
G92 E0
G1 X60 E9 F1000 ; intro line
G1 X100 E12.5 F1000 ; intro line

G92 E0
M221 S95

; Don't change E values below. Excessive value can damage the printer.
M907 E430 ; set extruder motor current
G21 ; set units to millimeters
G90 ; use absolute coordinates
M83 ; use relative distances for extrusion
M900 K0 ; Filament gcode
M107
;LAYER_CHANGE
;Z:0.2
;HEIGHT:0.2
;BEFORE_LAYER_CHANGE
G92 E0.0
;0.2


G1 E-1 F2400
G1 Z.2 F720
;AFTER_LAYER_CHANGE
;0.2
G1 X59.205 Y40.471 F4200
G1 E1 F1500
M204 S300
;TYPE:Skirt/Brim
;WIDTH:0.5
G1 F1200
G1 X60.471 Y39.205 E.07481
G1 X100.285 Y16.219 E1.92201
G1 X102.013 Y15.756 E.07481
G1 X147.987 Y15.756 E1.92201
G1 X149.715 Y16.219 E.07481
G1 X189.529 Y39.205 E1.92201
G1 X190.795 Y40.471 E.07481
G1 X213.781 Y80.285 E1.92201
G1 X214.244 Y82.013 E.07481
G1 X214.244 Y127.987 E1.92201
G1 X213.781 Y129.715 E.07481
G1 X190.795 Y169.529 E1.92201
G1 X189.529 Y170.795 E.07481
G1 X149.715 Y193.781 E1.92201
G1 X147.987 Y194.244 E.07481
G1 X102.013 Y194.244 E1.92201
G1 X100.285 Y193.781 E.07481
G1 X60.471 Y170.795 E1.92201
G1 X59.205 Y169.529 E.07481
G1 X36.219 Y129.715 E1.92201
G1 X35.756 Y127.987 E.07481
G1 X35.756 Y82.013 E1.92201
G1 X36.219 Y80.285 E.07481
G1 X59.175 Y40.523 E1.9195
; printing object (x2.5)_POSPA_Super_Large.stl id:0 copy 0
G1 E-1 F2400
M73 P0 R102
M73 Q0 S102
G1 X147.919 Y19.467 F4200
G1 E1 F1500
;TYPE:External perimeter
;WIDTH:0.551595
G1 F1200
G1 X187.56 Y42.349 E2.12956
G1 X187.615 Y42.385 E.00307
G1 X187.651 Y42.44 E.00307
G1 X210.533 Y82.081 E2.12956
G1 X210.533 Y127.919 E2.13262
G1 X187.651 Y167.56 E2.12956
G1 X187.615 Y167.615 E.00307
G1 X187.56 Y167.651 E.00307
G1 X147.919 Y190.533 E2.12956
G1 X102.081 Y190.533 E2.13262
G1 X62.44 Y167.651 E2.12956
G1 X62.385 Y167.615 E.00307
G1 X62.349 Y167.56 E.00307
G1 X39.467 Y127.919 E2.12956
G1 X39.467 Y82.081 E2.13262
G1 X62.349 Y42.44 E2.12956
G1 X62.385 Y42.385 E.00307
G1 X62.44 Y42.349 E.00307
G1 X102.081 Y19.467 E2.12956
G1 X147.859 Y19.463 E2.12983
M73 P1 R102
M73 Q1 S102
G1 X148.201 Y19.184 F4200
; stop printing object (x2.5)_POSPA_Super_Large.stl id:0 copy 0
;LAYER_CHANGE
;Z:0.4
;HEIGHT:0.2
;BEFORE_LAYER_CHANGE
G92 E0.0
;0.4


G1 E-1 F2400
G1 Z.4 F720
;AFTER_LAYER_CHANGE
;0.4
G1 X148.794 Y15.972 F4200
G1 E1 F1500
;TYPE:Skirt/Brim
;WIDTH:0.5
G1 F1200
G1 X149.715 Y16.219 E.03987
G1 X189.529 Y39.205 E1.92201
G1 X190.795 Y40.471 E.07481
G1 X213.781 Y80.285 E1.92201
G1 X214.244 Y82.013 E.07481
G1 X214.244 Y127.987 E1.92201
G1 X213.781 Y129.715 E.07481
G1 X190.795 Y169.529 E1.92201
G1 X189.529 Y170.795 E.07481
G1 X149.715 Y193.781 E1.92201
G1 X147.987 Y194.244 E.07481
G1 X102.013 Y194.244 E1.92201
G1 X100.285 Y193.781 E.07481
G1 X60.471 Y170.795 E1.92201
G1 X59.205 Y169.529 E.07481
G1 X36.219 Y129.715 E1.92201
G1 X35.756 Y127.987 E.07481
G1 X35.756 Y82.013 E1.92201
G1 X36.219 Y80.285 E.07481
G1 X59.205 Y40.471 E1.92201
G1 X60.471 Y39.205 E.07481
G1 X100.285 Y16.219 E1.92201
G1 X102.013 Y15.756 E.07481
G1 X147.987 Y15.756 E1.92201
G1 X148.736 Y15.956 E.03244
; printing object (x2.5)_POSPA_Super_Large.stl id:0 copy 0
G1 E-1 F2400
G1 X147.959 Y19.299 F4200
G1 X147.963 Y19.3
G1 X147.999 Y19.319
G1 X147.919 Y19.467
G1 E1 F1500
;TYPE:External perimeter
;WIDTH:0.551595
G1 F1200
G1 X187.56 Y42.349 E2.12956
G1 X187.615 Y42.385 E.00307
M73 P1 R101
M73 Q1 S101
G1 X187.651 Y42.44 E.00307
G1 X210.533 Y82.081 E2.12956
G1 X210.533 Y127.919 E2.13262
G1 X187.651 Y167.56 E2.12956
G1 X187.615 Y167.615 E.00307
G1 X187.56 Y167.651 E.00307
G1 X147.919 Y190.533 E2.12956
G1 X102.081 Y190.533 E2.13262
G1 X62.44 Y167.651 E2.12956
G1 X62.385 Y167.615 E.00307
G1 X62.349 Y167.56 E.00307
G1 X39.467 Y127.919 E2.12956
G1 X39.467 Y82.081 E2.13262
G1 X62.349 Y42.44 E2.12956
G1 X62.385 Y42.385 E.00307
G1 X62.44 Y42.349 E.00307
G1 X102.081 Y19.467 E2.12956
G1 X147.859 Y19.463 E2.12983
G1 X148.201 Y19.184 F4200
; stop printing object (x2.5)_POSPA_Super_Large.stl id:0 copy 0
;LAYER_CHANGE
;Z:0.6
;HEIGHT:0.2
;BEFORE_LAYER_CHANGE
G92 E0.0
;0.6


G1 E-1 F2400
G1 Z.6 F720
;AFTER_LAYER_CHANGE
;0.6
G1 X148.794 Y15.972 F4200
G1 E1 F1500
;TYPE:Skirt/Brim
;WIDTH:0.5
G1 F1200
G1 X149.715 Y16.219 E.03987
G1 X189.529 Y39.205 E1.92201
G1 X190.795 Y40.471 E.07481
M73 P2 R101
M73 Q2 S101
G1 X213.781 Y80.285 E1.92201
G1 X214.244 Y82.013 E.07481
G1 X214.244 Y127.987 E1.92201
G1 X213.781 Y129.715 E.07481
G1 X190.795 Y169.529 E1.92201
G1 X189.529 Y170.795 E.07481
G1 X149.715 Y193.781 E1.92201
G1 X147.987 Y194.244 E.07481
G1 X102.013 Y194.244 E1.92201
G1 X100.285 Y193.781 E.07481
G1 X60.471 Y170.795 E1.92201
G1 X59.205 Y169.529 E.07481
G1 X36.219 Y129.715 E1.92201
G1 X35.756 Y127.987 E.07481
G1 X35.756 Y82.013 E1.92201
G1 X36.219 Y80.285 E.07481
G1 X59.205 Y40.471 E1.92201
G1 X60.471 Y39.205 E.07481
G1 X100.285 Y16.219 E1.92201
G1 X102.013 Y15.756 E.07481
G1 X147.987 Y15.756 E1.92201
G1 X148.736 Y15.956 E.03244
; printing object (x2.5)_POSPA_Super_Large.stl id:0 copy 0
G1 E-1 F2400
G1 X147.959 Y19.299 F4200
G1 X147.963 Y19.3
G1 X147.999 Y19.319
G1 X147.919 Y19.467
G1 E1 F1500
;TYPE:External perimeter
;WIDTH:0.551595
G1 F1200
G1 X187.56 Y42.349 E2.12956
G1 X187.615 Y42.385 E.00307
G1 X187.651 Y42.44 E.00307
G1 X210.533 Y82.081 E2.12956
G1 X210.533 Y127.919 E2.13262
M73 P2 R100
M73 Q2 S100
G1 X187.651 Y167.56 E2.12956
G1 X187.615 Y167.615 E.00307
G1 X187.56 Y167.651 E.00307
G1 X147.919 Y190.533 E2.12956
G1 X102.081 Y190.533 E2.13262
G1 X62.44 Y167.651 E2.12956
G1 X62.385 Y167.615 E.00307
G1 X62.349 Y167.56 E.00307
G1 X39.467 Y127.919 E2.12956
G1 X39.467 Y82.081 E2.13262
G1 X62.349 Y42.44 E2.12956
G1 X62.385 Y42.385 E.00307
G1 X62.44 Y42.349 E.00307
G1 X102.081 Y19.467 E2.12956
G1 X147.859 Y19.463 E2.12983
G1 X148.201 Y19.184 F4200
; stop printing object (x2.5)_POSPA_Super_Large.stl id:0 copy 0
;LAYER_CHANGE
;Z:0.8
;HEIGHT:0.2
;BEFORE_LAYER_CHANGE
G92 E0.0
;0.8


G1 E-1 F2400
G1 Z.8 F720
;AFTER_LAYER_CHANGE
;0.8
; printing object (x2.5)_POSPA_Super_Large.stl id:0 copy 0
G1 X147.919 Y19.467 F4200
G1 E1 F1500
G1 F1200
G1 X187.56 Y42.349 E2.12956
G1 X187.615 Y42.385 E.00307
G1 X187.651 Y42.44 E.00307
G1 X210.533 Y82.081 E2.12956
G1 X210.533 Y127.919 E2.13262
G1 X187.651 Y167.56 E2.12956
G1 X187.615 Y167.615 E.00307
M73 P3 R100
M73 Q3 S100
G1 X187.56 Y167.651 E.00307
G1 X147.919 Y190.533 E2.12956
G1 X102.081 Y190.533 E2.13262
G1 X62.44 Y167.651 E2.12956
G1 X62.385 Y167.615 E.00307
G1 X62.349 Y167.56 E.00307
G1 X39.467 Y127.919 E2.12956
G1 X39.467 Y82.081 E2.13262
G1 X62.349 Y42.44 E2.12956
G1 X62.385 Y42.385 E.00307
G1 X62.44 Y42.349 E.00307
G1 X102.081 Y19.467 E2.12956
G1 X147.859 Y19.463 E2.12983
G1 X148.201 Y19.184 F4200
; stop printing object (x2.5)_POSPA_Super_Large.stl id:0 copy 0
;LAYER_CHANGE
;Z:1
;HEIGHT:0.2
;BEFORE_LAYER_CHANGE
G92 E0.0
;1


G1 E-1 F2400
G1 Z1 F720
;AFTER_LAYER_CHANGE
;1
; printing object (x2.5)_POSPA_Super_Large.stl id:0 copy 0
G1 X147.907 Y19.466 F4200
G1 E1 F1500
G1 F1200
G1 X187.56 Y42.349 E2.13005
G1 X187.615 Y42.385 E.00307
G1 X187.651 Y42.44 E.00307
G1 X210.533 Y82.081 E2.12956
G1 X210.533 Y127.919 E2.13262
G1 X187.651 Y167.56 E2.12956
G1 X187.615 Y167.615 E.00307
M73 P3 R99
M73 Q3 S99
G1 X187.56 Y167.651 E.00307
G1 X147.919 Y190.533 E2.12956
G1 X102.081 Y190.533 E2.13262
G1 X62.44 Y167.651 E2.12956
G1 X62.385 Y167.615 E.00307
G1 X62.349 Y167.56 E.00307
G1 X39.467 Y127.919 E2.12956
G1 X39.467 Y82.081 E2.13262
G1 X62.349 Y42.44 E2.12956
G1 X62.385 Y42.385 E.00307
G1 X62.44 Y42.349 E.00307
G1 X102.081 Y19.467 E2.12956
G1 X147.847 Y19.463 E2.12929
G1 X148.19 Y19.183 F4200
; stop printing object (x2.5)_POSPA_Super_Large.stl id:0 copy 0
;LAYER_CHANGE
;Z:1.2
;HEIGHT:0.2
;BEFORE_LAYER_CHANGE
G92 E0.0
;1.2


G1 E-1 F2400
G1 Z1.2 F720
;AFTER_LAYER_CHANGE
;1.2
; printing object (x2.5)_POSPA_Super_Large.stl id:0 copy 0
G1 X147.893 Y19.475 F4200
G1 E1 F1500
;WIDTH:0.571549
G1 F1200
G1 X147.977 Y19.507 E.00436
G1 X187.55 Y42.355 E2.2094
G1 X187.607 Y42.393 E.00331
G1 X187.645 Y42.45 E.00331
G1 X210.523 Y82.084 E2.21271
G1 X210.523 Y127.916 E2.21602
G1 X187.645 Y167.55 E2.21271
G1 X187.607 Y167.607 E.00331
G1 X187.55 Y167.645 E.00331
G1 X147.916 Y190.523 E2.21271
G1 X102.084 Y190.523 E2.21602
G1 X62.45 Y167.645 E2.21271
G1 X62.393 Y167.607 E.00331
M73 P4 R99
M73 Q4 S99
G1 X62.355 Y167.55 E.00331
G1 X39.477 Y127.916 E2.21271
G1 X39.477 Y82.084 E2.21602
G1 X62.355 Y42.45 E2.21271
G1 X62.393 Y42.393 E.00331
G1 X62.45 Y42.355 E.00331
G1 X102.084 Y19.477 E2.21271
G1 X147.833 Y19.472 E2.21202
G1 X147.949 Y19.405 F4200
; stop printing object (x2.5)_POSPA_Super_Large.stl id:0 copy 0
;LAYER_CHANGE
;Z:1.4
;HEIGHT:0.2
;BEFORE_LAYER_CHANGE
G92 E0.0
;1.4


G1 E-1 F2400
G1 Z1.4 F720
;AFTER_LAYER_CHANGE
;1.4
; printing object (x2.5)_POSPA_Super_Large.stl id:0 copy 0
G1 X147.871 Y19.563 F4200
G1 E1 F1500
;WIDTH:0.630284
G1 F1200
G1 X147.961 Y19.598 E.00519
G1 X187.48 Y42.414 E2.45156
G1 X187.543 Y42.457 E.00409
G1 X187.586 Y42.52 E.00409
G1 X210.436 Y82.107 E2.45564
G1 X210.436 Y127.893 E2.45973
G1 X187.586 Y167.48 E2.45564
G1 X187.543 Y167.543 E.00409
G1 X187.48 Y167.586 E.00409
G1 X147.893 Y190.436 E2.45564
G1 X102.107 Y190.436 E2.45973
G1 X62.52 Y167.586 E2.45564
M73 P4 R98
M73 Q4 S98
G1 X62.457 Y167.543 E.00409
G1 X62.414 Y167.48 E.00409
G1 X39.564 Y127.893 E2.45564
G1 X39.564 Y82.107 E2.45973
G1 X62.414 Y42.52 E2.45564
G1 X62.457 Y42.457 E.00409
G1 X62.52 Y42.414 E.00409
G1 X102.107 Y19.564 E2.45564
G1 X147.811 Y19.559 E2.45534
G1 X147.932 Y19.488 F4200
; stop printing object (x2.5)_POSPA_Super_Large.stl id:0 copy 0
;LAYER_CHANGE
;Z:1.6
;HEIGHT:0.2
;BEFORE_LAYER_CHANGE
G92 E0.0
;1.6


G1 E-1 F2400
G1 Z1.6 F720
;AFTER_LAYER_CHANGE
;1.6
; printing object (x2.5)_POSPA_Super_Large.stl id:0 copy 0
G1 X147.845 Y19.678 F4200
G1 E1 F1500
;WIDTH:0.630286
G1 F1200
G1 X187.396 Y42.499 E2.45313
G1 X187.459 Y42.541 E.00409
G1 X187.501 Y42.604 E.00409
G1 X210.321 Y82.138 E2.45233
G1 X210.321 Y127.862 E2.45641
G1 X187.501 Y167.396 E2.45233
G1 X187.459 Y167.459 E.00409
G1 X187.396 Y167.501 E.00409
G1 X147.862 Y190.321 E2.45233
G1 X102.138 Y190.321 E2.45641
G1 X62.604 Y167.501 E2.45233
G1 X62.541 Y167.459 E.00409
G1 X62.499 Y167.396 E.00409
G1 X39.679 Y127.862 E2.45233
G1 X39.679 Y82.138 E2.45641
G1 X62.499 Y42.604 E2.45233
M73 P5 R98
M73 Q5 S98
G1 X62.541 Y42.541 E.00409
G1 X62.604 Y42.499 E.00409
G1 X102.138 Y19.679 E2.45233
G1 X147.785 Y19.674 E2.4523
G1 X148.128 Y19.396 F4200
; stop printing object (x2.5)_POSPA_Super_Large.stl id:0 copy 0
;LAYER_CHANGE
;Z:1.8
;HEIGHT:0.2
;BEFORE_LAYER_CHANGE
G92 E0.0
;1.8


G1 E-1 F2400
G1 Z1.8 F720
;AFTER_LAYER_CHANGE
;1.8
; printing object (x2.5)_POSPA_Super_Large.stl id:0 copy 0
G1 X147.818 Y19.794 F4200
G1 E1 F1500
G1 F1200
G1 X187.311 Y42.583 E2.44959
G1 X187.374 Y42.626 E.00409
G1 X187.417 Y42.689 E.00409
G1 X210.205 Y82.169 E2.449
G1 X210.205 Y127.831 E2.45309
G1 X187.417 Y167.311 E2.449
G1 X187.374 Y167.374 E.00409
G1 X187.311 Y167.417 E.00409
G1 X147.831 Y190.205 E2.449
G1 X102.169 Y190.205 E2.45309
G1 X62.689 Y167.417 E2.449
G1 X62.626 Y167.374 E.00409
G1 X62.583 Y167.311 E.00409
G1 X39.795 Y127.831 E2.449
G1 X39.795 Y82.169 E2.45309
M73 P5 R97
M73 Q5 S97
G1 X62.583 Y42.689 E2.449
G1 X62.626 Y42.626 E.00409
G1 X62.689 Y42.583 E.00409
G1 X102.169 Y19.795 E2.449
G1 X147.759 Y19.79 E2.44922
G1 X148.101 Y19.511 F4200
; stop printing object (x2.5)_POSPA_Super_Large.stl id:0 copy 0
;LAYER_CHANGE
;Z:2
;HEIGHT:0.2
;BEFORE_LAYER_CHANGE
G92 E0.0
;2


G1 E-1 F2400
G1 Z2 F720
;AFTER_LAYER_CHANGE
;2
; printing object (x2.5)_POSPA_Super_Large.stl id:0 copy 0
G1 X147.791 Y19.91 F4200
G1 E1 F1500
G1 F1200
G1 X187.227 Y42.668 E2.44608
G1 X187.29 Y42.71 E.00409
G1 X187.332 Y42.773 E.00409
G1 X210.09 Y82.2 E2.44568
G1 X210.09 Y127.8 E2.44976
G1 X187.332 Y167.227 E2.44568
G1 X187.29 Y167.29 E.00409
G1 X187.227 Y167.332 E.00409
G1 X147.8 Y190.09 E2.44568
G1 X102.2 Y190.09 E2.44976
G1 X62.773 Y167.332 E2.44568
G1 X62.71 Y167.29 E.00409
G1 X62.668 Y167.227 E.00409
G1 X39.91 Y127.8 E2.44568
G1 X39.91 Y82.2 E2.44976
G1 X62.668 Y42.773 E2.44568
G1 X62.71 Y42.71 E.00409
G1 X62.773 Y42.668 E.00409
G1 X102.2 Y19.91 E2.44568
G1 X147.732 Y19.906 E2.4461
G1 X148.074 Y19.627 F4200
; stop printing object (x2.5)_POSPA_Super_Large.stl id:0 copy 0
;LAYER_CHANGE
;Z:2.2
;HEIGHT:0.2
;BEFORE_LAYER_CHANGE
G92 E0.0
;2.2


M73 P6 R97
M73 Q6 S97
G1 E-1 F2400
G1 Z2.2 F720
;AFTER_LAYER_CHANGE
;2.2
; printing object (x2.5)_POSPA_Super_Large.stl id:0 copy 0
G1 X147.764 Y20.026 F4200
G1 E1 F1500
G1 F1200
G1 X187.142 Y42.752 E2.4426
G1 X187.205 Y42.795 E.00409
G1 X187.248 Y42.858 E.00409
G1 X209.974 Y82.231 E2.44236
G1 X209.974 Y127.769 E2.44644
G1 X187.248 Y167.142 E2.44236
G1 X187.205 Y167.205 E.00409
G1 X187.142 Y167.248 E.00409
G1 X147.769 Y189.974 E2.44236
G1 X102.231 Y189.974 E2.44644
G1 X62.858 Y167.248 E2.44236
G1 X62.795 Y167.205 E.00409
G1 X62.752 Y167.142 E.00409
G1 X40.026 Y127.769 E2.44236
G1 X40.026 Y82.231 E2.44644
G1 X62.752 Y42.858 E2.44236
G1 X62.795 Y42.795 E.00409
M73 P6 R96
M73 Q6 S96
G1 X62.858 Y42.752 E.00409
G1 X102.231 Y20.026 E2.44236
G1 X147.704 Y20.022 E2.44295
G1 X148.047 Y19.743 F4200
; stop printing object (x2.5)_POSPA_Super_Large.stl id:0 copy 0
;LAYER_CHANGE
;Z:2.4
;HEIGHT:0.2
;BEFORE_LAYER_CHANGE
G92 E0.0
;2.4


G1 E-1 F2400
G1 Z2.4 F720
;AFTER_LAYER_CHANGE
;2.4
; printing object (x2.5)_POSPA_Super_Large.stl id:0 copy 0
G1 X147.736 Y20.141 F4200
G1 E1 F1500
G1 F1200
G1 X187.058 Y42.837 E2.43914
G1 X187.121 Y42.879 E.00409
G1 X187.163 Y42.942 E.00409
G1 X209.859 Y82.262 E2.43903
G1 X209.859 Y127.738 E2.44311
G1 X187.163 Y167.058 E2.43903
G1 X187.121 Y167.121 E.00409
G1 X187.058 Y167.163 E.00409
G1 X147.738 Y189.859 E2.43903
G1 X102.262 Y189.859 E2.44311
G1 X62.942 Y167.163 E2.43903
G1 X62.879 Y167.121 E.00409
G1 X62.837 Y167.058 E.00409
G1 X40.141 Y127.738 E2.43903
G1 X40.141 Y82.262 E2.44311
G1 X62.837 Y42.942 E2.43903
G1 X62.879 Y42.879 E.00409
G1 X62.942 Y42.837 E.00409
G1 X102.262 Y20.141 E2.43903
G1 X147.676 Y20.137 E2.43978
G1 X148.018 Y19.858 F4200
; stop printing object (x2.5)_POSPA_Super_Large.stl id:0 copy 0
;LAYER_CHANGE
;Z:2.6
;HEIGHT:0.2
;BEFORE_LAYER_CHANGE
G92 E0.0
;2.6


G1 E-1 F2400
G1 Z2.6 F720
;AFTER_LAYER_CHANGE
;2.6
; printing object (x2.5)_POSPA_Super_Large.stl id:0 copy 0
G1 X147.707 Y20.257 F4200
G1 E1 F1500
;WIDTH:0.630284
G1 F1200
G1 X186.973 Y42.921 E2.4357
G1 X187.036 Y42.964 E.00409
G1 X187.079 Y43.027 E.00409
G1 X209.743 Y82.293 E2.4357
G1 X209.743 Y127.707 E2.43978
G1 X187.079 Y166.973 E2.4357
M73 P7 R96
M73 Q7 S96
G1 X187.036 Y167.036 E.00409
G1 X186.973 Y167.079 E.00409
G1 X147.707 Y189.743 E2.4357
G1 X102.293 Y189.743 E2.43978
G1 X63.027 Y167.079 E2.4357
G1 X62.964 Y167.036 E.00409
G1 X62.921 Y166.973 E.00409
G1 X40.257 Y127.707 E2.4357
G1 X40.257 Y82.293 E2.43978
G1 X62.921 Y43.027 E2.4357
G1 X62.964 Y42.964 E.00409
G1 X63.027 Y42.921 E.00409
G1 X102.293 Y20.257 E2.4357
G1 X147.647 Y20.253 E2.43656
G1 X147.99 Y19.974 F4200
; stop printing object (x2.5)_POSPA_Super_Large.stl id:0 copy 0
;LAYER_CHANGE
;Z:2.8
;HEIGHT:0.2
