; generated by PrusaSlicer 2.5.2+win64 on 2023-07-24 at 03:55:46 UTC


;
;
; 

; external perimeters extrusion width = 0.60mm
; perimeters extrusion width = 0.60mm
; infill extrusion width = 0.60mm
; solid infill extrusion width = 0.60mm
; top infill extrusion width = 0.60mm
; first layer extrusion width = 0.60mm

M73 P0 R16
M73 Q0 S16
M201 X1000 Y1000 Z200 E5000 ; sets maximum accelerations, mm/sec^2
M203 X200 Y200 Z12 E120 ; sets maximum feedrates, mm / sec
M204 P1250 R1250 T1250 ; sets acceleration (P, T) and retract acceleration (R), mm/sec^2
M205 X8.00 Y8.00 Z0.40 E4.50 ; sets the jerk limits, mm/sec
M205 S0 T0 ; sets the minimum extruding and travel feed rate, mm/sec
M107
;TYPE:Custom
M862.3 P "MK3S" ; printer model check
M862.1 P0.4 ; nozzle diameter check
M115 U3.12.2 ; tell printer latest fw version
G90 ; use absolute coordinates
M83 ; extruder relative mode
M104 S240 ; set extruder temp
M140 S50 ; set bed temp
M190 S50 ; wait for bed temp
M109 S240 ; wait for extruder temp
G28 W ; home all without mesh bed level
G80 ; mesh bed leveling

G1 Z0.2 F720
G1 Y-3 F1000 ; go outside print area
G92 E0
G1 X60 E9 F1000 ; intro line
G1 X100 E12.5 F1000 ; intro line

G92 E0
M221 S95

; Don't change E values below. Excessive value can damage the printer.
M907 E430 ; set extruder motor current
G21 ; set units to millimeters
G90 ; use absolute coordinates
M83 ; use relative distances for extrusion
M900 K0 ; Filament gcode
M107
;LAYER_CHANGE
;Z:0.2
;HEIGHT:0.2
;BEFORE_LAYER_CHANGE
G92 E0.0
;0.2


G1 E-1 F2400
G1 Z.2 F720
;AFTER_LAYER_CHANGE
;0.2
G1 X105.589 Y95.486 F4200
G1 E1 F1500
M204 S300
;TYPE:Skirt/Brim
;WIDTH:0.6
G1 F1200
G1 X115.486 Y85.589 E.7132
G1 X116.916 Y84.717 E.08535
G1 X118.001 Y84.547 E.05597
G1 X131.999 Y84.547 E.7132
G1 X133.626 Y84.941 E.08535
G1 X134.514 Y85.589 E.05597
G1 X144.411 Y95.486 E.7132
G1 X145.283 Y96.916 E.08535
M73 P1 R16
M73 Q1 S16
G1 X145.453 Y98.001 E.05597
G1 X145.453 Y111.999 E.7132
G1 X145.059 Y113.626 E.08535
G1 X144.411 Y114.514 E.05597
G1 X134.514 Y124.411 E.7132
G1 X133.084 Y125.283 E.08535
G1 X131.999 Y125.453 E.05597
G1 X118.001 Y125.453 E.7132
G1 X116.374 Y125.059 E.08535
G1 X115.486 Y124.411 E.05597
G1 X105.589 Y114.514 E.7132
G1 X104.717 Y113.084 E.08535
G1 X104.547 Y111.999 E.05597
G1 X104.547 Y98.001 E.7132
G1 X104.941 Y96.374 E.08535
G1 X105.553 Y95.535 E.05291
; printing object OV-PAM_tendon_1F.stl id:0 copy 0
G1 E-1 F2400
G1 X118.178 Y121.589 F4200
G1 E1 F1500
;TYPE:External perimeter
;WIDTH:0.666658
G1 F1200
G1 X118.131 Y121.584 E.00274
G1 X118.038 Y121.508 E.00684
G1 X108.416 Y111.869 E.77699
G1 X108.416 Y98.131 E.7838
G1 X118.131 Y88.416 E.7838
G1 X131.869 Y88.416 E.7838
G1 X141.584 Y98.131 E.7838
G1 X141.584 Y111.869 E.7838
M73 P1 R15
M73 Q1 S15
G1 X131.869 Y121.584 E.7838
G1 X118.238 Y121.595 E.77766
M73 P2 R15
M73 Q2 S15
G1 X118.157 Y121.632 F4200
; stop printing object OV-PAM_tendon_1F.stl id:0 copy 0
;LAYER_CHANGE
;Z:0.4
;HEIGHT:0.2
;BEFORE_LAYER_CHANGE
G92 E0.0
;0.4


G1 E-1 F2400
G1 Z.4 F720
;AFTER_LAYER_CHANGE
;0.4
G1 X117.342 Y125.293 F4200
G1 E1 F1500
;TYPE:Skirt/Brim
;WIDTH:0.6
G1 F1346.307
G1 X116.374 Y125.059 E.05078
G1 X115.486 Y124.411 E.05597
G1 X105.589 Y114.514 E.7132
G1 X104.717 Y113.084 E.08535
G1 X104.547 Y111.999 E.05597
G1 X104.547 Y98.001 E.7132
G1 X104.941 Y96.374 E.08535
G1 X105.589 Y95.486 E.05597
G1 X115.486 Y85.589 E.7132
G1 X116.916 Y84.717 E.08535
G1 X118.001 Y84.547 E.05597
G1 X131.999 Y84.547 E.7132
G1 X133.626 Y84.941 E.08535
G1 X134.514 Y85.589 E.05597
G1 X144.411 Y95.486 E.7132
G1 X145.283 Y96.916 E.08535
G1 X145.453 Y98.001 E.05597
G1 X145.453 Y111.999 E.7132
G1 X145.059 Y113.626 E.08535
G1 X144.411 Y114.514 E.05597
G1 X134.514 Y124.411 E.7132
G1 X133.084 Y125.283 E.08535
G1 X131.999 Y125.453 E.05597
G1 X118.001 Y125.453 E.7132
G1 X117.401 Y125.307 E.03151
; printing object OV-PAM_tendon_1F.stl id:0 copy 0
G1 E-1 F2400
G1 X118.152 Y121.789 F4200
G1 X118.185 Y121.791
G1 X118.196 Y121.591
G1 E1 F1500
;TYPE:External perimeter
;WIDTH:0.666658
G1 F1200
G1 X118.131 Y121.584 E.00377
G1 X118.038 Y121.508 E.00684
G1 X108.416 Y111.869 E.77699
G1 X108.416 Y98.131 E.7838
G1 X118.131 Y88.416 E.7838
G1 X131.869 Y88.416 E.7838
M73 P3 R15
M73 Q3 S15
G1 X141.584 Y98.131 E.7838
G1 X141.584 Y111.869 E.7838
G1 X131.869 Y121.584 E.7838
G1 X118.256 Y121.596 E.77664
G1 X118.167 Y121.65 F4200
; stop printing object OV-PAM_tendon_1F.stl id:0 copy 0
;LAYER_CHANGE
;Z:0.6
;HEIGHT:0.2
;BEFORE_LAYER_CHANGE
G92 E0.0
;0.6


G1 E-1 F2400
G1 Z.6 F720
;AFTER_LAYER_CHANGE
;0.6
G1 X117.359 Y125.297 F4200
G1 E1 F1500
;TYPE:Skirt/Brim
;WIDTH:0.6
G1 F1346.307
G1 X116.374 Y125.059 E.05169
G1 X115.486 Y124.411 E.05597
G1 X105.589 Y114.514 E.7132
G1 X104.717 Y113.084 E.08535
G1 X104.547 Y111.999 E.05597
G1 X104.547 Y98.001 E.7132
G1 X104.941 Y96.374 E.08535
G1 X105.589 Y95.486 E.05597
G1 X115.486 Y85.589 E.7132
G1 X116.916 Y84.717 E.08535
G1 X118.001 Y84.547 E.05597
G1 X131.999 Y84.547 E.7132
G1 X133.626 Y84.941 E.08535
G1 X134.514 Y85.589 E.05597
G1 X144.411 Y95.486 E.7132
G1 X145.283 Y96.916 E.08535
G1 X145.453 Y98.001 E.05597
G1 X145.453 Y111.999 E.7132
G1 X145.059 Y113.626 E.08535
G1 X144.411 Y114.514 E.05597
G1 X134.514 Y124.411 E.7132
G1 X133.084 Y125.283 E.08535
G1 X131.999 Y125.453 E.05597
G1 X118.001 Y125.453 E.7132
G1 X117.418 Y125.312 E.0306
; printing object OV-PAM_tendon_1F.stl id:0 copy 0
M73 P4 R15
M73 Q4 S15
G1 E-1 F2400
G1 X118.172 Y121.79 F4200
G1 X118.205 Y121.792
G1 X118.217 Y121.593
G1 E1 F1500
;TYPE:External perimeter
;WIDTH:0.666658
G1 F1200
G1 X118.131 Y121.584 E.00495
G1 X118.038 Y121.508 E.00684
G1 X108.416 Y111.869 E.77699
G1 X108.416 Y98.131 E.7838
G1 X118.131 Y88.416 E.7838
G1 X131.869 Y88.416 E.7838
G1 X141.584 Y98.131 E.7838
G1 X141.584 Y111.869 E.7838
G1 X131.869 Y121.584 E.7838
G1 X118.277 Y121.596 E.77546
G1 X118.179 Y121.67 F4200
; stop printing object OV-PAM_tendon_1F.stl id:0 copy 0
;LAYER_CHANGE
;Z:0.8
;HEIGHT:0.2
;BEFORE_LAYER_CHANGE
G92 E0.0
;0.8


G1 E-1 F2400
G1 Z.8 F720
;AFTER_LAYER_CHANGE
;0.8
; printing object OV-PAM_tendon_1F.stl id:0 copy 0
G1 X118.24 Y121.595 F4200
G1 E1 F1500
G1 F1200
G1 X118.131 Y121.584 E.00628
G1 X118.038 Y121.508 E.00684
G1 X108.416 Y111.869 E.77699
G1 X108.416 Y98.131 E.7838
G1 X118.131 Y88.416 E.7838
G1 X131.869 Y88.416 E.7838
G1 X141.584 Y98.131 E.7838
G1 X141.584 Y111.869 E.7838
M73 P5 R15
M73 Q5 S15
G1 X131.869 Y121.584 E.7838
G1 X118.3 Y121.596 E.77413
G1 X118.191 Y121.694 F4200
; stop printing object OV-PAM_tendon_1F.stl id:0 copy 0
;LAYER_CHANGE
;Z:1
;HEIGHT:0.2
;BEFORE_LAYER_CHANGE
G92 E0.0
;1


G1 E-1 F2400
G1 Z1 F720
;AFTER_LAYER_CHANGE
;1
; printing object OV-PAM_tendon_1F.stl id:0 copy 0
G1 X118.271 Y121.596 F4200
G1 E1 F1500
G1 F1200
G1 X118.131 Y121.584 E.00802
G1 X118.038 Y121.508 E.00684
G1 X108.416 Y111.869 E.77699
G1 X108.416 Y98.131 E.7838
G1 X118.131 Y88.416 E.7838
G1 X131.869 Y88.416 E.7838
G1 X141.584 Y98.131 E.7838
G1 X141.584 Y111.869 E.7838
G1 X131.869 Y121.584 E.7838
G1 X118.331 Y121.596 E.77239
G1 X118.21 Y121.723 F4200
; stop printing object OV-PAM_tendon_1F.stl id:0 copy 0
;LAYER_CHANGE
;Z:1.2
;HEIGHT:0.2
;BEFORE_LAYER_CHANGE
G92 E0.0
;1.2


G1 E-1 F2400
G1 Z1.2 F720
;AFTER_LAYER_CHANGE
;1.2
; printing object OV-PAM_tendon_1F.stl id:0 copy 0
G1 X118.313 Y121.578 F4200
G1 E1 F1500
;WIDTH:0.703131
G1 F1136.001
G1 X118.138 Y121.566 E.01056
G1 X118.04 Y121.485 E.00767
G1 X108.434 Y111.862 E.82109
G1 X108.422 Y111.735 E.00767
G1 X108.434 Y98.138 E.82109
G1 X108.515 Y98.04 E.00767
M73 P6 R15
M73 Q6 S15
G1 X118.138 Y88.434 E.82109
G1 X118.265 Y88.422 E.00767
G1 X131.862 Y88.434 E.82109
G1 X141.485 Y98.04 E.82109
G1 X141.566 Y98.138 E.00767
G1 X141.578 Y98.265 E.00767
G1 X141.566 Y111.862 E.82109
G1 X141.485 Y111.96 E.00767
G1 X131.862 Y121.566 E.82109
G1 X118.373 Y121.578 E.81456
G1 X118.238 Y121.737 F4200
; stop printing object OV-PAM_tendon_1F.stl id:0 copy 0
;LAYER_CHANGE
;Z:1.4
;HEIGHT:0.2
;BEFORE_LAYER_CHANGE
G92 E0.0
;1.4


G1 E-1 F2400
G1 Z1.4 F720
;AFTER_LAYER_CHANGE
;1.4
; printing object OV-PAM_tendon_1F.stl id:0 copy 0
G1 X118.375 Y121.492 F4200
G1 E1 F1500
;WIDTH:0.763151
G1 F1041.333
G1 X118.175 Y121.478 E.01325
G1 X118.067 Y121.39 E.00912
G1 X108.61 Y111.933 E.88111
G1 X108.522 Y111.825 E.00912
G1 X108.508 Y111.688 E.00912
G1 X108.508 Y98.312 E.88111
G1 X108.522 Y98.175 E.00912
G1 X108.61 Y98.067 E.00912
G1 X118.067 Y88.61 E.88111
G1 X118.175 Y88.522 E.00912
G1 X118.312 Y88.508 E.00912
G1 X131.688 Y88.508 E.88111
G1 X131.825 Y88.522 E.00912
G1 X131.933 Y88.61 E.00912
G1 X141.39 Y98.067 E.88111
G1 X141.478 Y98.175 E.00912
G1 X141.492 Y98.312 E.00912
G1 X141.492 Y111.688 E.88111
G1 X141.478 Y111.825 E.00912
G1 X141.39 Y111.933 E.00912
G1 X131.933 Y121.39 E.88111
G1 X131.825 Y121.478 E.00912
M73 P7 R15
M73 Q7 S15
G1 X131.688 Y121.492 E.00912
G1 X118.435 Y121.492 E.87302
G1 X118.267 Y121.661 F4200
; stop printing object OV-PAM_tendon_1F.stl id:0 copy 0
;LAYER_CHANGE
;Z:1.6
;HEIGHT:0.2
;BEFORE_LAYER_CHANGE
G92 E0.0
;1.6


G1 E-1 F2400
G1 Z1.6 F720
;AFTER_LAYER_CHANGE
;1.6
; printing object OV-PAM_tendon_1F.stl id:0 copy 0
G1 X118.44 Y121.376 F4200
G1 E1 F1500
;WIDTH:0.764272
G1 F1039.714
G1 X118.225 Y121.364 E.01423
G1 X118.115 Y121.275 E.00932
G1 X108.638 Y111.78 E.88511
G1 X108.624 Y111.64 E.00932
G1 X108.636 Y98.225 E.88511
G1 X108.725 Y98.115 E.00932
G1 X118.22 Y88.638 E.88511
G1 X118.36 Y88.624 E.00932
G1 X131.775 Y88.636 E.88511
G1 X131.885 Y88.725 E.00932
G1 X141.362 Y98.22 E.88511
G1 X141.376 Y98.36 E.00932
G1 X141.364 Y111.775 E.88511
G1 X141.275 Y111.885 E.00932
G1 X131.78 Y121.362 E.88511
G1 X131.64 Y121.376 E.00932
G1 X118.5 Y121.376 E.86694
G1 X118.339 Y121.186 F4200
; stop printing object OV-PAM_tendon_1F.stl id:0 copy 0
;LAYER_CHANGE
;Z:1.8
;HEIGHT:0.2
;BEFORE_LAYER_CHANGE
G92 E0.0
;1.8


G1 E-1 F2400
G1 Z1.8 F720
;AFTER_LAYER_CHANGE
;1.8
; printing object OV-PAM_tendon_1F.stl id:0 copy 0
G1 X118.525 Y121.261 F4200
G1 E1 F1500
;WIDTH:0.778833
G1 F1019.143
G1 X118.3 Y121.266 E.01509
G1 X118.163 Y121.159 E.01172
G1 X108.761 Y111.765 E.89466
G1 X108.739 Y111.592 E.01172
G1 X108.734 Y98.3 E.89466
G1 X108.841 Y98.163 E.01172
G1 X118.235 Y88.761 E.89466
G1 X118.408 Y88.739 E.01172
M73 P8 R14
M73 Q8 S14
G1 X131.7 Y88.734 E.89466
G1 X131.837 Y88.841 E.01172
G1 X141.239 Y98.235 E.89466
G1 X141.261 Y98.408 E.01172
G1 X141.266 Y111.7 E.89466
G1 X141.159 Y111.837 E.01172
G1 X131.765 Y121.239 E.89466
G1 X131.592 Y121.261 E.01172
G1 X118.585 Y121.261 E.87553
G1 X118.409 Y121.069 F4200
; stop printing object OV-PAM_tendon_1F.stl id:0 copy 0
;LAYER_CHANGE
;Z:2
;HEIGHT:0.2
;BEFORE_LAYER_CHANGE
G92 E0.0
;2


G1 E-1 F2400
G1 Z2 F720
;AFTER_LAYER_CHANGE
;2
; printing object OV-PAM_tendon_1F.stl id:0 copy 0
G1 X118.586 Y121.149 F4200
G1 E1 F1500
;WIDTH:0.73574
G1 F1082.532
G1 X118.456 Y121.163 E.00831
;WIDTH:0.808726
G1 F979.361
G1 X118.396 Y121.177 E.00432
G1 X118.211 Y121.044 E.01596
;WIDTH:0.735739
G1 F1082.534
G1 X109.068 Y111.901 E.81938
G1 X108.943 Y111.802 E.01008
;WIDTH:0.808727
G1 F979.36
G1 X108.891 Y111.769 E.00432
G1 X108.855 Y111.544 E.01596
;WIDTH:0.73574
G1 F1082.532
G1 X108.855 Y98.614 E.81938
G1 X108.837 Y98.456 E.01008
;WIDTH:0.808726
G1 F979.361
G1 X108.823 Y98.396 E.00432
G1 X108.956 Y98.211 E.01596
;WIDTH:0.735739
G1 F1082.534
G1 X118.099 Y89.068 E.81938
G1 X118.198 Y88.943 E.01008
;WIDTH:0.808727
G1 F979.36
G1 X118.231 Y88.891 E.00432
G1 X118.456 Y88.855 E.01596
;WIDTH:0.73574
G1 F1082.532
G1 X131.386 Y88.855 E.81938
G1 X131.544 Y88.837 E.01008
;WIDTH:0.808726
G1 F979.361
G1 X131.604 Y88.823 E.00432
G1 X131.789 Y88.956 E.01596
;WIDTH:0.735739
G1 F1082.534
G1 X140.932 Y98.099 E.81938
G1 X141.057 Y98.198 E.01008
;WIDTH:0.808727
G1 F979.36
G1 X141.109 Y98.231 E.00432
G1 X141.145 Y98.456 E.01596
;WIDTH:0.73574
G1 F1082.532
G1 X141.145 Y111.386 E.81938
G1 X141.163 Y111.544 E.01008
;WIDTH:0.808726
G1 F979.361
G1 X141.177 Y111.604 E.00432
;WIDTH:0.808727
G1 X141.044 Y111.789 E.01596
;WIDTH:0.735739
G1 F1082.534
G1 X131.901 Y120.932 E.81938
G1 X131.802 Y121.057 E.01008
;WIDTH:0.808727
M73 P9 R14
M73 Q9 S14
G1 F979.36
G1 X131.769 Y121.109 E.00432
G1 X131.544 Y121.145 E.01596
;WIDTH:0.73574
G1 F1082.532
G1 X118.646 Y121.145 E.81734
; stop printing object OV-PAM_tendon_1F.stl id:0 copy 0
;LAYER_CHANGE
;Z:2.2
;HEIGHT:0.2
;BEFORE_LAYER_CHANGE
G92 E0.0
;2.2


G1 E-1 F2400
G1 Z2.2 F720
;AFTER_LAYER_CHANGE
;2.2
; printing object OV-PAM_tendon_1F.stl id:0 copy 0
G1 X118.716 Y121.045 F4200
G1 E1 F1500
;WIDTH:0.775115
G1 F1024.318
G1 X118.599 Y121.069 E.008
;WIDTH:0.853126
G1 F925.69
G1 X118.503 Y121.089 E.00726
G1 X118.34 Y120.982 E.01443
;WIDTH:0.775114
G1 F1024.319
G1 X118.259 Y120.928 E.00652
G1 X109.273 Y111.943 E.85102
G1 X109.111 Y111.836 E.013
;WIDTH:0.853129
G1 F925.688
G1 X109.029 Y111.782 E.00726
G1 X108.99 Y111.592 E.01443
;WIDTH:0.775115
G1 F1024.318
G1 X108.97 Y111.496 E.00652
G1 X108.97 Y98.789 E.85102
G1 X108.931 Y98.599 E.013
;WIDTH:0.853126
G1 F925.69
G1 X108.911 Y98.503 E.00726
G1 X109.018 Y98.34 E.01443
;WIDTH:0.775114
G1 F1024.319
G1 X109.072 Y98.259 E.00652
G1 X118.057 Y89.273 E.85102
G1 X118.164 Y89.111 E.013
;WIDTH:0.853129
G1 F925.688
G1 X118.218 Y89.029 E.00726
G1 X118.408 Y88.99 E.01443
;WIDTH:0.775115
G1 F1024.318
G1 X118.504 Y88.97 E.00652
G1 X131.211 Y88.97 E.85102
G1 X131.401 Y88.931 E.013
;WIDTH:0.853126
G1 F925.69
G1 X131.497 Y88.911 E.00726
G1 X131.66 Y89.018 E.01443
;WIDTH:0.775114
G1 F1024.319
G1 X131.741 Y89.072 E.00652
G1 X140.727 Y98.057 E.85102
G1 X140.889 Y98.164 E.013
;WIDTH:0.853129
G1 F925.688
G1 X140.971 Y98.218 E.00726
G1 X141.01 Y98.408 E.01443
;WIDTH:0.775115
G1 F1024.318
G1 X141.03 Y98.504 E.00652
G1 X141.03 Y111.211 E.85102
G1 X141.069 Y111.401 E.013
;WIDTH:0.853126
G1 F925.69
G1 X141.089 Y111.497 E.00726
;WIDTH:0.853867
G1 F924.845
G1 X140.982 Y111.66 E.01444
;WIDTH:0.775114
G1 F1024.319
G1 X140.928 Y111.741 E.00652
G1 X131.943 Y120.727 E.85102
G1 X131.836 Y120.889 E.013
;WIDTH:0.853129
G1 F925.688
G1 X131.782 Y120.971 E.00726
G1 X131.592 Y121.01 E.01443
;WIDTH:0.775115
G1 F1024.318
G1 X131.496 Y121.03 E.00652
G1 X118.774 Y121.033 E.85199
G1 X118.643 Y120.951 F4200
; stop printing object OV-PAM_tendon_1F.stl id:0 copy 0
;LAYER_CHANGE
;Z:2.4
;HEIGHT:0.2
;BEFORE_LAYER_CHANGE
G92 E0.0
;2.4


G1 E-1 F2400
G1 Z2.4 F720
;AFTER_LAYER_CHANGE
;2.4
; printing object OV-PAM_tendon_1F.stl id:0 copy 0
G1 X118.578 Y120.985 F4200
G1 E1 F1500
;WIDTH:0.909094
G1 F865.877
G1 X118.552 Y120.974 E.00229
;WIDTH:0.854609
G1 F923.999
G1 X118.388 Y120.867 E.01451
;WIDTH:0.775364
G1 F1023.97
G1 X118.307 Y120.813 E.00654
G1 X109.479 Y111.985 E.83639
G1 X109.325 Y111.893 E.01197
;WIDTH:0.865755
G1 F911.484
G1 X109.172 Y111.801 E.01344
G1 X109.125 Y111.64 E.01265
;WIDTH:0.814987
G1 F971.419
G1 X109.086 Y111.448 E.0138
;WIDTH:0.73574
G1 F1082.532
G1 X109.086 Y98.964 E.79114
G1 X109.064 Y98.877 E.00566
;WIDTH:0.822417
G1 F962.159
G1 X109.021 Y98.704 E.01273
;WIDTH:0.909094
G1 F865.877
G1 X108.999 Y98.617 E.00708
G1 X109.026 Y98.552 E.00564
;WIDTH:0.854609
G1 F923.999
G1 X109.133 Y98.388 E.01451
;WIDTH:0.775364
G1 F1023.97
G1 X109.187 Y98.307 E.00654
G1 X118.015 Y89.479 E.83639
G1 X118.107 Y89.325 E.01197
;WIDTH:0.865755
G1 F911.484
G1 X118.199 Y89.172 E.01344
G1 X118.36 Y89.125 E.01265
;WIDTH:0.814987
M73 P10 R14
M73 Q10 S14
G1 F971.419
G1 X118.552 Y89.086 E.0138
;WIDTH:0.73574
G1 F1082.532
G1 X131.036 Y89.086 E.79114
G1 X131.123 Y89.064 E.00566
;WIDTH:0.822417
G1 F962.159
G1 X131.296 Y89.021 E.01273
;WIDTH:0.909094
G1 F865.877
G1 X131.383 Y88.999 E.00708
G1 X131.448 Y89.026 E.00564
;WIDTH:0.854609
G1 F923.999
G1 X131.612 Y89.133 E.01451
;WIDTH:0.775364
G1 F1023.97
G1 X131.693 Y89.187 E.00654
G1 X140.521 Y98.015 E.83639
G1 X140.675 Y98.107 E.01197
;WIDTH:0.865755
G1 F911.484
G1 X140.828 Y98.199 E.01344
G1 X140.875 Y98.36 E.01265
;WIDTH:0.814987
G1 F971.419
G1 X140.914 Y98.552 E.0138
;WIDTH:0.73574
G1 F1082.532
G1 X140.914 Y111.036 E.79114
G1 X140.936 Y111.123 E.00566
;WIDTH:0.822417
G1 F962.159
G1 X140.979 Y111.296 E.01273
;WIDTH:0.909094
G1 F865.877
G1 X141.001 Y111.383 E.00708
;WIDTH:0.909093
G1 X140.974 Y111.448 E.00564
