; generated by PrusaSlicer 2.5.2+win64 on 2023-07-24 at 08:11:23 UTC


;
;
; 

; external perimeters extrusion width = 0.60mm
; perimeters extrusion width = 0.60mm
; infill extrusion width = 0.60mm
; solid infill extrusion width = 0.60mm
; top infill extrusion width = 0.60mm
; first layer extrusion width = 0.60mm

M73 P0 R31
M73 Q0 S31
M201 X1000 Y1000 Z200 E5000 ; sets maximum accelerations, mm/sec^2
M203 X200 Y200 Z12 E120 ; sets maximum feedrates, mm / sec
M204 P1250 R1250 T1250 ; sets acceleration (P, T) and retract acceleration (R), mm/sec^2
M205 X8.00 Y8.00 Z0.40 E4.50 ; sets the jerk limits, mm/sec
M205 S0 T0 ; sets the minimum extruding and travel feed rate, mm/sec
M107
;TYPE:Custom
M862.3 P "MK3S" ; printer model check
M862.1 P0.4 ; nozzle diameter check
M115 U3.12.2 ; tell printer latest fw version
G90 ; use absolute coordinates
M83 ; extruder relative mode
M104 S240 ; set extruder temp
M140 S50 ; set bed temp
M190 S50 ; wait for bed temp
M109 S240 ; wait for extruder temp
G28 W ; home all without mesh bed level
G80 ; mesh bed leveling

G1 Z0.2 F720
G1 Y-3 F1000 ; go outside print area
G92 E0
G1 X60 E9 F1000 ; intro line
G1 X100 E12.5 F1000 ; intro line

G92 E0
M221 S95

; Don't change E values below. Excessive value can damage the printer.
M907 E430 ; set extruder motor current
G21 ; set units to millimeters
G90 ; use absolute coordinates
M83 ; use relative distances for extrusion
M900 K0 ; Filament gcode
M107
;LAYER_CHANGE
;Z:0.2
;HEIGHT:0.2
;BEFORE_LAYER_CHANGE
G92 E0.0
;0.2


G1 E-1 F2400
G1 Z.2 F720
;AFTER_LAYER_CHANGE
;0.2
G1 X89.293 Y88.736 F4200
G1 E1 F1500
M204 S300
;TYPE:Skirt/Brim
;WIDTH:0.6
G1 F1200
G1 X108.736 Y69.293 E1.40107
G1 X110.166 Y68.421 E.08535
G1 X111.251 Y68.251 E.05597
G1 X138.749 Y68.251 E1.40107
G1 X140.376 Y68.645 E.08535
G1 X141.264 Y69.293 E.05597
G1 X160.707 Y88.736 E1.40107
G1 X161.579 Y90.166 E.08535
G1 X161.749 Y91.251 E.05597
G1 X161.749 Y118.749 E1.40107
G1 X161.355 Y120.376 E.08535
G1 X160.707 Y121.264 E.05597
G1 X141.264 Y140.707 E1.40107
G1 X139.834 Y141.579 E.08535
G1 X138.749 Y141.749 E.05597
G1 X111.251 Y141.749 E1.40107
G1 X109.624 Y141.355 E.08535
G1 X108.736 Y140.707 E.05597
G1 X89.293 Y121.264 E1.40107
G1 X88.421 Y119.834 E.08535
G1 X88.251 Y118.749 E.05597
G1 X88.251 Y91.251 E1.40107
G1 X88.645 Y89.624 E.08535
M73 P1 R31
M73 Q1 S31
G1 X89.258 Y88.785 E.05291
; printing object OV-PAM_rotation_1F.stl id:0 copy 0
G1 E-1 F2400
G1 X138.629 Y72.128 F4200
G1 E1 F1500
;TYPE:External perimeter
;WIDTH:0.666659
G1 F1200
G1 X157.88 Y91.381 E1.55328
G1 X157.88 Y118.619 E1.55398
G1 X138.619 Y137.88 E1.55398
G1 X111.381 Y137.88 E1.55398
G1 X92.12 Y118.619 E1.55398
G1 X92.12 Y91.381 E1.55398
G1 X111.381 Y72.12 E1.55398
G1 X138.572 Y72.115 E1.55128
G1 X138.946 Y71.884 F4200
; stop printing object OV-PAM_rotation_1F.stl id:0 copy 0
;LAYER_CHANGE
;Z:0.4
;HEIGHT:0.2
;BEFORE_LAYER_CHANGE
G92 E0.0
;0.4


G1 E-1 F2400
G1 Z.4 F720
;AFTER_LAYER_CHANGE
;0.4
G1 X139.466 Y68.425 F4200
G1 E1 F1500
;TYPE:Skirt/Brim
;WIDTH:0.6
G1 F1346.307
G1 X140.376 Y68.645 E.04773
G1 X141.264 Y69.293 E.05597
G1 X160.707 Y88.736 E1.40107
G1 X161.579 Y90.166 E.08535
G1 X161.749 Y91.251 E.05597
G1 X161.749 Y118.749 E1.40107
G1 X161.355 Y120.376 E.08535
G1 X160.707 Y121.264 E.05597
G1 X141.264 Y140.707 E1.40107
G1 X139.834 Y141.579 E.08535
G1 X138.749 Y141.749 E.05597
G1 X111.251 Y141.749 E1.40107
G1 X109.624 Y141.355 E.08535
G1 X108.736 Y140.707 E.05597
G1 X89.293 Y121.264 E1.40107
G1 X88.421 Y119.834 E.08535
M73 P2 R31
M73 Q2 S31
G1 X88.251 Y118.749 E.05597
G1 X88.251 Y91.251 E1.40107
G1 X88.645 Y89.624 E.08535
G1 X89.293 Y88.736 E.05597
G1 X108.736 Y69.293 E1.40107
G1 X110.166 Y68.421 E.08535
G1 X111.251 Y68.251 E.05597
G1 X138.749 Y68.251 E1.40107
G1 X139.408 Y68.411 E.03456
; printing object OV-PAM_rotation_1F.stl id:0 copy 0
M73 P2 R30
M73 Q2 S30
G1 E-1 F2400
G1 X138.699 Y71.921 F4200
G1 X138.702 Y71.921
G1 X138.784 Y71.994
G1 X138.65 Y72.145
G1 E1 F1500
;TYPE:External perimeter
;WIDTH:0.666659
G1 F1200
G1 X157.88 Y91.381 E1.55173
G1 X157.88 Y118.619 E1.55398
G1 X138.619 Y137.88 E1.55398
G1 X111.381 Y137.88 E1.55398
G1 X92.12 Y118.619 E1.55398
G1 X92.12 Y91.381 E1.55398
G1 X111.381 Y72.12 E1.55398
G1 X138.599 Y72.118 E1.55283
G1 X138.967 Y71.902 F4200
; stop printing object OV-PAM_rotation_1F.stl id:0 copy 0
;LAYER_CHANGE
;Z:0.6
;HEIGHT:0.2
;BEFORE_LAYER_CHANGE
G92 E0.0
;0.6


G1 E-1 F2400
G1 Z.6 F720
;AFTER_LAYER_CHANGE
;0.6
G1 X139.492 Y68.431 F4200
G1 E1 F1500
;TYPE:Skirt/Brim
;WIDTH:0.6
G1 F1346.307
G1 X140.376 Y68.645 E.04635
G1 X141.264 Y69.293 E.05597
G1 X160.707 Y88.736 E1.40107
G1 X161.579 Y90.166 E.08535
G1 X161.749 Y91.251 E.05597
G1 X161.749 Y118.749 E1.40107
G1 X161.355 Y120.376 E.08535
M73 P3 R30
M73 Q3 S30
G1 X160.707 Y121.264 E.05597
G1 X141.264 Y140.707 E1.40107
G1 X139.834 Y141.579 E.08535
G1 X138.749 Y141.749 E.05597
G1 X111.251 Y141.749 E1.40107
G1 X109.624 Y141.355 E.08535
G1 X108.736 Y140.707 E.05597
G1 X89.293 Y121.264 E1.40107
G1 X88.421 Y119.834 E.08535
G1 X88.251 Y118.749 E.05597
G1 X88.251 Y91.251 E1.40107
G1 X88.645 Y89.624 E.08535
G1 X89.293 Y88.736 E.05597
G1 X108.736 Y69.293 E1.40107
G1 X110.166 Y68.421 E.08535
G1 X111.251 Y68.251 E.05597
G1 X138.749 Y68.251 E1.40107
G1 X139.434 Y68.417 E.03594
; printing object OV-PAM_rotation_1F.stl id:0 copy 0
G1 E-1 F2400
G1 X138.706 Y71.925 F4200
G1 X138.808 Y72.015
G1 X138.675 Y72.165
G1 E1 F1500
;TYPE:External perimeter
;WIDTH:0.666659
G1 F1200
G1 X157.88 Y91.381 E1.54993
G1 X157.88 Y118.619 E1.55398
G1 X138.619 Y137.88 E1.55398
G1 X111.381 Y137.88 E1.55398
G1 X92.12 Y118.619 E1.55398
G1 X92.12 Y91.381 E1.55398
G1 X111.381 Y72.12 E1.55398
G1 X138.5 Y72.108 E1.54717
G1 X138.628 Y72.127 E.00739
M73 P4 R30
M73 Q4 S30
G1 X139.021 Y71.965 F4200
; stop printing object OV-PAM_rotation_1F.stl id:0 copy 0
;LAYER_CHANGE
;Z:0.8
;HEIGHT:0.2
;BEFORE_LAYER_CHANGE
G92 E0.0
;0.8


G1 E-1 F2400
G1 Z.8 F720
;AFTER_LAYER_CHANGE
;0.8
; printing object OV-PAM_rotation_1F.stl id:0 copy 0
G1 X138.703 Y72.188 F4200
G1 E1 F1500
G1 F1200
G1 X157.88 Y91.381 E1.54787
G1 X157.88 Y118.619 E1.55398
G1 X138.619 Y137.88 E1.55398
G1 X111.381 Y137.88 E1.55398
G1 X92.12 Y118.619 E1.55398
G1 X92.12 Y91.381 E1.55398
G1 X111.381 Y72.12 E1.55398
G1 X138.5 Y72.108 E1.54717
G1 X138.619 Y72.12 E.00684
G1 X138.656 Y72.15 E.00272
G1 X139.071 Y72.033 F4200
; stop printing object OV-PAM_rotation_1F.stl id:0 copy 0
;LAYER_CHANGE
;Z:1
;HEIGHT:0.2
;BEFORE_LAYER_CHANGE
G92 E0.0
;1


G1 E-1 F2400
G1 Z1 F720
;AFTER_LAYER_CHANGE
;1
; printing object OV-PAM_rotation_1F.stl id:0 copy 0
G1 X138.736 Y72.22 F4200
G1 E1 F1500
G1 F1200
G1 X157.88 Y91.381 E1.54527
G1 X157.88 Y118.619 E1.55398
G1 X138.619 Y137.88 E1.55398
G1 X111.381 Y137.88 E1.55398
G1 X92.12 Y118.619 E1.55398
G1 X92.12 Y91.381 E1.55398
M73 P5 R30
M73 Q5 S30
G1 X111.381 Y72.12 E1.55398
G1 X138.5 Y72.108 E1.54717
G1 X138.619 Y72.12 E.00684
G1 X138.692 Y72.179 E.00533
G1 X139.108 Y72.073 F4200
; stop printing object OV-PAM_rotation_1F.stl id:0 copy 0
;LAYER_CHANGE
;Z:1.2
;HEIGHT:0.2
;BEFORE_LAYER_CHANGE
G92 E0.0
;1.2


G1 E-1 F2400
G1 Z1.2 F720
;AFTER_LAYER_CHANGE
;1.2
; printing object OV-PAM_rotation_1F.stl id:0 copy 0
G1 X138.752 Y72.3 F4200
G1 E1 F1500
;WIDTH:0.761443
G1 F1043.808
G1 X157.745 Y91.293 E1.76524
G1 X157.833 Y91.4 E.00908
G1 X157.846 Y91.538 E.00908
G1 X157.846 Y118.462 E1.76947
G1 X157.833 Y118.6 E.00908
M73 P5 R29
M73 Q5 S29
G1 X157.745 Y118.707 E.00908
G1 X138.707 Y137.745 E1.76948
G1 X138.6 Y137.833 E.00908
G1 X138.462 Y137.846 E.00908
G1 X111.538 Y137.846 E1.76947
G1 X111.4 Y137.833 E.00908
G1 X111.293 Y137.745 E.00908
G1 X92.255 Y118.707 E1.76948
G1 X92.167 Y118.6 E.00908
G1 X92.154 Y118.462 E.00908
G1 X92.154 Y91.538 E1.76947
G1 X92.167 Y91.4 E.00908
G1 X92.255 Y91.293 E.00908
G1 X111.293 Y72.255 E1.76948
G1 X111.4 Y72.167 E.00908
G1 X111.538 Y72.154 E.00908
G1 X138.462 Y72.154 E1.76947
G1 X138.6 Y72.167 E.00908
G1 X138.71 Y72.258 E.00937
G1 X139.125 Y72.157 F4200
; stop printing object OV-PAM_rotation_1F.stl id:0 copy 0
;LAYER_CHANGE
;Z:1.4
;HEIGHT:0.2
;BEFORE_LAYER_CHANGE
G92 E0.0
;1.4


G1 E-1 F2400
G1 Z1.4 F720
;AFTER_LAYER_CHANGE
;1.4
; printing object OV-PAM_rotation_1F.stl id:0 copy 0
G1 X138.73 Y72.45 F4200
G1 E1 F1500
;WIDTH:0.845662
G1 F934.298
G1 X157.612 Y91.332 E1.96062
G1 X157.71 Y91.451 E.01133
M73 P6 R29
M73 Q6 S29
G1 X157.725 Y91.605 E.01133
G1 X157.725 Y118.395 E1.96702
G1 X157.71 Y118.549 E.01133
G1 X157.612 Y118.668 E.01133
G1 X138.668 Y137.612 E1.96702
G1 X138.549 Y137.71 E.01133
G1 X138.395 Y137.725 E.01133
G1 X111.605 Y137.725 E1.96702
G1 X111.451 Y137.71 E.01133
G1 X111.332 Y137.612 E.01133
G1 X92.388 Y118.668 E1.96702
G1 X92.291 Y118.549 E.01133
G1 X92.275 Y118.395 E.01133
G1 X92.275 Y91.605 E1.96702
G1 X92.291 Y91.451 E.01133
G1 X92.388 Y91.332 E.01133
G1 X111.332 Y72.388 E1.96702
G1 X111.451 Y72.291 E.01133
G1 X111.605 Y72.275 E.01133
G1 X138.395 Y72.275 E1.96702
G1 X138.549 Y72.291 E.01133
G1 X138.687 Y72.407 E.01332
G1 X138.666 Y72.845 F4200
; stop printing object OV-PAM_rotation_1F.stl id:0 copy 0
;LAYER_CHANGE
;Z:1.6
;HEIGHT:0.2
;BEFORE_LAYER_CHANGE
G92 E0.0
;1.6


G1 E-1 F2400
G1 Z1.6 F720
;AFTER_LAYER_CHANGE
;1.6
; printing object OV-PAM_rotation_1F.stl id:0 copy 0
G1 X138.682 Y72.623 F4200
G1 E1 F1500
;WIDTH:0.815109
G1 F971.265
G1 X157.45 Y91.399 E1.87499
;WIDTH:0.893571
G1 F881.678
G1 X157.596 Y91.601 E.01939
;WIDTH:0.89357
G1 X157.581 Y91.672 E.00567
;WIDTH:0.81511
G1 F971.264
G1 X157.563 Y91.838 E.01181
G1 X157.563 Y118.328 E1.87094
;WIDTH:0.89357
G1 F881.679
G1 X157.524 Y118.574 E.01939
G1 X157.462 Y118.614 E.00567
;WIDTH:0.815109
G1 F971.265
G1 X157.332 Y118.719 E.01181
G1 X138.601 Y137.45 E1.87093
;WIDTH:0.89357
G1 F881.679
G1 X138.399 Y137.596 E.01939
G1 X138.328 Y137.581 E.00567
;WIDTH:0.81511
G1 F971.264
G1 X138.162 Y137.563 E.01181
G1 X111.672 Y137.563 E1.87094
;WIDTH:0.89357
G1 F881.679
M73 P7 R29
M73 Q7 S29
G1 X111.426 Y137.524 E.01939
G1 X111.386 Y137.462 E.00567
;WIDTH:0.815109
G1 F971.265
G1 X111.281 Y137.332 E.01181
G1 X92.55 Y118.601 E1.87093
;WIDTH:0.89357
G1 F881.679
G1 X92.404 Y118.399 E.01939
G1 X92.419 Y118.328 E.00567
;WIDTH:0.81511
G1 F971.264
G1 X92.437 Y118.162 E.01181
G1 X92.437 Y91.672 E1.87094
;WIDTH:0.89357
G1 F881.679
G1 X92.476 Y91.426 E.01939
G1 X92.538 Y91.386 E.00567
;WIDTH:0.815109
G1 F971.265
G1 X92.668 Y91.281 E.01181
G1 X111.399 Y72.55 E1.87093
;WIDTH:0.89357
G1 F881.679
G1 X111.601 Y72.404 E.01939
G1 X111.672 Y72.419 E.00567
;WIDTH:0.81511
G1 F971.264
G1 X111.838 Y72.437 E.01181
G1 X138.328 Y72.437 E1.87094
;WIDTH:0.89357
G1 F881.679
G1 X138.574 Y72.476 E.01939
G1 X138.614 Y72.538 E.00567
;WIDTH:0.815109
G1 F971.265
G1 X138.645 Y72.576 E.00349
; stop printing object OV-PAM_rotation_1F.stl id:0 copy 0
;LAYER_CHANGE
;Z:1.8
;HEIGHT:0.2
;BEFORE_LAYER_CHANGE
G92 E0.0
;1.8


G1 E-1 F2400
G1 Z1.8 F720
;AFTER_LAYER_CHANGE
;1.8
; printing object OV-PAM_rotation_1F.stl id:0 copy 0
G1 X138.701 Y72.666 F4200
G1 E1 F1500
;WIDTH:0.947598
G1 F829.024
G1 X138.722 Y72.726 E.00526
;WIDTH:0.859273
G1 F918.72
G1 X138.781 Y72.936 E.01633
G1 X138.881 Y73.059 E.01182
G1 X157.373 Y91.551 E1.95272
G1 X157.433 Y91.642 E.00813
;WIDTH:0.947597
G1 F829.025
G1 X157.552 Y91.824 E.01802
G1 X157.524 Y91.881 E.00526
;WIDTH:0.866568
G1 F910.583
G1 X157.417 Y92.072 E.01647
;WIDTH:0.859273
G1 F918.721
G1 X157.401 Y92.229 E.01182
G1 X157.401 Y118.381 E1.95272
G1 X157.379 Y118.488 E.00813
;WIDTH:0.947598
G1 F829.024
G1 X157.334 Y118.701 E.01802
G1 X157.274 Y118.722 E.00526
;WIDTH:0.859273
G1 F918.72
G1 X157.064 Y118.781 E.01633
G1 X156.941 Y118.881 E.01182
G1 X138.449 Y137.373 E1.95272
G1 X138.358 Y137.433 E.00813
;WIDTH:0.947597
G1 F829.025
G1 X138.176 Y137.552 E.01802
G1 X138.119 Y137.524 E.00526
;WIDTH:0.859273
G1 F918.721
G1 X137.928 Y137.417 E.01633
G1 X137.771 Y137.401 E.01182
G1 X111.619 Y137.401 E1.95272
G1 X111.512 Y137.379 E.00813
;WIDTH:0.947598
G1 F829.024
G1 X111.299 Y137.334 E.01802
G1 X111.278 Y137.274 E.00526
;WIDTH:0.859273
G1 F918.72
G1 X111.219 Y137.064 E.01633
G1 X111.119 Y136.941 E.01182
G1 X92.627 Y118.449 E1.95272
G1 X92.567 Y118.358 E.00813
;WIDTH:0.947597
G1 F829.025
G1 X92.448 Y118.176 E.01802
G1 X92.476 Y118.119 E.00526
;WIDTH:0.859273
G1 F918.721
G1 X92.583 Y117.928 E.01633
G1 X92.599 Y117.771 E.01182
G1 X92.599 Y91.619 E1.95272
G1 X92.621 Y91.512 E.00813
;WIDTH:0.947598
G1 F829.024
G1 X92.666 Y91.299 E.01802
G1 X92.726 Y91.278 E.00526
;WIDTH:0.859273
G1 F918.72
G1 X92.936 Y91.219 E.01633
G1 X93.059 Y91.119 E.01182
G1 X111.551 Y72.627 E1.95272
G1 X111.642 Y72.567 E.00813
;WIDTH:0.947597
M73 P8 R29
M73 Q8 S29
G1 F829.025
G1 X111.824 Y72.448 E.01802
G1 X111.881 Y72.476 E.00526
;WIDTH:0.859273
G1 F918.721
G1 X112.072 Y72.583 E.01633
G1 X112.229 Y72.599 E.01182
G1 X138.381 Y72.599 E1.95272
G1 X138.488 Y72.621 E.00813
;WIDTH:0.947598
G1 F829.024
G1 X138.643 Y72.653 E.01305
; stop printing object OV-PAM_rotation_1F.stl id:0 copy 0
;LAYER_CHANGE
;Z:2
;HEIGHT:0.2
;BEFORE_LAYER_CHANGE
G92 E0.0
;2


G1 E-1 F2400
G1 Z2 F720
;AFTER_LAYER_CHANGE
;2
; printing object OV-PAM_rotation_1F.stl id:0 copy 0
G1 X138.863 Y72.828 F4200
G1 E1 F1500
G1 F829.024
G1 X138.885 Y72.934 E.00901
;WIDTH:0.859273
G1 F918.721
G1 X138.945 Y73.331 E.02995
G1 X139.043 Y73.45 E.01153
G1 X157.373 Y91.78 E1.93561
G1 X157.433 Y91.871 E.00813
;WIDTH:0.947598
G1 F829.025
G1 X157.552 Y92.053 E.01802
G1 X157.492 Y92.144 E.00901
;WIDTH:0.859273
G1 F918.721
G1 X157.254 Y92.467 E.02995
G1 X157.239 Y92.621 E.01153
G1 X157.239 Y118.543 E1.93561
G1 X157.217 Y118.65 E.00813
;WIDTH:0.947598
G1 F829.024
G1 X157.172 Y118.863 E.01802
G1 X157.066 Y118.885 E.00901
;WIDTH:0.859273
G1 F918.721
G1 X156.669 Y118.945 E.02995
G1 X156.55 Y119.043 E.01153
G1 X138.22 Y137.373 E1.93561
G1 X138.129 Y137.433 E.00813
;WIDTH:0.947598
G1 F829.025
G1 X137.947 Y137.552 E.01802
G1 X137.856 Y137.492 E.00901
;WIDTH:0.859273
G1 F918.721
G1 X137.533 Y137.254 E.02995
G1 X137.379 Y137.239 E.01153
G1 X111.457 Y137.239 E1.93561
G1 X111.35 Y137.217 E.00813
;WIDTH:0.947598
G1 F829.024
G1 X111.137 Y137.172 E.01802
G1 X111.115 Y137.066 E.00901
;WIDTH:0.859273
G1 F918.721
G1 X111.055 Y136.669 E.02995
G1 X110.957 Y136.55 E.01153
G1 X92.627 Y118.22 E1.93561
G1 X92.567 Y118.129 E.00813
;WIDTH:0.947598
M73 P8 R28
M73 Q8 S28
G1 F829.025
G1 X92.448 Y117.947 E.01802
G1 X92.508 Y117.856 E.00901
;WIDTH:0.859273
G1 F918.721
G1 X92.627 Y117.674 E.01626
;WIDTH:0.859273
G1 X92.746 Y117.533 E.01374
G1 X92.761 Y117.379 E.01153
G1 X92.761 Y91.457 E1.93561
G1 X92.783 Y91.35 E.00813
;WIDTH:0.947598
G1 F829.024
G1 X92.828 Y91.137 E.01802
G1 X92.934 Y91.115 E.00901
;WIDTH:0.859273
G1 F918.721
G1 X93.331 Y91.055 E.02995
G1 X93.45 Y90.957 E.01153
G1 X111.78 Y72.627 E1.93561
G1 X111.871 Y72.567 E.00813
;WIDTH:0.947598
G1 F829.025
G1 X112.053 Y72.448 E.01802
G1 X112.144 Y72.508 E.00901
;WIDTH:0.859273
G1 F918.721
G1 X112.467 Y72.746 E.02995
G1 X112.621 Y72.761 E.01153
G1 X138.543 Y72.761 E1.93561
G1 X138.65 Y72.783 E.00813
;WIDTH:0.947598
G1 F829.024
G1 X138.805 Y72.815 E.01305
; stop printing object OV-PAM_rotation_1F.stl id:0 copy 0
;LAYER_CHANGE
;Z:2.2
;HEIGHT:0.2
;BEFORE_LAYER_CHANGE
G92 E0.0
;2.2


G1 E-1 F2400
G1 Z2.2 F720
;AFTER_LAYER_CHANGE
;2.2
; printing object OV-PAM_rotation_1F.stl id:0 copy 0
G1 X139.052 Y73.12 F4200
G1 E1 F1500
;WIDTH:0.859273
G1 F918.72
G1 X139.092 Y73.309 E.01446
G1 X139.107 Y73.722 E.03083
G1 X139.205 Y73.841 E.01153
G1 X157.373 Y92.01 E1.9185
G1 X157.433 Y92.101 E.00813
;WIDTH:0.947596
G1 F829.026
G1 X157.552 Y92.283 E.01802
G1 X157.492 Y92.374 E.00901
;WIDTH:0.859273
G1 F918.721
G1 X157.373 Y92.556 E.01626
G1 X157.092 Y92.858 E.03083
G1 X157.077 Y93.012 E.01153
G1 X157.077 Y118.705 E1.9185
G1 X157.055 Y118.812 E.00813
;WIDTH:0.947598
M73 P9 R28
M73 Q9 S28
G1 F829.024
G1 X157.01 Y119.025 E.01802
G1 X156.904 Y119.047 E.00901
;WIDTH:0.859273
G1 F918.72
G1 X156.691 Y119.092 E.01626
G1 X156.278 Y119.107 E.03083
G1 X156.159 Y119.205 E.01153
G1 X137.99 Y137.373 E1.9185
G1 X137.899 Y137.433 E.00813
;WIDTH:0.947596
G1 F829.026
G1 X137.717 Y137.552 E.01802
G1 X137.626 Y137.492 E.00901
;WIDTH:0.859273
