; generated by PrusaSlicer 2.5.2+win64 on 2023-07-21 at 06:17:38 UTC


;
;
; 

; external perimeters extrusion width = 0.60mm
; perimeters extrusion width = 0.60mm
; infill extrusion width = 0.60mm
; solid infill extrusion width = 0.60mm
; top infill extrusion width = 0.60mm
; first layer extrusion width = 0.60mm

M73 P0 R84
M73 Q0 S84
M201 X1000 Y1000 Z200 E5000 ; sets maximum accelerations, mm/sec^2
M203 X200 Y200 Z12 E120 ; sets maximum feedrates, mm / sec
M204 P1250 R1250 T1250 ; sets acceleration (P, T) and retract acceleration (R), mm/sec^2
M205 X8.00 Y8.00 Z0.40 E4.50 ; sets the jerk limits, mm/sec
M205 S0 T0 ; sets the minimum extruding and travel feed rate, mm/sec
M107
;TYPE:Custom
M862.3 P "MK3S" ; printer model check
M862.1 P0.4 ; nozzle diameter check
M115 U3.12.2 ; tell printer latest fw version
G90 ; use absolute coordinates
M83 ; extruder relative mode
M104 S240 ; set extruder temp
M140 S50 ; set bed temp
M190 S50 ; wait for bed temp
M109 S240 ; wait for extruder temp
G28 W ; home all without mesh bed level
G80 ; mesh bed leveling

G1 Z0.2 F720
G1 Y-3 F1000 ; go outside print area
G92 E0
G1 X60 E9 F1000 ; intro line
G1 X100 E12.5 F1000 ; intro line

G92 E0
M221 S95

; Don't change E values below. Excessive value can damage the printer.
M907 E430 ; set extruder motor current
G21 ; set units to millimeters
G90 ; use absolute coordinates
M83 ; use relative distances for extrusion
M900 K0 ; Filament gcode
M107
;LAYER_CHANGE
;Z:0.2
;HEIGHT:0.2
;BEFORE_LAYER_CHANGE
G92 E0.0
;0.2


G1 E-1 F2400
G1 Z.2 F720
;AFTER_LAYER_CHANGE
;0.2
G1 X65.827 Y65.827 F4200
G1 E1 F1500
M204 S300
;TYPE:Skirt/Brim
;WIDTH:0.6
G1 F1200
G1 X95.153 Y36.501 E2.11322
G1 X96.583 Y35.629 E.08535
G1 X97.669 Y35.459 E.05597
G1 X152.331 Y35.459 E2.78526
G1 X153.959 Y35.854 E.08535
G1 X154.847 Y36.501 E.05597
G1 X193.499 Y75.153 E2.78526
G1 X194.371 Y76.583 E.08535
G1 X194.541 Y77.669 E.05597
G1 X194.541 Y132.331 E2.78526
G1 X194.146 Y133.959 E.08535
G1 X193.499 Y134.847 E.05597
G1 X154.847 Y173.499 E2.78526
G1 X153.417 Y174.371 E.08535
G1 X152.331 Y174.541 E.05597
G1 X97.669 Y174.541 E2.78526
G1 X96.041 Y174.146 E.08535
G1 X95.153 Y173.499 E.05597
G1 X56.501 Y134.847 E2.78526
G1 X55.629 Y133.417 E.08535
G1 X55.459 Y132.331 E.05597
G1 X55.459 Y77.669 E2.78526
G1 X55.854 Y76.041 E.08535
G1 X56.501 Y75.153 E.05597
G1 X65.785 Y65.87 E.66898
; printing object OV-PAM_large_1F.stl id:0 copy 0
G1 E-1 F2400
G1 X97.755 Y39.503 F4200
G1 E1 F1500
;TYPE:External perimeter
;WIDTH:0.87457
G1 F901.822
G1 X97.841 Y39.432 E.00846
G1 X98 Y39.416 E.01216
G1 X152 Y39.416 E4.10763
G1 X152.159 Y39.432 E.01216
M73 P0 R83
M73 Q0 S83
G1 X152.283 Y39.533 E.01216
G1 X190.467 Y77.717 E4.10763
G1 X190.568 Y77.841 E.01216
G1 X190.584 Y78 E.01216
G1 X190.584 Y132 E4.10763
G1 X190.568 Y132.159 E.01216
G1 X190.467 Y132.283 E.01216
G1 X152.283 Y170.467 E4.10763
G1 X152.159 Y170.568 E.01216
G1 X152 Y170.584 E.01216
G1 X98 Y170.584 E4.10763
G1 X97.841 Y170.568 E.01216
G1 X97.717 Y170.467 E.01216
G1 X59.533 Y132.283 E4.10763
G1 X59.432 Y132.159 E.01216
M73 P1 R83
M73 Q1 S83
G1 X59.416 Y132 E.01216
G1 X59.416 Y78 E4.10763
G1 X59.432 Y77.841 E.01216
G1 X59.533 Y77.717 E.01216
G1 X97.709 Y39.541 E4.10677
G1 X97.733 Y39.393 F4200
; stop printing object OV-PAM_large_1F.stl id:0 copy 0
;LAYER_CHANGE
;Z:0.4
;HEIGHT:0.2
;BEFORE_LAYER_CHANGE
G92 E0.0
;0.4


G1 E-1 F2400
G1 Z.4 F720
;AFTER_LAYER_CHANGE
;0.4
G1 X97.795 Y39.627 F4200
G1 X97.796 Y39.626
G1 X95.664 Y36.189
G1 E1 F1500
;TYPE:Skirt/Brim
;WIDTH:0.6
G1 F1346.307
G1 X96.583 Y35.629 E.05484
G1 X97.669 Y35.459 E.05597
G1 X152.331 Y35.459 E2.78526
G1 X153.959 Y35.854 E.08535
G1 X154.847 Y36.501 E.05597
G1 X193.499 Y75.153 E2.78526
G1 X194.371 Y76.583 E.08535
G1 X194.541 Y77.669 E.05597
G1 X194.541 Y132.331 E2.78526
G1 X194.146 Y133.959 E.08535
G1 X193.499 Y134.847 E.05597
G1 X154.847 Y173.499 E2.78526
G1 X153.417 Y174.371 E.08535
G1 X152.331 Y174.541 E.05597
G1 X97.669 Y174.541 E2.78526
G1 X96.041 Y174.146 E.08535
G1 X95.153 Y173.499 E.05597
G1 X56.501 Y134.847 E2.78526
G1 X55.629 Y133.417 E.08535
G1 X55.459 Y132.331 E.05597
G1 X55.459 Y77.669 E2.78526
G1 X55.854 Y76.041 E.08535
G1 X56.501 Y75.153 E.05597
G1 X95.153 Y36.501 E2.78526
G1 X95.613 Y36.221 E.02745
; printing object OV-PAM_large_1F.stl id:0 copy 0
G1 E-1 F2400
G1 X97.65 Y39.326 F4200
G1 X97.614 Y39.357
G1 X97.745 Y39.511
G1 E1 F1500
;TYPE:External perimeter
;WIDTH:0.87457
G1 F901.822
G1 X97.841 Y39.432 E.00945
G1 X98 Y39.416 E.01216
G1 X152 Y39.416 E4.10763
G1 X152.159 Y39.432 E.01216
G1 X152.283 Y39.533 E.01216
G1 X190.467 Y77.717 E4.10763
G1 X190.568 Y77.841 E.01216
G1 X190.584 Y78 E.01216
G1 X190.584 Y132 E4.10763
G1 X190.568 Y132.159 E.01216
M73 P1 R82
M73 Q1 S82
G1 X190.467 Y132.283 E.01216
G1 X152.283 Y170.467 E4.10763
G1 X152.159 Y170.568 E.01216
G1 X152 Y170.584 E.01216
G1 X98 Y170.584 E4.10763
G1 X97.841 Y170.568 E.01216
G1 X97.717 Y170.467 E.01216
G1 X59.533 Y132.283 E4.10763
G1 X59.432 Y132.159 E.01216
M73 P2 R82
M73 Q2 S82
G1 X59.416 Y132 E.01216
G1 X59.416 Y78 E4.10763
G1 X59.432 Y77.841 E.01216
G1 X59.533 Y77.717 E.01216
G1 X97.7 Y39.551 E4.10578
G1 X97.721 Y39.389 F4200
; stop printing object OV-PAM_large_1F.stl id:0 copy 0
;LAYER_CHANGE
;Z:0.6
;HEIGHT:0.2
;BEFORE_LAYER_CHANGE
G92 E0.0
;0.6


G1 E-1 F2400
G1 Z.6 F720
;AFTER_LAYER_CHANGE
;0.6
G1 X97.786 Y39.636 F4200
G1 X97.788 Y39.634
G1 X95.654 Y36.196
G1 E1 F1500
;TYPE:Skirt/Brim
;WIDTH:0.6
G1 F1346.307
G1 X96.583 Y35.629 E.05549
G1 X97.669 Y35.459 E.05597
G1 X152.331 Y35.459 E2.78526
G1 X153.959 Y35.854 E.08535
G1 X154.847 Y36.501 E.05597
G1 X193.499 Y75.153 E2.78526
G1 X194.371 Y76.583 E.08535
G1 X194.541 Y77.669 E.05597
G1 X194.541 Y132.331 E2.78526
G1 X194.146 Y133.959 E.08535
G1 X193.499 Y134.847 E.05597
G1 X154.847 Y173.499 E2.78526
G1 X153.417 Y174.371 E.08535
G1 X152.331 Y174.541 E.05597
G1 X97.669 Y174.541 E2.78526
G1 X96.041 Y174.146 E.08535
G1 X95.153 Y173.499 E.05597
G1 X56.501 Y134.847 E2.78526
G1 X55.629 Y133.417 E.08535
G1 X55.459 Y132.331 E.05597
G1 X55.459 Y77.669 E2.78526
G1 X55.854 Y76.041 E.08535
G1 X56.501 Y75.153 E.05597
G1 X95.153 Y36.501 E2.78526
G1 X95.602 Y36.227 E.0268
; printing object OV-PAM_large_1F.stl id:0 copy 0
G1 E-1 F2400
G1 X97.64 Y39.335 F4200
G1 X97.602 Y39.367
G1 X97.733 Y39.52
G1 E1 F1500
;TYPE:External perimeter
;WIDTH:0.87457
G1 F901.822
G1 X97.841 Y39.432 E.01057
G1 X98 Y39.416 E.01216
G1 X152 Y39.416 E4.10763
G1 X152.159 Y39.432 E.01216
G1 X152.283 Y39.533 E.01216
G1 X190.467 Y77.717 E4.10763
G1 X190.568 Y77.841 E.01216
G1 X190.584 Y78 E.01216
G1 X190.584 Y132 E4.10763
G1 X190.568 Y132.159 E.01216
G1 X190.467 Y132.283 E.01216
G1 X152.283 Y170.467 E4.10763
G1 X152.159 Y170.568 E.01216
G1 X152 Y170.584 E.01216
G1 X98 Y170.584 E4.10763
G1 X97.841 Y170.568 E.01216
G1 X97.717 Y170.467 E.01216
G1 X59.533 Y132.283 E4.10763
G1 X59.432 Y132.159 E.01216
M73 P3 R81
M73 Q3 S81
G1 X59.416 Y132 E.01216
G1 X59.416 Y78 E4.10763
G1 X59.432 Y77.841 E.01216
G1 X59.533 Y77.717 E.01216
G1 X97.69 Y39.561 E4.10465
G1 X97.706 Y39.384 F4200
; stop printing object OV-PAM_large_1F.stl id:0 copy 0
;LAYER_CHANGE
;Z:0.8
;HEIGHT:0.2
;BEFORE_LAYER_CHANGE
G92 E0.0
;0.8


G1 E-1 F2400
G1 Z.8 F720
;AFTER_LAYER_CHANGE
;0.8
; printing object OV-PAM_large_1F.stl id:0 copy 0
G1 X97.72 Y39.531 F4200
G1 E1 F1500
G1 F901.822
G1 X97.841 Y39.432 E.01185
G1 X98 Y39.416 E.01216
G1 X152 Y39.416 E4.10763
G1 X152.159 Y39.432 E.01216
G1 X152.283 Y39.533 E.01216
G1 X190.467 Y77.717 E4.10763
G1 X190.568 Y77.841 E.01216
G1 X190.584 Y78 E.01216
G1 X190.584 Y132 E4.10763
G1 X190.568 Y132.159 E.01216
G1 X190.467 Y132.283 E.01216
G1 X152.283 Y170.467 E4.10763
G1 X152.159 Y170.568 E.01216
G1 X152 Y170.584 E.01216
G1 X98 Y170.584 E4.10763
G1 X97.841 Y170.568 E.01216
G1 X97.717 Y170.467 E.01216
G1 X59.533 Y132.283 E4.10763
G1 X59.432 Y132.159 E.01216
G1 X59.416 Y132 E.01216
G1 X59.416 Y78 E4.10763
G1 X59.432 Y77.841 E.01216
G1 X59.533 Y77.717 E.01216
G1 X97.678 Y39.573 E4.10338
G1 X97.69 Y39.378 F4200
; stop printing object OV-PAM_large_1F.stl id:0 copy 0
;LAYER_CHANGE
;Z:1
;HEIGHT:0.2
;BEFORE_LAYER_CHANGE
G92 E0.0
;1


G1 E-1 F2400
G1 Z1 F720
;AFTER_LAYER_CHANGE
;1
; printing object OV-PAM_large_1F.stl id:0 copy 0
G1 X97.703 Y39.548 F4200
G1 E1 F1500
G1 F901.822
G1 X97.841 Y39.432 E.01372
G1 X98 Y39.416 E.01216
G1 X152 Y39.416 E4.10763
G1 X152.159 Y39.432 E.01216
G1 X152.283 Y39.533 E.01216
G1 X190.467 Y77.717 E4.10763
G1 X190.568 Y77.841 E.01216
G1 X190.584 Y78 E.01216
G1 X190.584 Y132 E4.10763
G1 X190.568 Y132.159 E.01216
G1 X190.467 Y132.283 E.01216
G1 X152.283 Y170.467 E4.10763
G1 X152.159 Y170.568 E.01216
M73 P4 R81
M73 Q4 S81
G1 X152 Y170.584 E.01216
G1 X98 Y170.584 E4.10763
G1 X97.841 Y170.568 E.01216
G1 X97.717 Y170.467 E.01216
G1 X59.533 Y132.283 E4.10763
G1 X59.432 Y132.159 E.01216
G1 X59.416 Y132 E.01216
G1 X59.416 Y78 E4.10763
G1 X59.432 Y77.841 E.01216
M73 P4 R80
M73 Q4 S80
G1 X59.533 Y77.717 E.01216
G1 X97.66 Y39.59 E4.1015
G1 X97.666 Y39.371 F4200
; stop printing object OV-PAM_large_1F.stl id:0 copy 0
;LAYER_CHANGE
;Z:1.2
;HEIGHT:0.2
;BEFORE_LAYER_CHANGE
G92 E0.0
;1.2


G1 E-1 F2400
G1 Z1.2 F720
;AFTER_LAYER_CHANGE
;1.2
; printing object OV-PAM_large_1F.stl id:0 copy 0
G1 X97.691 Y39.584 F4200
G1 E1 F1500
;WIDTH:0.911043
G1 F863.933
G1 X97.848 Y39.45 E.01637
G1 X98.015 Y39.434 E.01325
G1 X151.985 Y39.434 E4.28546
G1 X152.152 Y39.45 E.01325
G1 X152.281 Y39.556 E.01325
G1 X190.444 Y77.719 E4.28546
G1 X190.55 Y77.848 E.01325
G1 X190.566 Y78.015 E.01325
G1 X190.566 Y131.985 E4.28546
G1 X190.55 Y132.152 E.01325
G1 X190.444 Y132.281 E.01325
G1 X152.281 Y170.444 E4.28546
G1 X152.152 Y170.55 E.01325
G1 X151.985 Y170.566 E.01325
G1 X98.015 Y170.566 E4.28546
G1 X97.848 Y170.55 E.01325
G1 X97.719 Y170.444 E.01325
G1 X59.556 Y132.281 E4.28546
G1 X59.45 Y132.152 E.01325
G1 X59.434 Y131.985 E.01325
G1 X59.434 Y78.015 E4.28546
G1 X59.45 Y77.848 E.01325
G1 X59.556 Y77.719 E.01325
G1 X97.649 Y39.626 E4.27757
G1 X97.649 Y39.382 F4200
; stop printing object OV-PAM_large_1F.stl id:0 copy 0
;LAYER_CHANGE
;Z:1.4
;HEIGHT:0.2
;BEFORE_LAYER_CHANGE
G92 E0.0
;1.4


G1 E-1 F2400
G1 Z1.4 F720
;AFTER_LAYER_CHANGE
;1.4
; printing object OV-PAM_large_1F.stl id:0 copy 0
G1 X97.785 Y39.754 F4200
G1 E1 F1500
;WIDTH:0.763153
G1 F1041.33
G1 X97.925 Y39.634 E.01211
G1 X98.062 Y39.62 E.00912
G1 X151.938 Y39.62 E3.54911
G1 X152.075 Y39.634 E.00912
G1 X152.183 Y39.722 E.00912
G1 X190.278 Y77.817 E3.54911
G1 X190.366 Y77.925 E.00912
M73 P5 R80
M73 Q5 S80
G1 X190.38 Y78.062 E.00912
G1 X190.38 Y131.938 E3.54911
G1 X190.366 Y132.075 E.00912
G1 X190.278 Y132.183 E.00912
G1 X152.183 Y170.278 E3.54911
G1 X152.075 Y170.366 E.00912
G1 X151.938 Y170.38 E.00912
G1 X98.062 Y170.38 E3.54911
G1 X97.925 Y170.366 E.00912
G1 X97.817 Y170.278 E.00912
G1 X59.722 Y132.183 E3.54911
G1 X59.634 Y132.075 E.00912
G1 X59.62 Y131.938 E.00912
G1 X59.62 Y78.062 E3.54911
G1 X59.634 Y77.925 E.00912
G1 X59.722 Y77.817 E.00912
G1 X97.743 Y39.796 E3.54215
G1 X97.746 Y39.574 F4200
; stop printing object OV-PAM_large_1F.stl id:0 copy 0
;LAYER_CHANGE
;Z:1.6
;HEIGHT:0.2
;BEFORE_LAYER_CHANGE
G92 E0.0
;1.6


M73 P5 R79
M73 Q5 S79
G1 E-1 F2400
G1 Z1.6 F720
;AFTER_LAYER_CHANGE
;1.6
; printing object OV-PAM_large_1F.stl id:0 copy 0
G1 X97.827 Y39.876 F4200
G1 E1 F1500
;WIDTH:0.763882
G1 F1040.277
G1 X97.971 Y39.75 E.01261
G1 X98.11 Y39.736 E.00925
G1 X151.89 Y39.736 E3.54639
G1 X152.026 Y39.749 E.00902
G1 X152.135 Y39.837 E.00925
G1 X190.163 Y77.865 E3.54639
G1 X190.25 Y77.971 E.00902
G1 X190.264 Y78.11 E.00925
G1 X190.264 Y131.89 E3.54639
G1 X190.251 Y132.026 E.00902
G1 X190.163 Y132.135 E.00925
G1 X152.135 Y170.163 E3.54639
G1 X152.029 Y170.25 E.00902
G1 X151.89 Y170.264 E.00925
G1 X98.11 Y170.264 E3.54639
G1 X97.974 Y170.251 E.00902
G1 X97.865 Y170.163 E.00925
G1 X59.837 Y132.135 E3.54639
G1 X59.75 Y132.029 E.00902
G1 X59.736 Y131.89 E.00925
G1 X59.736 Y78.11 E3.54639
G1 X59.749 Y77.974 E.00902
G1 X59.837 Y77.865 E.00925
G1 X97.784 Y39.918 E3.53884
G1 X98.009 Y39.933 F4200
; stop printing object OV-PAM_large_1F.stl id:0 copy 0
;LAYER_CHANGE
;Z:1.8
;HEIGHT:0.2
;BEFORE_LAYER_CHANGE
G92 E0.0
;1.8


G1 E-1 F2400
G1 Z1.8 F720
;AFTER_LAYER_CHANGE
;1.8
; printing object OV-PAM_large_1F.stl id:0 copy 0
G1 X97.86 Y40.006 F4200
G1 E1 F1500
;WIDTH:0.776498
G1 F1022.386
G1 X97.99 Y39.872 E.01257
G1 X98.158 Y39.851 E.01136
G1 X151.954 Y39.848 E3.60953
G1 X152.087 Y39.953 E.01136
G1 X190.128 Y77.99 E3.60953
G1 X190.149 Y78.158 E.01136
M73 P6 R79
M73 Q6 S79
G1 X190.152 Y131.954 E3.60953
G1 X190.047 Y132.087 E.01136
G1 X152.01 Y170.128 E3.60953
G1 X151.842 Y170.149 E.01136
G1 X98.046 Y170.152 E3.60953
G1 X97.913 Y170.047 E.01136
G1 X59.872 Y132.01 E3.60953
G1 X59.851 Y131.842 E.01136
G1 X59.848 Y78.046 E3.60953
G1 X59.953 Y77.913 E.01136
G1 X97.817 Y40.049 E3.59294
G1 X98.041 Y40.053 F4200
; stop printing object OV-PAM_large_1F.stl id:0 copy 0
;LAYER_CHANGE
;Z:2
;HEIGHT:0.2
;BEFORE_LAYER_CHANGE
G92 E0.0
;2


G1 E-1 F2400
G1 Z2 F720
;AFTER_LAYER_CHANGE
;2
; printing object OV-PAM_large_1F.stl id:0 copy 0
G1 X97.899 Y40.122 F4200
G1 E1 F1500
;WIDTH:0.735739
G1 F1082.534
G1 X97.951 Y40.058 E.00522
;WIDTH:0.803164
G1 F986.526
G1 X97.99 Y40 E.00484
G1 X98.206 Y39.967 E.01521
;WIDTH:0.73574
G1 F1082.532
G1 X151.656 Y39.967 E3.38706
G1 X151.794 Y39.953 E.00883
;WIDTH:0.803164
G1 F986.526
G1 X151.862 Y39.939 E.00484
G1 X152.039 Y40.068 E.01521
;WIDTH:0.735739
G1 F1082.534
G1 X189.834 Y77.863 E3.38705
G1 X189.942 Y77.951 E.00883
;WIDTH:0.803164
G1 F986.526
G1 X190 Y77.99 E.00484
G1 X190.033 Y78.206 E.01521
;WIDTH:0.73574
G1 F1082.532
G1 X190.033 Y131.656 E3.38706
G1 X190.047 Y131.794 E.00883
;WIDTH:0.803164
M73 P6 R78
M73 Q6 S78
G1 F986.526
G1 X190.061 Y131.862 E.00484
;WIDTH:0.803166
G1 X189.932 Y132.039 E.01521
;WIDTH:0.735739
G1 F1082.534
G1 X152.137 Y169.834 E3.38705
G1 X152.049 Y169.942 E.00883
;WIDTH:0.803164
G1 F986.526
G1 X152.01 Y170 E.00484
G1 X151.794 Y170.033 E.01521
;WIDTH:0.73574
G1 F1082.532
G1 X98.344 Y170.033 E3.38706
G1 X98.206 Y170.047 E.00883
;WIDTH:0.803164
G1 F986.526
G1 X98.138 Y170.061 E.00484
G1 X97.961 Y169.932 E.01521
;WIDTH:0.735739
G1 F1082.534
G1 X60.166 Y132.137 E3.38705
G1 X60.058 Y132.049 E.00883
;WIDTH:0.803164
G1 F986.526
G1 X60 Y132.01 E.00484
G1 X59.967 Y131.794 E.01521
;WIDTH:0.73574
G1 F1082.532
G1 X59.967 Y78.344 E3.38706
G1 X59.953 Y78.206 E.00883
;WIDTH:0.803164
G1 F986.526
G1 X59.939 Y78.138 E.00484
G1 X60.068 Y77.961 E.01521
;WIDTH:0.735739
G1 F1082.534
G1 X97.861 Y40.168 E3.38686
; stop printing object OV-PAM_large_1F.stl id:0 copy 0
;LAYER_CHANGE
;Z:2.2
;HEIGHT:0.2
;BEFORE_LAYER_CHANGE
G92 E0.0
;2.2


G1 E-1 F2400
G1 Z2.2 F720
;AFTER_LAYER_CHANGE
;2.2
; printing object OV-PAM_large_1F.stl id:0 copy 0
G1 X97.851 Y40.329 F4200
G1 E1 F1500
;WIDTH:0.771774
G1 F1029.013
G1 X97.899 Y40.258 E.00573
;WIDTH:0.833474
G1 F948.702
G1 X97.98 Y40.136 E.01058
G1 X98.162 Y40.1 E.01345
;WIDTH:0.771774
G1 F1029.014
G1 X98.254 Y40.082 E.0062
G1 X151.486 Y40.082 E3.54873
G1 X151.616 Y40.058 E.00883
;WIDTH:0.833476
G1 F948.699
G1 X151.76 Y40.028 E.01058
G1 X151.914 Y40.132 E.01345
;WIDTH:0.771774
G1 F1029.013
G1 X151.991 Y40.184 E.0062
G1 X189.632 Y77.825 E3.54873
G1 X189.742 Y77.899 E.00883
;WIDTH:0.833474
M73 P7 R78
M73 Q7 S78
G1 F948.702
G1 X189.864 Y77.98 E.01058
G1 X189.9 Y78.162 E.01345
;WIDTH:0.771774
G1 F1029.014
G1 X189.918 Y78.254 E.0062
G1 X189.918 Y131.486 E3.54873
G1 X189.942 Y131.616 E.00883
;WIDTH:0.833476
G1 F948.699
G1 X189.972 Y131.76 E.01058
;WIDTH:0.843842
G1 F936.421
G1 X189.868 Y131.914 E.01362
;WIDTH:0.771774
G1 F1029.013
G1 X189.816 Y131.991 E.0062
G1 X152.175 Y169.632 E3.54873
G1 X152.101 Y169.742 E.00883
;WIDTH:0.833474
G1 F948.702
G1 X152.02 Y169.864 E.01058
G1 X151.838 Y169.9 E.01345
;WIDTH:0.771774
G1 F1029.014
G1 X151.746 Y169.918 E.0062
G1 X98.514 Y169.918 E3.54873
G1 X98.384 Y169.942 E.00883
;WIDTH:0.833476
G1 F948.699
G1 X98.24 Y169.972 E.01058
G1 X98.086 Y169.868 E.01345
;WIDTH:0.771774
G1 F1029.013
G1 X98.009 Y169.816 E.0062
G1 X60.368 Y132.175 E3.54873
G1 X60.258 Y132.101 E.00883
;WIDTH:0.833474
G1 F948.702
