; generated by PrusaSlicer 2.5.2+win64 on 2023-07-18 at 06:16:08 UTC


;
;
; 

; external perimeters extrusion width = 0.60mm
; perimeters extrusion width = 0.60mm
; infill extrusion width = 0.60mm
; solid infill extrusion width = 0.60mm
; top infill extrusion width = 0.60mm
; first layer extrusion width = 0.60mm

M73 P0 R41
M73 Q0 S41
M201 X1000 Y1000 Z200 E5000 ; sets maximum accelerations, mm/sec^2
M203 X200 Y200 Z12 E120 ; sets maximum feedrates, mm / sec
M204 P1250 R1250 T1250 ; sets acceleration (P, T) and retract acceleration (R), mm/sec^2
M205 X8.00 Y8.00 Z0.40 E4.50 ; sets the jerk limits, mm/sec
M205 S0 T0 ; sets the minimum extruding and travel feed rate, mm/sec
M107
;TYPE:Custom
M862.3 P "MK3S" ; printer model check
M862.1 P0.4 ; nozzle diameter check
M115 U3.12.2 ; tell printer latest fw version
G90 ; use absolute coordinates
M83 ; extruder relative mode
M104 S240 ; set extruder temp
M140 S50 ; set bed temp
M190 S50 ; wait for bed temp
M109 S240 ; wait for extruder temp
G28 W ; home all without mesh bed level
G80 ; mesh bed leveling

G1 Z0.2 F720
G1 Y-3 F1000 ; go outside print area
G92 E0
G1 X60 E9 F1000 ; intro line
G1 X100 E12.5 F1000 ; intro line

G92 E0
M221 S95

; Don't change E values below. Excessive value can damage the printer.
M907 E430 ; set extruder motor current
G21 ; set units to millimeters
G90 ; use absolute coordinates
M83 ; use relative distances for extrusion
M900 K0 ; Filament gcode
M107
;LAYER_CHANGE
;Z:0.2
;HEIGHT:0.2
;BEFORE_LAYER_CHANGE
G92 E0.0
;0.2


G1 E-1 F2400
G1 Z.2 F720
;AFTER_LAYER_CHANGE
;0.2
G1 X79.327 Y79.327 F4200
G1 E1 F1500
M204 S300
;TYPE:Skirt/Brim
;WIDTH:0.6
G1 F1200
G1 X103.062 Y55.593 E1.71027
G1 X104.491 Y54.721 E.08535
G1 X105.577 Y54.551 E.05597
G1 X144.423 Y54.551 E1.97937
G1 X146.051 Y54.945 E.08535
G1 X146.938 Y55.593 E.05597
G1 X174.407 Y83.062 E1.97937
G1 X175.279 Y84.491 E.08535
G1 X175.449 Y85.577 E.05597
G1 X175.449 Y124.423 E1.97937
G1 X175.055 Y126.051 E.08535
G1 X174.407 Y126.938 E.05597
G1 X146.938 Y154.407 E1.97937
G1 X145.509 Y155.279 E.08535
G1 X144.423 Y155.449 E.05597
G1 X105.577 Y155.449 E1.97937
G1 X103.949 Y155.055 E.08535
G1 X103.062 Y154.407 E.05597
G1 X75.593 Y126.938 E1.97937
G1 X74.721 Y125.509 E.08535
G1 X74.551 Y124.423 E.05597
G1 X74.551 Y85.577 E1.97937
G1 X74.945 Y83.949 E.08535
G1 X75.593 Y83.062 E.05597
G1 X79.285 Y79.37 E.26603
; printing object OV-PAM_test4_1F.stl id:0 copy 0
G1 E-1 F2400
G1 X171.487 Y124.142 F4200
G1 E1 F1500
;TYPE:External perimeter
;WIDTH:0.874578
M73 P1 R41
M73 Q1 S41
G1 F901.814
G1 X171.476 Y124.251 E.00836
G1 X171.375 Y124.375 E.01216
G1 X144.375 Y151.375 E2.90456
G1 X144.251 Y151.476 E.01216
G1 X144.092 Y151.492 E.01216
G1 X105.908 Y151.492 E2.90456
G1 X105.749 Y151.476 E.01216
G1 X105.625 Y151.375 E.01216
G1 X78.625 Y124.375 E2.90456
G1 X78.524 Y124.251 E.01216
G1 X78.508 Y124.092 E.01216
G1 X78.508 Y85.908 E2.90456
G1 X78.524 Y85.749 E.01216
G1 X78.625 Y85.625 E.01216
G1 X105.625 Y58.625 E2.90456
G1 X105.749 Y58.524 E.01216
G1 X105.908 Y58.508 E.01216
G1 X144.092 Y58.508 E2.90456
G1 X144.251 Y58.524 E.01216
M73 P1 R40
M73 Q1 S40
G1 X144.375 Y58.625 E.01216
G1 X171.375 Y85.625 E2.90456
G1 X171.476 Y85.749 E.01216
G1 X171.492 Y85.908 E.01216
G1 X171.492 Y124.082 E2.90379
G1 X171.578 Y124.203 F4200
; stop printing object OV-PAM_test4_1F.stl id:0 copy 0
;LAYER_CHANGE
;Z:0.4
;HEIGHT:0.2
;BEFORE_LAYER_CHANGE
G92 E0.0
;0.4


G1 E-1 F2400
G1 Z.4 F720
;AFTER_LAYER_CHANGE
;0.4
G1 X175.308 Y125.006 F4200
G1 E1 F1500
;TYPE:Skirt/Brim
;WIDTH:0.6
G1 F1346.307
G1 X175.055 Y126.051 E.05478
G1 X174.407 Y126.938 E.05597
G1 X146.938 Y154.407 E1.97937
G1 X145.509 Y155.279 E.08535
G1 X144.423 Y155.449 E.05597
G1 X105.577 Y155.449 E1.97937
G1 X103.949 Y155.055 E.08535
M73 P2 R40
M73 Q2 S40
G1 X103.062 Y154.407 E.05597
G1 X75.593 Y126.938 E1.97937
G1 X74.721 Y125.509 E.08535
G1 X74.551 Y124.423 E.05597
G1 X74.551 Y85.577 E1.97937
G1 X74.945 Y83.949 E.08535
G1 X75.593 Y83.062 E.05597
G1 X103.062 Y55.593 E1.97937
G1 X104.491 Y54.721 E.08535
G1 X105.577 Y54.551 E.05597
G1 X144.423 Y54.551 E1.97937
G1 X146.051 Y54.945 E.08535
G1 X146.938 Y55.593 E.05597
G1 X174.407 Y83.062 E1.97937
G1 X175.279 Y84.491 E.08535
G1 X175.449 Y85.577 E.05597
G1 X175.449 Y124.423 E1.97937
G1 X175.322 Y124.948 E.02751
; printing object OV-PAM_test4_1F.stl id:0 copy 0
G1 E-1 F2400
G1 X171.688 Y124.17 F4200
G1 X171.69 Y124.142
G1 X171.489 Y124.126
G1 E1 F1500
;TYPE:External perimeter
;WIDTH:0.874578
G1 F901.814
G1 X171.476 Y124.251 E.00957
G1 X171.375 Y124.375 E.01216
G1 X144.375 Y151.375 E2.90456
G1 X144.251 Y151.476 E.01216
G1 X144.092 Y151.492 E.01216
G1 X105.908 Y151.492 E2.90456
G1 X105.749 Y151.476 E.01216
G1 X105.625 Y151.375 E.01216
G1 X78.625 Y124.375 E2.90456
G1 X78.524 Y124.251 E.01216
G1 X78.508 Y124.092 E.01216
G1 X78.508 Y85.908 E2.90456
G1 X78.524 Y85.749 E.01216
G1 X78.625 Y85.625 E.01216
G1 X105.625 Y58.625 E2.90456
G1 X105.749 Y58.524 E.01216
G1 X105.908 Y58.508 E.01216
G1 X144.092 Y58.508 E2.90456
G1 X144.251 Y58.524 E.01216
M73 P3 R40
M73 Q3 S40
G1 X144.375 Y58.625 E.01216
G1 X171.375 Y85.625 E2.90456
G1 X171.476 Y85.749 E.01216
G1 X171.492 Y85.908 E.01216
G1 X171.492 Y124.066 E2.90259
G1 X171.593 Y124.196 F4200
; stop printing object OV-PAM_test4_1F.stl id:0 copy 0
;LAYER_CHANGE
;Z:0.6
;HEIGHT:0.2
;BEFORE_LAYER_CHANGE
G92 E0.0
;0.6


G1 E-1 F2400
G1 Z.6 F720
;AFTER_LAYER_CHANGE
;0.6
G1 X175.311 Y124.991 F4200
G1 E1 F1500
;TYPE:Skirt/Brim
;WIDTH:0.6
G1 F1346.307
G1 X175.055 Y126.051 E.05557
G1 X174.407 Y126.938 E.05597
G1 X146.938 Y154.407 E1.97937
G1 X145.509 Y155.279 E.08535
G1 X144.423 Y155.449 E.05597
G1 X105.577 Y155.449 E1.97937
G1 X103.949 Y155.055 E.08535
G1 X103.062 Y154.407 E.05597
G1 X75.593 Y126.938 E1.97937
G1 X74.721 Y125.509 E.08535
G1 X74.551 Y124.423 E.05597
G1 X74.551 Y85.577 E1.97937
G1 X74.945 Y83.949 E.08535
G1 X75.593 Y83.062 E.05597
G1 X103.062 Y55.593 E1.97937
G1 X104.491 Y54.721 E.08535
G1 X105.577 Y54.551 E.05597
G1 X144.423 Y54.551 E1.97937
G1 X146.051 Y54.945 E.08535
G1 X146.938 Y55.593 E.05597
G1 X174.407 Y83.062 E1.97937
G1 X175.279 Y84.491 E.08535
G1 X175.449 Y85.577 E.05597
G1 X175.449 Y124.423 E1.97937
G1 X175.325 Y124.933 E.02673
; printing object OV-PAM_test4_1F.stl id:0 copy 0
G1 E-1 F2400
G1 X171.689 Y124.153 F4200
G1 X171.691 Y124.124
G1 X171.49 Y124.108
G1 E1 F1500
;TYPE:External perimeter
;WIDTH:0.874578
G1 F901.814
G1 X171.476 Y124.251 E.01092
G1 X171.375 Y124.375 E.01216
G1 X144.375 Y151.375 E2.90456
G1 X144.251 Y151.476 E.01216
M73 P4 R40
M73 Q4 S40
G1 X144.092 Y151.492 E.01216
G1 X105.908 Y151.492 E2.90456
G1 X105.749 Y151.476 E.01216
M73 P4 R39
M73 Q4 S39
G1 X105.625 Y151.375 E.01216
G1 X78.625 Y124.375 E2.90456
G1 X78.524 Y124.251 E.01216
G1 X78.508 Y124.092 E.01216
G1 X78.508 Y85.908 E2.90456
G1 X78.524 Y85.749 E.01216
G1 X78.625 Y85.625 E.01216
G1 X105.625 Y58.625 E2.90456
G1 X105.749 Y58.524 E.01216
G1 X105.908 Y58.508 E.01216
G1 X144.092 Y58.508 E2.90456
G1 X144.251 Y58.524 E.01216
G1 X144.375 Y58.625 E.01216
G1 X171.375 Y85.625 E2.90456
G1 X171.476 Y85.749 E.01216
G1 X171.492 Y85.908 E.01216
G1 X171.492 Y124.048 E2.90124
G1 X171.61 Y124.188 F4200
; stop printing object OV-PAM_test4_1F.stl id:0 copy 0
;LAYER_CHANGE
;Z:0.8
;HEIGHT:0.2
;BEFORE_LAYER_CHANGE
G92 E0.0
;0.8


G1 E-1 F2400
G1 Z.8 F720
;AFTER_LAYER_CHANGE
;0.8
; printing object OV-PAM_test4_1F.stl id:0 copy 0
G1 X171.492 Y124.085 F4200
G1 E1 F1500
G1 F901.814
G1 X171.476 Y124.251 E.01271
G1 X171.375 Y124.375 E.01216
G1 X144.375 Y151.375 E2.90456
G1 X144.251 Y151.476 E.01216
G1 X144.092 Y151.492 E.01216
G1 X105.908 Y151.492 E2.90456
G1 X105.749 Y151.476 E.01216
G1 X105.625 Y151.375 E.01216
G1 X78.625 Y124.375 E2.90456
G1 X78.524 Y124.251 E.01216
M73 P5 R39
M73 Q5 S39
G1 X78.508 Y124.092 E.01216
G1 X78.508 Y85.908 E2.90456
G1 X78.524 Y85.749 E.01216
G1 X78.625 Y85.625 E.01216
G1 X105.625 Y58.625 E2.90456
G1 X105.749 Y58.524 E.01216
G1 X105.908 Y58.508 E.01216
G1 X144.092 Y58.508 E2.90456
G1 X144.251 Y58.524 E.01216
G1 X144.375 Y58.625 E.01216
G1 X171.375 Y85.625 E2.90456
G1 X171.476 Y85.749 E.01216
G1 X171.492 Y85.908 E.01216
G1 X171.492 Y124.025 E2.89944
G1 X171.631 Y124.177 F4200
; stop printing object OV-PAM_test4_1F.stl id:0 copy 0
;LAYER_CHANGE
;Z:1
;HEIGHT:0.2
;BEFORE_LAYER_CHANGE
G92 E0.0
;1


G1 E-1 F2400
G1 Z1 F720
;AFTER_LAYER_CHANGE
;1
; printing object OV-PAM_test4_1F.stl id:0 copy 0
G1 X171.492 Y124.059 F4200
G1 E1 F1500
G1 F901.814
G1 X171.476 Y124.251 E.01466
G1 X171.375 Y124.375 E.01216
G1 X144.375 Y151.375 E2.90456
G1 X144.251 Y151.476 E.01216
G1 X144.092 Y151.492 E.01216
G1 X105.908 Y151.492 E2.90456
G1 X105.749 Y151.476 E.01216
G1 X105.625 Y151.375 E.01216
G1 X78.625 Y124.375 E2.90456
G1 X78.524 Y124.251 E.01216
G1 X78.508 Y124.092 E.01216
G1 X78.508 Y85.908 E2.90456
G1 X78.524 Y85.749 E.01216
G1 X78.625 Y85.625 E.01216
G1 X105.625 Y58.625 E2.90456
G1 X105.749 Y58.524 E.01216
M73 P6 R39
M73 Q6 S39
G1 X105.908 Y58.508 E.01216
G1 X144.092 Y58.508 E2.90456
G1 X144.251 Y58.524 E.01216
G1 X144.375 Y58.625 E.01216
G1 X171.375 Y85.625 E2.90456
G1 X171.476 Y85.749 E.01216
G1 X171.492 Y85.908 E.01216
G1 X171.492 Y123.999 E2.89749
G1 X171.653 Y124.164 F4200
; stop printing object OV-PAM_test4_1F.stl id:0 copy 0
;LAYER_CHANGE
;Z:1.2
;HEIGHT:0.2
;BEFORE_LAYER_CHANGE
G92 E0.0
;1.2


G1 E-1 F2400
G1 Z1.2 F720
;AFTER_LAYER_CHANGE
;1.2
; printing object OV-PAM_test4_1F.stl id:0 copy 0
G1 X171.474 Y124.023 F4200
G1 E1 F1500
;WIDTH:0.91105
G1 F863.926
G1 X171.458 Y124.243 E.01755
G1 X171.352 Y124.373 E.01325
G1 X144.373 Y151.352 E3.02963
G1 X144.243 Y151.458 E.01325
M73 P6 R38
M73 Q6 S38
G1 X144.077 Y151.474 E.01325
G1 X105.923 Y151.474 E3.02963
G1 X105.757 Y151.458 E.01325
G1 X105.627 Y151.352 E.01325
G1 X78.648 Y124.373 E3.02963
G1 X78.542 Y124.243 E.01325
G1 X78.526 Y124.077 E.01325
G1 X78.526 Y85.923 E3.02963
G1 X78.542 Y85.757 E.01325
G1 X78.648 Y85.627 E.01325
G1 X105.627 Y58.648 E3.02963
G1 X105.757 Y58.542 E.01325
G1 X105.923 Y58.526 E.01325
G1 X144.077 Y58.526 E3.02963
G1 X144.243 Y58.542 E.01325
M73 P7 R38
M73 Q7 S38
G1 X144.373 Y58.648 E.01325
G1 X171.352 Y85.627 E3.02963
G1 X171.458 Y85.757 E.01325
G1 X171.474 Y85.923 E.01325
G1 X171.474 Y123.963 E3.02055
G1 X171.66 Y124.143 F4200
; stop printing object OV-PAM_test4_1F.stl id:0 copy 0
;LAYER_CHANGE
;Z:1.4
;HEIGHT:0.2
;BEFORE_LAYER_CHANGE
G92 E0.0
;1.4


G1 E-1 F2400
G1 Z1.4 F720
;AFTER_LAYER_CHANGE
;1.4
; printing object OV-PAM_test4_1F.stl id:0 copy 0
G1 X171.288 Y123.967 F4200
G1 E1 F1500
;WIDTH:0.76316
G1 F1041.32
G1 X171.274 Y124.167 E.01325
G1 X171.186 Y124.274 E.00912
G1 X144.274 Y151.186 E2.50721
G1 X144.167 Y151.274 E.00912
G1 X144.03 Y151.288 E.00912
G1 X105.97 Y151.288 E2.50721
G1 X105.833 Y151.274 E.00912
G1 X105.726 Y151.186 E.00912
G1 X78.814 Y124.274 E2.50721
G1 X78.726 Y124.167 E.00912
G1 X78.712 Y124.03 E.00912
G1 X78.712 Y85.97 E2.50721
G1 X78.726 Y85.833 E.00912
G1 X78.814 Y85.726 E.00912
G1 X105.726 Y58.814 E2.50721
G1 X105.833 Y58.726 E.00912
G1 X105.97 Y58.712 E.00912
G1 X144.03 Y58.712 E2.50721
G1 X144.167 Y58.726 E.00912
G1 X144.274 Y58.814 E.00912
G1 X171.186 Y85.726 E2.50721
G1 X171.274 Y85.833 E.00912
G1 X171.288 Y85.97 E.00912
G1 X171.288 Y123.907 E2.49912
G1 X171.457 Y124.075 F4200
; stop printing object OV-PAM_test4_1F.stl id:0 copy 0
;LAYER_CHANGE
;Z:1.6
;HEIGHT:0.2
;BEFORE_LAYER_CHANGE
G92 E0.0
;1.6


G1 E-1 F2400
G1 Z1.6 F720
;AFTER_LAYER_CHANGE
;1.6
; printing object OV-PAM_test4_1F.stl id:0 copy 0
G1 X171.172 Y123.908 F4200
G1 E1 F1500
;WIDTH:0.764086
G1 F1039.983
G1 X171.16 Y124.118 E.01387
G1 X171.071 Y124.227 E.00929
G1 X144.122 Y151.158 E2.51309
G1 X143.982 Y151.172 E.00929
M73 P8 R38
M73 Q8 S38
G1 X105.882 Y151.16 E2.51309
G1 X105.773 Y151.071 E.00929
G1 X78.842 Y124.122 E2.51309
G1 X78.828 Y123.982 E.00929
G1 X78.84 Y85.882 E2.51309
G1 X78.929 Y85.773 E.00929
G1 X105.878 Y58.842 E2.51309
G1 X106.018 Y58.828 E.00929
G1 X144.118 Y58.84 E2.51309
G1 X144.227 Y58.929 E.00929
G1 X171.158 Y85.878 E2.51309
G1 X171.172 Y86.018 E.00929
G1 X171.172 Y123.848 E2.49529
G1 X170.986 Y124.006 F4200
; stop printing object OV-PAM_test4_1F.stl id:0 copy 0
;LAYER_CHANGE
;Z:1.8
;HEIGHT:0.2
;BEFORE_LAYER_CHANGE
G92 E0.0
;1.8


G1 E-1 F2400
G1 Z1.8 F720
;AFTER_LAYER_CHANGE
;1.8
; printing object OV-PAM_test4_1F.stl id:0 copy 0
G1 X171.057 Y123.751 F4200
G1 E1 F1500
;WIDTH:0.77771
G1 F1020.7
G1 X171.061 Y124.043 E.01966
G1 X170.955 Y124.179 E.01155
G1 X144.104 Y151.036 E2.55237
G1 X143.934 Y151.057 E.01155
G1 X105.957 Y151.061 E2.55237
G1 X105.821 Y150.955 E.01155
M73 P8 R37
M73 Q8 S37
G1 X78.964 Y124.104 E2.55237
G1 X78.943 Y123.934 E.01155
G1 X78.939 Y85.957 E2.55237
G1 X79.045 Y85.821 E.01155
M73 P9 R37
M73 Q9 S37
G1 X105.896 Y58.964 E2.55237
G1 X106.066 Y58.943 E.01155
G1 X144.043 Y58.939 E2.55237
G1 X144.179 Y59.045 E.01155
G1 X171.036 Y85.896 E2.55237
G1 X171.057 Y86.066 E.01155
G1 X171.057 Y123.691 E2.52868
G1 X170.805 Y123.9 F4200
; stop printing object OV-PAM_test4_1F.stl id:0 copy 0
;LAYER_CHANGE
;Z:2
;HEIGHT:0.2
;BEFORE_LAYER_CHANGE
G92 E0.0
;2


G1 E-1 F2400
G1 Z2 F720
;AFTER_LAYER_CHANGE
;2
; printing object OV-PAM_test4_1F.stl id:0 copy 0
G1 X170.946 Y123.781 F4200
G1 E1 F1500
;WIDTH:0.735748
G1 F1082.52
G1 X170.957 Y123.886 E.00669
;WIDTH:0.806046
G1 F982.8
G1 X170.971 Y123.95 E.00457
;WIDTH:0.806047
G1 X170.84 Y124.131 E.0156
;WIDTH:0.735746
G1 F1082.523
G1 X144.236 Y150.735 E2.38417
G1 X144.142 Y150.851 E.00948
;WIDTH:0.806045
G1 F982.801
G1 X144.107 Y150.906 E.00457
G1 X143.886 Y150.941 E.0156
;WIDTH:0.735748
G1 F1082.52
G1 X106.263 Y150.941 E2.38418
G1 X106.114 Y150.957 E.00948
;WIDTH:0.806046
G1 F982.8
G1 X106.05 Y150.971 E.00457
G1 X105.869 Y150.84 E.0156
;WIDTH:0.735746
G1 F1082.523
G1 X79.265 Y124.236 E2.38417
G1 X79.149 Y124.142 E.00948
;WIDTH:0.806045
G1 F982.801
G1 X79.094 Y124.107 E.00457
G1 X79.059 Y123.886 E.0156
;WIDTH:0.735748
G1 F1082.52
G1 X79.059 Y86.263 E2.38418
G1 X79.043 Y86.114 E.00948
;WIDTH:0.806046
G1 F982.8
G1 X79.029 Y86.05 E.00457
G1 X79.16 Y85.869 E.0156
;WIDTH:0.735746
G1 F1082.523
G1 X105.764 Y59.265 E2.38417
G1 X105.858 Y59.149 E.00948
;WIDTH:0.806045
G1 F982.801
G1 X105.893 Y59.094 E.00457
G1 X106.114 Y59.059 E.0156
;WIDTH:0.735748
G1 F1082.52
G1 X143.737 Y59.059 E2.38418
G1 X143.886 Y59.043 E.00948
;WIDTH:0.806046
G1 F982.8
G1 X143.95 Y59.029 E.00457
G1 X144.131 Y59.16 E.0156
;WIDTH:0.735746
G1 F1082.524
G1 X170.735 Y85.764 E2.38417
G1 X170.851 Y85.858 E.00948
;WIDTH:0.806045
M73 P10 R37
M73 Q10 S37
G1 F982.801
G1 X170.906 Y85.893 E.00457
G1 X170.941 Y86.114 E.0156
;WIDTH:0.735748
G1 F1082.52
G1 X170.941 Y123.721 E2.38317
; stop printing object OV-PAM_test4_1F.stl id:0 copy 0
;LAYER_CHANGE
;Z:2.2
;HEIGHT:0.2
;BEFORE_LAYER_CHANGE
G92 E0.0
;2.2


G1 E-1 F2400
G1 Z2.2 F720
;AFTER_LAYER_CHANGE
;2.2
; printing object OV-PAM_test4_1F.stl id:0 copy 0
G1 X170.829 Y123.581 F4200
G1 E1 F1500
;WIDTH:0.773512
G1 F1026.565
G1 X170.862 Y123.747 E.01128
;WIDTH:0.843572
G1 F936.736
G1 X170.882 Y123.845 E.00733
;WIDTH:0.849042
G1 F930.381
G1 X170.777 Y124.004 E.01405
;WIDTH:0.773512
G1 F1026.566
G1 X170.724 Y124.083 E.00637
G1 X144.276 Y150.531 E2.49942
G1 X144.173 Y150.685 E.01241
;WIDTH:0.843572
G1 F936.737
G1 X144.118 Y150.769 E.00733
G1 X143.932 Y150.807 E.01395
;WIDTH:0.773512
G1 F1026.565
G1 X143.838 Y150.826 E.00637
G1 X106.435 Y150.826 E2.49942
G1 X106.253 Y150.862 E.01241
;WIDTH:0.843572
G1 F936.736
G1 X106.155 Y150.882 E.00733
G1 X105.996 Y150.777 E.01395
;WIDTH:0.773512
G1 F1026.566
G1 X105.917 Y150.724 E.00637
G1 X79.469 Y124.276 E2.49942
G1 X79.315 Y124.173 E.01241
;WIDTH:0.843572
G1 F936.737
G1 X79.231 Y124.118 E.00733
G1 X79.193 Y123.932 E.01395
;WIDTH:0.773512
G1 F1026.565
G1 X79.174 Y123.838 E.00637
G1 X79.174 Y86.435 E2.49942
G1 X79.138 Y86.253 E.01241
;WIDTH:0.843572
G1 F936.736
G1 X79.118 Y86.155 E.00733
G1 X79.223 Y85.996 E.01395
;WIDTH:0.773512
G1 F1026.566
G1 X79.276 Y85.917 E.00637
G1 X105.724 Y59.469 E2.49942
G1 X105.827 Y59.315 E.01241
;WIDTH:0.843572
G1 F936.737
G1 X105.882 Y59.231 E.00733
G1 X106.068 Y59.193 E.01395
;WIDTH:0.773512
G1 F1026.565
