; generated by PrusaSlicer 2.5.2+win64 on 2023-07-17 at 06:12:31 UTC


;
;
; 

; external perimeters extrusion width = 0.60mm
; perimeters extrusion width = 0.60mm
; infill extrusion width = 0.60mm
; solid infill extrusion width = 0.60mm
; top infill extrusion width = 0.60mm
; first layer extrusion width = 0.60mm

M73 P0 R62
M73 Q0 S62
M201 X1000 Y1000 Z200 E5000 ; sets maximum accelerations, mm/sec^2
M203 X200 Y200 Z12 E120 ; sets maximum feedrates, mm / sec
M204 P1250 R1250 T1250 ; sets acceleration (P, T) and retract acceleration (R), mm/sec^2
M205 X8.00 Y8.00 Z0.40 E4.50 ; sets the jerk limits, mm/sec
M205 S0 T0 ; sets the minimum extruding and travel feed rate, mm/sec
M107
;TYPE:Custom
M862.3 P "MK3S" ; printer model check
M862.1 P0.4 ; nozzle diameter check
M115 U3.12.2 ; tell printer latest fw version
G90 ; use absolute coordinates
M83 ; extruder relative mode
M104 S240 ; set extruder temp
M140 S50 ; set bed temp
M190 S50 ; wait for bed temp
M109 S240 ; wait for extruder temp
G28 W ; home all without mesh bed level
G80 ; mesh bed leveling

G1 Z0.2 F720
G1 Y-3 F1000 ; go outside print area
G92 E0
G1 X60 E9 F1000 ; intro line
G1 X100 E12.5 F1000 ; intro line

G92 E0
M221 S95

; Don't change E values below. Excessive value can damage the printer.
M907 E430 ; set extruder motor current
G21 ; set units to millimeters
G90 ; use absolute coordinates
M83 ; use relative distances for extrusion
M900 K0 ; Filament gcode
M107
;LAYER_CHANGE
;Z:0.2
;HEIGHT:0.2
;BEFORE_LAYER_CHANGE
G92 E0.0
;0.2


M73 P0 R61
M73 Q0 S61
G1 E-1 F2400
G1 Z.2 F720
;AFTER_LAYER_CHANGE
;0.2
G1 X89.093 Y88.653 F4200
G1 E1 F1500
M204 S300
;TYPE:Skirt/Brim
;WIDTH:0.6
G1 F1200
G1 X108.653 Y69.093 E1.40951
G1 X110.083 Y68.221 E.08535
G1 X111.169 Y68.051 E.05597
G1 X138.831 Y68.051 E1.40951
G1 X140.459 Y68.445 E.08535
G1 X141.347 Y69.093 E.05597
G1 X160.907 Y88.653 E1.40951
G1 X161.779 Y90.083 E.08535
G1 X161.949 Y91.169 E.05597
G1 X161.949 Y118.831 E1.40951
G1 X161.555 Y120.459 E.08535
G1 X160.907 Y121.347 E.05597
G1 X141.347 Y140.907 E1.40951
G1 X139.917 Y141.779 E.08535
G1 X138.831 Y141.949 E.05597
G1 X111.169 Y141.949 E1.40951
G1 X109.541 Y141.555 E.08535
G1 X108.653 Y140.907 E.05597
G1 X89.093 Y121.347 E1.40951
G1 X88.221 Y119.917 E.08535
G1 X88.051 Y118.831 E.05597
G1 X88.051 Y91.169 E1.40951
G1 X88.445 Y89.541 E.08535
G1 X89.058 Y88.702 E.05291
; printing object OV-PAM_test3_1F.stl id:0 copy 0
G1 E-1 F2400
G1 X111.248 Y72.1 F4200
G1 E1 F1500
;TYPE:External perimeter
;WIDTH:0.874574
G1 F901.818
G1 X111.341 Y72.024 E.00914
G1 X111.5 Y72.008 E.01216
G1 X138.5 Y72.008 E2.05382
G1 X138.659 Y72.024 E.01216
G1 X138.783 Y72.125 E.01216
G1 X157.875 Y91.217 E2.05382
G1 X157.976 Y91.341 E.01216
G1 X157.992 Y91.5 E.01216
G1 X157.992 Y118.5 E2.05382
G1 X157.976 Y118.659 E.01216
G1 X157.875 Y118.783 E.01216
G1 X138.783 Y137.875 E2.05382
G1 X138.659 Y137.976 E.01216
G1 X138.5 Y137.992 E.01216
G1 X111.5 Y137.992 E2.05382
G1 X111.341 Y137.976 E.01216
G1 X111.217 Y137.875 E.01216
G1 X92.125 Y118.783 E2.05382
G1 X92.024 Y118.659 E.01216
G1 X92.008 Y118.5 E.01216
G1 X92.008 Y91.5 E2.05382
G1 X92.024 Y91.341 E.01216
G1 X92.125 Y91.217 E.01216
G1 X111.203 Y72.14 E2.05228
G1 X111.225 Y71.982 F4200
; stop printing object OV-PAM_test3_1F.stl id:0 copy 0
;LAYER_CHANGE
;Z:0.4
;HEIGHT:0.2
;BEFORE_LAYER_CHANGE
G92 E0.0
;0.4


G1 E-1 F2400
G1 Z.4 F720
;AFTER_LAYER_CHANGE
;0.4
G1 X111.289 Y72.225 F4200
G1 X111.291 Y72.223
G1 X109.157 Y68.786
G1 E1 F1500
;TYPE:Skirt/Brim
;WIDTH:0.6
G1 F1346.307
G1 X110.083 Y68.221 E.05529
G1 X111.169 Y68.051 E.05597
G1 X138.831 Y68.051 E1.40951
G1 X140.459 Y68.445 E.08535
G1 X141.347 Y69.093 E.05597
G1 X160.907 Y88.653 E1.40951
G1 X161.779 Y90.083 E.08535
M73 P1 R61
M73 Q1 S61
G1 X161.949 Y91.169 E.05597
G1 X161.949 Y118.831 E1.40951
G1 X161.555 Y120.459 E.08535
G1 X160.907 Y121.347 E.05597
G1 X141.347 Y140.907 E1.40951
G1 X139.917 Y141.779 E.08535
G1 X138.831 Y141.949 E.05597
G1 X111.169 Y141.949 E1.40951
G1 X109.541 Y141.555 E.08535
G1 X108.653 Y140.907 E.05597
G1 X89.093 Y121.347 E1.40951
G1 X88.221 Y119.917 E.08535
G1 X88.051 Y118.831 E.05597
G1 X88.051 Y91.169 E1.40951
G1 X88.445 Y89.541 E.08535
G1 X89.093 Y88.653 E.05597
G1 X108.653 Y69.093 E1.40951
G1 X109.106 Y68.817 E.027
; printing object OV-PAM_test3_1F.stl id:0 copy 0
G1 E-1 F2400
G1 X111.145 Y71.922 F4200
G1 X111.109 Y71.953
G1 X111.24 Y72.107
G1 E1 F1500
;TYPE:External perimeter
;WIDTH:0.874574
G1 F901.818
G1 X111.341 Y72.024 E.00992
G1 X111.5 Y72.008 E.01216
G1 X138.5 Y72.008 E2.05382
G1 X138.659 Y72.024 E.01216
G1 X138.783 Y72.125 E.01216
G1 X157.875 Y91.217 E2.05382
G1 X157.976 Y91.341 E.01216
G1 X157.992 Y91.5 E.01216
G1 X157.992 Y118.5 E2.05382
G1 X157.976 Y118.659 E.01216
G1 X157.875 Y118.783 E.01216
G1 X138.783 Y137.875 E2.05382
G1 X138.659 Y137.976 E.01216
G1 X138.5 Y137.992 E.01216
G1 X111.5 Y137.992 E2.05382
G1 X111.341 Y137.976 E.01216
G1 X111.217 Y137.875 E.01216
G1 X92.125 Y118.783 E2.05382
G1 X92.024 Y118.659 E.01216
G1 X92.008 Y118.5 E.01216
G1 X92.008 Y91.5 E2.05382
G1 X92.024 Y91.341 E.01216
G1 X92.125 Y91.217 E.01216
G1 X111.196 Y72.147 E2.0515
G1 X111.215 Y71.979 F4200
; stop printing object OV-PAM_test3_1F.stl id:0 copy 0
;LAYER_CHANGE
;Z:0.6
;HEIGHT:0.2
;BEFORE_LAYER_CHANGE
G92 E0.0
;0.6


G1 E-1 F2400
G1 Z.6 F720
;AFTER_LAYER_CHANGE
;0.6
G1 X111.281 Y72.233 F4200
G1 X111.285 Y72.229
G1 X109.149 Y68.791
G1 E1 F1500
;TYPE:Skirt/Brim
;WIDTH:0.6
G1 F1346.307
G1 X110.083 Y68.221 E.05579
G1 X111.169 Y68.051 E.05597
G1 X138.831 Y68.051 E1.40951
G1 X140.459 Y68.445 E.08535
M73 P1 R60
M73 Q1 S60
G1 X141.347 Y69.093 E.05597
G1 X160.907 Y88.653 E1.40951
G1 X161.779 Y90.083 E.08535
G1 X161.949 Y91.169 E.05597
G1 X161.949 Y118.831 E1.40951
G1 X161.555 Y120.459 E.08535
G1 X160.907 Y121.347 E.05597
G1 X141.347 Y140.907 E1.40951
G1 X139.917 Y141.779 E.08535
G1 X138.831 Y141.949 E.05597
G1 X111.169 Y141.949 E1.40951
G1 X109.541 Y141.555 E.08535
G1 X108.653 Y140.907 E.05597
G1 X89.093 Y121.347 E1.40951
G1 X88.221 Y119.917 E.08535
G1 X88.051 Y118.831 E.05597
G1 X88.051 Y91.169 E1.40951
G1 X88.445 Y89.541 E.08535
G1 X89.093 Y88.653 E.05597
G1 X108.653 Y69.093 E1.40951
G1 X109.097 Y68.822 E.0265
; printing object OV-PAM_test3_1F.stl id:0 copy 0
G1 E-1 F2400
G1 X111.137 Y71.929 F4200
G1 X111.1 Y71.961
G1 X111.231 Y72.114
G1 E1 F1500
;TYPE:External perimeter
;WIDTH:0.874574
G1 F901.818
G1 X111.341 Y72.024 E.01083
G1 X111.5 Y72.008 E.01216
G1 X138.5 Y72.008 E2.05382
G1 X138.659 Y72.024 E.01216
M73 P2 R60
M73 Q2 S60
G1 X138.783 Y72.125 E.01216
G1 X157.875 Y91.217 E2.05382
G1 X157.976 Y91.341 E.01216
G1 X157.992 Y91.5 E.01216
G1 X157.992 Y118.5 E2.05382
G1 X157.976 Y118.659 E.01216
G1 X157.875 Y118.783 E.01216
G1 X138.783 Y137.875 E2.05382
G1 X138.659 Y137.976 E.01216
G1 X138.5 Y137.992 E.01216
G1 X111.5 Y137.992 E2.05382
G1 X111.341 Y137.976 E.01216
G1 X111.217 Y137.875 E.01216
G1 X92.125 Y118.783 E2.05382
G1 X92.024 Y118.659 E.01216
G1 X92.008 Y118.5 E.01216
G1 X92.008 Y91.5 E2.05382
G1 X92.024 Y91.341 E.01216
G1 X92.125 Y91.217 E.01216
G1 X111.187 Y72.155 E2.0506
G1 X111.203 Y71.975 F4200
; stop printing object OV-PAM_test3_1F.stl id:0 copy 0
;LAYER_CHANGE
;Z:0.8
;HEIGHT:0.2
;BEFORE_LAYER_CHANGE
G92 E0.0
;0.8


G1 E-1 F2400
G1 Z.8 F720
;AFTER_LAYER_CHANGE
;0.8
; printing object OV-PAM_test3_1F.stl id:0 copy 0
G1 X111.22 Y72.123 F4200
G1 E1 F1500
G1 F901.818
G1 X111.341 Y72.024 E.01189
G1 X111.5 Y72.008 E.01216
G1 X138.5 Y72.008 E2.05382
G1 X138.659 Y72.024 E.01216
G1 X138.783 Y72.125 E.01216
G1 X157.875 Y91.217 E2.05382
G1 X157.976 Y91.341 E.01216
G1 X157.992 Y91.5 E.01216
G1 X157.992 Y118.5 E2.05382
G1 X157.976 Y118.659 E.01216
G1 X157.875 Y118.783 E.01216
G1 X138.783 Y137.875 E2.05382
G1 X138.659 Y137.976 E.01216
G1 X138.5 Y137.992 E.01216
G1 X111.5 Y137.992 E2.05382
G1 X111.341 Y137.976 E.01216
G1 X111.217 Y137.875 E.01216
G1 X92.125 Y118.783 E2.05382
G1 X92.024 Y118.659 E.01216
G1 X92.008 Y118.5 E.01216
G1 X92.008 Y91.5 E2.05382
G1 X92.024 Y91.341 E.01216
G1 X92.125 Y91.217 E.01216
G1 X111.177 Y72.165 E2.04954
G1 X111.19 Y71.97 F4200
; stop printing object OV-PAM_test3_1F.stl id:0 copy 0
;LAYER_CHANGE
;Z:1
;HEIGHT:0.2
;BEFORE_LAYER_CHANGE
G92 E0.0
;1


G1 E-1 F2400
G1 Z1 F720
;AFTER_LAYER_CHANGE
;1
; printing object OV-PAM_test3_1F.stl id:0 copy 0
G1 X111.204 Y72.138 F4200
G1 E1 F1500
G1 F901.818
G1 X111.341 Y72.024 E.01352
G1 X111.5 Y72.008 E.01216
G1 X138.5 Y72.008 E2.05382
G1 X138.659 Y72.024 E.01216
G1 X138.783 Y72.125 E.01216
G1 X157.875 Y91.217 E2.05382
G1 X157.976 Y91.341 E.01216
G1 X157.992 Y91.5 E.01216
G1 X157.992 Y118.5 E2.05382
G1 X157.976 Y118.659 E.01216
G1 X157.875 Y118.783 E.01216
G1 X138.783 Y137.875 E2.05382
G1 X138.659 Y137.976 E.01216
G1 X138.5 Y137.992 E.01216
G1 X111.5 Y137.992 E2.05382
G1 X111.341 Y137.976 E.01216
G1 X111.217 Y137.875 E.01216
G1 X92.125 Y118.783 E2.05382
G1 X92.024 Y118.659 E.01216
M73 P3 R60
M73 Q3 S60
G1 X92.008 Y118.5 E.01216
G1 X92.008 Y91.5 E2.05382
G1 X92.024 Y91.341 E.01216
G1 X92.125 Y91.217 E.01216
G1 X111.162 Y72.18 E2.0479
G1 X111.169 Y71.964 F4200
; stop printing object OV-PAM_test3_1F.stl id:0 copy 0
;LAYER_CHANGE
;Z:1.2
;HEIGHT:0.2
;BEFORE_LAYER_CHANGE
G92 E0.0
;1.2


G1 E-1 F2400
G1 Z1.2 F720
;AFTER_LAYER_CHANGE
;1.2
; printing object OV-PAM_test3_1F.stl id:0 copy 0
G1 X111.194 Y72.174 F4200
G1 E1 F1500
;WIDTH:0.911047
G1 F863.93
G1 X111.348 Y72.042 E.01613
G1 X111.515 Y72.026 E.01325
G1 X138.485 Y72.026 E2.14159
G1 X138.652 Y72.042 E.01325
G1 X138.781 Y72.148 E.01325
G1 X157.852 Y91.219 E2.14159
G1 X157.958 Y91.348 E.01325
G1 X157.974 Y91.515 E.01325
G1 X157.974 Y118.485 E2.14159
G1 X157.958 Y118.652 E.01325
G1 X157.852 Y118.781 E.01325
G1 X138.781 Y137.852 E2.14159
G1 X138.652 Y137.958 E.01325
M73 P3 R59
M73 Q3 S59
G1 X138.485 Y137.974 E.01325
G1 X111.515 Y137.974 E2.14159
G1 X111.348 Y137.958 E.01325
G1 X111.219 Y137.852 E.01325
G1 X92.148 Y118.781 E2.14159
G1 X92.042 Y118.652 E.01325
G1 X92.026 Y118.485 E.01325
G1 X92.026 Y91.515 E2.14159
G1 X92.042 Y91.348 E.01325
G1 X92.148 Y91.219 E.01325
G1 X111.151 Y72.216 E2.13393
G1 X111.152 Y71.975 F4200
; stop printing object OV-PAM_test3_1F.stl id:0 copy 0
;LAYER_CHANGE
;Z:1.4
;HEIGHT:0.2
;BEFORE_LAYER_CHANGE
G92 E0.0
;1.4


G1 E-1 F2400
G1 Z1.4 F720
;AFTER_LAYER_CHANGE
;1.4
; printing object OV-PAM_test3_1F.stl id:0 copy 0
G1 X111.288 Y72.344 F4200
G1 E1 F1500
;WIDTH:0.763153
G1 F1041.33
G1 X111.425 Y72.226 E.01189
G1 X111.562 Y72.212 E.00912
G1 X138.438 Y72.212 E1.77045
G1 X138.575 Y72.226 E.00912
G1 X138.683 Y72.314 E.00912
G1 X157.686 Y91.317 E1.77045
G1 X157.774 Y91.425 E.00912
G1 X157.788 Y91.562 E.00912
G1 X157.788 Y118.438 E1.77045
G1 X157.774 Y118.575 E.00912
G1 X157.686 Y118.683 E.00912
G1 X138.683 Y137.686 E1.77045
G1 X138.575 Y137.774 E.00912
G1 X138.438 Y137.788 E.00912
G1 X111.562 Y137.788 E1.77045
G1 X111.425 Y137.774 E.00912
G1 X111.317 Y137.686 E.00912
G1 X92.314 Y118.683 E1.77045
G1 X92.226 Y118.575 E.00912
G1 X92.212 Y118.438 E.00912
G1 X92.212 Y91.562 E1.77045
G1 X92.226 Y91.425 E.00912
G1 X92.314 Y91.317 E.00912
G1 X111.245 Y72.386 E1.76371
G1 X111.25 Y72.167 F4200
; stop printing object OV-PAM_test3_1F.stl id:0 copy 0
;LAYER_CHANGE
;Z:1.6
;HEIGHT:0.2
;BEFORE_LAYER_CHANGE
G92 E0.0
;1.6


G1 E-1 F2400
G1 Z1.6 F720
;AFTER_LAYER_CHANGE
;1.6
; printing object OV-PAM_test3_1F.stl id:0 copy 0
G1 X111.329 Y72.465 F4200
G1 E1 F1500
;WIDTH:0.764118
G1 F1039.936
G1 X111.47 Y72.342 E.01236
G1 X111.61 Y72.328 E.0093
G1 X138.526 Y72.34 E1.77546
G1 X138.635 Y72.429 E.0093
G1 X157.658 Y91.47 E1.77546
G1 X157.672 Y91.61 E.0093
G1 X157.66 Y118.526 E1.77546
G1 X157.571 Y118.635 E.0093
M73 P4 R59
M73 Q4 S59
G1 X138.53 Y137.658 E1.77546
G1 X138.39 Y137.672 E.0093
G1 X111.474 Y137.66 E1.77546
G1 X111.365 Y137.571 E.0093
G1 X92.342 Y118.53 E1.77546
G1 X92.328 Y118.39 E.0093
G1 X92.34 Y91.474 E1.77546
G1 X92.429 Y91.365 E.0093
G1 X111.287 Y72.508 E1.75918
G1 X111.508 Y72.522 F4200
; stop printing object OV-PAM_test3_1F.stl id:0 copy 0
;LAYER_CHANGE
;Z:1.8
;HEIGHT:0.2
;BEFORE_LAYER_CHANGE
G92 E0.0
;1.8


G1 E-1 F2400
G1 Z1.8 F720
;AFTER_LAYER_CHANGE
;1.8
; printing object OV-PAM_test3_1F.stl id:0 copy 0
G1 X111.358 Y72.599 F4200
G1 E1 F1500
;WIDTH:0.777941
G1 F1020.38
G1 X111.487 Y72.464 E.01253
G1 X111.658 Y72.443 E.01158
G1 X138.451 Y72.439 E1.80127
G1 X138.587 Y72.545 E.01158
G1 X157.536 Y91.487 E1.80127
G1 X157.557 Y91.658 E.01158
G1 X157.561 Y118.451 E1.80127
G1 X157.455 Y118.587 E.01158
G1 X138.513 Y137.536 E1.80127
G1 X138.342 Y137.557 E.01158
G1 X111.549 Y137.561 E1.80127
G1 X111.413 Y137.455 E.01158
G1 X92.464 Y118.513 E1.80127
G1 X92.443 Y118.342 E.01158
G1 X92.439 Y91.549 E1.80127
G1 X92.545 Y91.413 E.01158
G1 X111.316 Y72.642 E1.78471
G1 X111.539 Y72.645 F4200
; stop printing object OV-PAM_test3_1F.stl id:0 copy 0
;LAYER_CHANGE
;Z:2
;HEIGHT:0.2
;BEFORE_LAYER_CHANGE
G92 E0.0
;2


G1 E-1 F2400
G1 Z2 F720
;AFTER_LAYER_CHANGE
;2
; printing object OV-PAM_test3_1F.stl id:0 copy 0
G1 X111.341 Y72.78 F4200
G1 E1 F1500
;WIDTH:0.735741
G1 F1082.532
G1 X111.449 Y72.649 E.01084
;WIDTH:0.806609
G1 F982.076
G1 X111.484 Y72.594 E.00452
G1 X111.706 Y72.559 E.01567
;WIDTH:0.73574
G1 F1082.532
G1 X138.143 Y72.559 E1.67532
G1 X138.294 Y72.542 E.00961
;WIDTH:0.806609
G1 F982.076
G1 X138.357 Y72.529 E.00452
G1 X138.539 Y72.66 E.01567
;WIDTH:0.735741
G1 F1082.532
G1 X157.233 Y91.354 E1.67532
G1 X157.351 Y91.449 E.00961
;WIDTH:0.806609
G1 F982.076
G1 X157.406 Y91.484 E.00452
G1 X157.441 Y91.706 E.01567
;WIDTH:0.73574
G1 F1082.532
G1 X157.441 Y118.143 E1.67532
G1 X157.458 Y118.294 E.00961
;WIDTH:0.806609
G1 F982.076
G1 X157.471 Y118.357 E.00452
;WIDTH:0.806608
G1 X157.34 Y118.539 E.01567
;WIDTH:0.735741
G1 F1082.532
G1 X138.646 Y137.233 E1.67532
G1 X138.551 Y137.351 E.00961
;WIDTH:0.806609
G1 F982.076
G1 X138.516 Y137.406 E.00452
G1 X138.294 Y137.441 E.01567
;WIDTH:0.73574
G1 F1082.532
G1 X111.857 Y137.441 E1.67532
G1 X111.706 Y137.458 E.00961
;WIDTH:0.806609
G1 F982.076
G1 X111.643 Y137.471 E.00452
G1 X111.461 Y137.34 E.01567
;WIDTH:0.735741
G1 F1082.532
G1 X92.767 Y118.646 E1.67532
G1 X92.649 Y118.551 E.00961
;WIDTH:0.806609
G1 F982.076
G1 X92.594 Y118.516 E.00452
G1 X92.559 Y118.294 E.01567
;WIDTH:0.73574
G1 F1082.532
G1 X92.559 Y91.857 E1.67532
G1 X92.542 Y91.706 E.00961
;WIDTH:0.806609
G1 F982.076
G1 X92.529 Y91.643 E.00452
G1 X92.66 Y91.461 E.01567
;WIDTH:0.735741
G1 F1082.532
G1 X111.298 Y72.823 E1.67029
; stop printing object OV-PAM_test3_1F.stl id:0 copy 0
;LAYER_CHANGE
;Z:2.2
;HEIGHT:0.2
;BEFORE_LAYER_CHANGE
G92 E0.0
;2.2


G1 E-1 F2400
M73 P4 R58
M73 Q4 S58
G1 Z2.2 F720
;AFTER_LAYER_CHANGE
;2.2
; printing object OV-PAM_test3_1F.stl id:0 copy 0
G1 X111.376 Y72.877 F4200
G1 E1 F1500
;WIDTH:0.773847
G1 F1026.094
G1 X111.418 Y72.815 E.00503
;WIDTH:0.84558
G1 F934.394
G1 X111.472 Y72.731 E.00731
G1 X111.66 Y72.693 E.01406
;WIDTH:0.773847
G1 F1026.095
G1 X111.754 Y72.674 E.0064
G1 X137.97 Y72.674 E1.75271
G1 X138.154 Y72.638 E.01254
;WIDTH:0.84558
G1 F934.393
G1 X138.252 Y72.617 E.00731
G1 X138.411 Y72.723 E.01406
;WIDTH:0.773847
G1 F1026.094
G1 X138.491 Y72.776 E.0064
G1 X157.029 Y91.314 E1.75271
G1 X157.185 Y91.418 E.01254
;WIDTH:0.84558
M73 P5 R58
M73 Q5 S58
G1 F934.394
G1 X157.269 Y91.472 E.00731
G1 X157.307 Y91.66 E.01406
;WIDTH:0.773847
G1 F1026.095
G1 X157.326 Y91.754 E.0064
G1 X157.326 Y117.97 E1.75271
G1 X157.362 Y118.154 E.01254
;WIDTH:0.84558
G1 F934.393
G1 X157.383 Y118.252 E.00731
;WIDTH:0.85006
G1 F929.207
G1 X157.277 Y118.411 E.01413
;WIDTH:0.773847
G1 F1026.094
G1 X157.224 Y118.491 E.0064
G1 X138.686 Y137.029 E1.75271
G1 X138.582 Y137.185 E.01254
;WIDTH:0.84558
G1 F934.394
G1 X138.528 Y137.269 E.00731
G1 X138.34 Y137.307 E.01406
;WIDTH:0.773847
G1 F1026.095
G1 X138.246 Y137.326 E.0064
G1 X112.03 Y137.326 E1.75271
G1 X111.846 Y137.362 E.01254
;WIDTH:0.84558
G1 F934.393
G1 X111.748 Y137.383 E.00731
G1 X111.589 Y137.277 E.01406
;WIDTH:0.773847
G1 F1026.094
G1 X111.509 Y137.224 E.0064
G1 X92.971 Y118.686 E1.75271
G1 X92.815 Y118.582 E.01254
;WIDTH:0.84558
G1 F934.394
G1 X92.731 Y118.528 E.00731
G1 X92.693 Y118.34 E.01406
;WIDTH:0.773847
