; generated by PrusaSlicer 2.5.2+win64 on 2023-06-29 at 01:11:28 UTC


;
;
; 

; external perimeters extrusion width = 0.45mm
; perimeters extrusion width = 0.45mm
; infill extrusion width = 0.45mm
; solid infill extrusion width = 0.45mm
; top infill extrusion width = 0.40mm
; first layer extrusion width = 0.42mm

; external perimeters extrusion width = 0.45mm
; perimeters extrusion width = 0.45mm
; infill extrusion width = 0.45mm
; solid infill extrusion width = 0.45mm
; top infill extrusion width = 0.40mm
; first layer extrusion width = 0.42mm

; external perimeters extrusion width = 0.45mm
; perimeters extrusion width = 0.45mm
; infill extrusion width = 0.45mm
; solid infill extrusion width = 0.45mm
; top infill extrusion width = 0.40mm
; first layer extrusion width = 0.42mm

; external perimeters extrusion width = 0.45mm
; perimeters extrusion width = 0.45mm
; infill extrusion width = 0.45mm
; solid infill extrusion width = 0.45mm
; top infill extrusion width = 0.40mm
; first layer extrusion width = 0.42mm

M73 P0 R175
M73 Q0 S181
M201 X1000 Y1000 Z200 E5000 ; sets maximum accelerations, mm/sec^2
M203 X200 Y200 Z12 E120 ; sets maximum feedrates, mm / sec
M204 P1250 R1250 T1250 ; sets acceleration (P, T) and retract acceleration (R), mm/sec^2
M205 X8.00 Y8.00 Z0.40 E4.50 ; sets the jerk limits, mm/sec
M205 S0 T0 ; sets the minimum extruding and travel feed rate, mm/sec
M107
;TYPE:Custom
M862.3 P "MK3S" ; printer model check
M862.1 P0.4 ; nozzle diameter check
M115 U3.12.2 ; tell printer latest fw version
G90 ; use absolute coordinates
M83 ; extruder relative mode
M104 S240 ; set extruder temp
M140 S50 ; set bed temp
M190 S50 ; wait for bed temp
M109 S240 ; wait for extruder temp
G28 W ; home all without mesh bed level
G80 ; mesh bed leveling

G1 Z0.2 F720
G1 Y-3 F1000 ; go outside print area
G92 E0
G1 X60 E9 F1000 ; intro line
G1 X100 E12.5 F1000 ; intro line

G92 E0
M221 S95

; Don't change E values below. Excessive value can damage the printer.
M907 E430 ; set extruder motor current
G21 ; set units to millimeters
G90 ; use absolute coordinates
M83 ; use relative distances for extrusion
M900 K0 ; Filament gcode
M107
;LAYER_CHANGE
;Z:0.2
;HEIGHT:0.2
;BEFORE_LAYER_CHANGE
G92 E0.0
;0.2


G1 E-1 F2400
G1 Z.2 F720
;AFTER_LAYER_CHANGE
;0.2
G1 X57.96 Y37.414 F10800
G1 E1 F1500
M204 S800
;TYPE:Skirt/Brim
;WIDTH:0.42
G1 F1200
G1 X77.287 Y18.088 E.94265
G1 X78.685 Y17.247 E.05627
G1 X79.659 Y17.099 E.034
G1 X156.264 Y16.752 E2.64211
G1 X183.596 Y16.752 E.94265
G1 X185.179 Y17.146 E.05627
G1 X185.984 Y17.741 E.03452
G1 X205.31 Y37.068 E.94265
G1 X206.16 Y38.499 E.05742
G1 X231.125 Y122.995 E3.03879
G1 X231.264 Y123.952 E.03335
G1 X231.264 Y162.798 E1.33981
G1 X230.87 Y164.382 E.05627
G1 X230.275 Y165.186 E.03452
G1 X202.806 Y192.655 E1.33981
G1 X201.408 Y193.496 E.05627
G1 X200.436 Y193.644 E.0339
G1 X98.959 Y194.192 E3.49998
G1 X60.112 Y194.192 E1.33981
G1 X58.529 Y193.798 E.05627
G1 X57.724 Y193.203 E.03452
G1 X30.256 Y165.735 E1.33981
G1 X29.415 Y164.337 E.05627
G1 X29.267 Y163.347 E.03452
G1 X29.267 Y124.5 E1.33981
G1 X29.434 Y123.45 E.03667
M73 Q0 S180
G1 X57.139 Y38.752 E3.07353
G1 X57.929 Y37.465 E.05209
M204 S1000
; printing object OV-PAM_one_direction_5_patterns_1f_60_d7_largeA.stl id:0 copy 0
G1 E-1 F2400
G1 X33.155 Y163.547 F10800
G1 E1 F1500
M204 S800
;TYPE:External perimeter
;WIDTH:0.414407
G1 F1200
G1 X33.027 Y163.419 E.00614
;WIDTH:0.429105
G1 X32.871 Y163.253 E.00805
G1 X32.864 Y163.025 E.00805
;WIDTH:0.414408
G1 X32.864 Y124.822 E1.29806
;WIDTH:0.429105
G1 X32.871 Y124.594 E.00805
G1 X33.027 Y124.428 E.00805
;WIDTH:0.414407
G1 X60.04 Y97.415 E1.29806
;WIDTH:0.429105
G1 X60.206 Y97.259 E.00805
G1 X60.434 Y97.251 E.00805
;WIDTH:0.414408
G1 X98.637 Y97.251 E1.29806
;WIDTH:0.429104
G1 X98.865 Y97.259 E.00805
G1 X99.031 Y97.415 E.00805
;WIDTH:0.414407
G1 X126.044 Y124.428 E1.29806
;WIDTH:0.429106
G1 X126.2 Y124.594 E.00805
G1 X126.2 Y124.674 E.00283
G1 X126.208 Y124.822 E.00523
;WIDTH:0.414407
G1 X126.208 Y163.025 E1.29806
;WIDTH:0.429106
G1 X126.2 Y163.253 E.00805
M73 P0 R174
G1 X126.044 Y163.419 E.00805
;WIDTH:0.414407
G1 X99.031 Y190.432 E1.29806
;WIDTH:0.429104
G1 X98.865 Y190.588 E.00805
G1 X98.637 Y190.595 E.00805
;WIDTH:0.414408
G1 X60.434 Y190.595 E1.29806
;WIDTH:0.429105
G1 X60.206 Y190.588 E.00805
G1 X60.04 Y190.432 E.00805
;WIDTH:0.414407
G1 X33.197 Y163.589 E1.28988
M204 S1000
G1 E-1 F2400
G1 X98.688 Y190.203 F10800
G1 E1 F1500
M204 S800
G1 F1200
G1 X98.637 Y190.224 E.00188
G1 X60.434 Y190.224 E1.29806
G1 X60.303 Y190.17 E.00483
G1 X33.289 Y163.156 E1.29806
G1 X33.235 Y163.025 E.00483
G1 X33.235 Y124.822 E1.29806
G1 X33.289 Y124.691 E.00483
G1 X60.303 Y97.677 E1.29806
G1 X60.434 Y97.623 E.00483
G1 X98.637 Y97.623 E1.29806
G1 X98.768 Y97.677 E.00483
G1 X125.782 Y124.691 E1.29806
G1 X125.836 Y124.822 E.00483
G1 X125.836 Y163.025 E1.29806
;WIDTH:0.417223
G1 X125.804 Y163.132 E.00384
G1 X125.782 Y163.156 E.00111
;WIDTH:0.414407
G1 X98.743 Y190.18 E1.29891
M204 S1000
; stop printing object OV-PAM_one_direction_5_patterns_1f_60_d7_largeA.stl id:0 copy 0
; printing object OV-PAM_5_patterns_1f_60_d7_half_wall.stl id:1 copy 0
G1 E-1 F2400
G1 X106.883 Y20.69 F10800
G1 E1 F1500
M204 S800
;WIDTH:0.4
G1 F1200
G1 X106.975 Y20.728 E.00326
G1 X126.08 Y39.832 E.88241
;WIDTH:0.414126
G1 X126.125 Y39.888 E.00242
G1 X126.132 Y39.959 E.00242
;WIDTH:0.4
G1 X126.132 Y66.976 E.88241
G1 X126.08 Y67.103 E.00446
G1 X106.975 Y86.207 E.88241
G1 X106.849 Y86.259 E.00446
G1 X79.831 Y86.259 E.88241
G1 X79.705 Y86.207 E.00446
G1 X60.601 Y67.103 E.88241
G1 X60.548 Y66.976 E.00446
G1 X60.548 Y39.959 E.88241
G1 X60.601 Y39.832 E.00446
G1 X79.705 Y20.728 E.88241
G1 X79.831 Y20.676 E.00446
G1 X106.826 Y20.676 E.88165
M204 S1000
G1 X106.909 Y20.786 F10800
; stop printing object OV-PAM_5_patterns_1f_60_d7_half_wall.stl id:1 copy 0
; printing object OV-PAM_one_direction_5_patterns_1f_60_d7_half_wall.stl id:3 copy 0
G1 E-1 F2400
G1 X202.707 Y66.666 F10800
G1 E1 F1500
M204 S800
G1 F1200
G1 X202.669 Y66.756 E.00321
G1 X183.565 Y85.861 E.88241
G1 X183.439 Y85.913 E.00446
G1 X156.421 Y85.913 E.88241
G1 X156.295 Y85.861 E.00446
G1 X137.19 Y66.756 E.88241
G1 X137.138 Y66.63 E.00446
G1 X137.138 Y39.612 E.88241
G1 X137.19 Y39.486 E.00446
G1 X156.295 Y20.382 E.88241
G1 X156.421 Y20.329 E.00446
G1 X183.439 Y20.329 E.88241
G1 X183.565 Y20.382 E.00446
M73 Q0 S179
G1 X202.669 Y39.486 E.88241
;WIDTH:0.414126
G1 X202.715 Y39.541 E.00242
G1 X202.722 Y39.612 E.00242
;WIDTH:0.4
G1 X202.722 Y66.609 E.88171
M204 S1000
; stop printing object OV-PAM_one_direction_5_patterns_1f_60_d7_half_wall.stl id:3 copy 0
; printing object OV-PAM_5_patterns_1f_60_d7_largeA.stl id:2 copy 0
G1 E-1 F2400
G1 X161.554 Y189.935 F10800
G1 E1 F1500
M204 S800
;WIDTH:0.429105
G1 F1200
G1 X161.499 Y189.884 E.00264
;WIDTH:0.414407
G1 X134.486 Y162.871 E1.29806
;WIDTH:0.429105
G1 X134.33 Y162.704 E.00805
G1 X134.323 Y162.476 E.00805
;WIDTH:0.414408
G1 X134.323 Y124.274 E1.29806
;WIDTH:0.429105
G1 X134.33 Y124.046 E.00805
G1 X134.486 Y123.88 E.00805
;WIDTH:0.414407
G1 X161.499 Y96.866 E1.29806
;WIDTH:0.429105
G1 X161.666 Y96.71 E.00805
G1 X161.893 Y96.703 E.00805
;WIDTH:0.414408
G1 X200.096 Y96.703 E1.29806
;WIDTH:0.429104
G1 X200.324 Y96.71 E.00805
G1 X200.49 Y96.866 E.00805
;WIDTH:0.414407
G1 X227.504 Y123.88 E1.29806
;WIDTH:0.429106
G1 X227.66 Y124.046 E.00805
M73 P1 R174
G1 X227.66 Y124.126 E.00283
G1 X227.667 Y124.274 E.00523
;WIDTH:0.414407
G1 X227.667 Y162.476 E1.29806
;WIDTH:0.429106
G1 X227.66 Y162.704 E.00805
M73 P1 R173
M73 Q1 S179
G1 X227.504 Y162.871 E.00805
;WIDTH:0.414407
G1 X200.49 Y189.884 E1.29806
;WIDTH:0.429104
G1 X200.324 Y190.04 E.00805
G1 X200.096 Y190.047 E.00805
;WIDTH:0.414408
G1 X161.893 Y190.047 E1.29806
;WIDTH:0.429105
G1 X161.666 Y190.04 E.00805
G1 X161.598 Y189.976 E.00329
M204 S1000
G1 X161.56 Y189.861 F10800
G1 E-1 F2400
G1 X134.694 Y162.414 F10800
G1 E1 F1500
M204 S800
;WIDTH:0.414407
G1 F1200
G1 X134.694 Y124.274 E1.29595
G1 X134.749 Y124.142 E.00483
G1 X161.762 Y97.129 E1.29806
G1 X161.893 Y97.075 E.00483
G1 X200.096 Y97.075 E1.29806
G1 X200.228 Y97.129 E.00483
G1 X227.241 Y124.142 E1.29806
G1 X227.295 Y124.274 E.00483
G1 X227.295 Y162.476 E1.29806
;WIDTH:0.417223
G1 X227.263 Y162.584 E.00384
G1 X227.241 Y162.608 E.00111
;WIDTH:0.414407
G1 X200.228 Y189.621 E1.29806
G1 X200.096 Y189.676 E.00483
G1 X161.893 Y189.676 E1.29806
G1 X161.762 Y189.621 E.00483
G1 X134.749 Y162.608 E1.29806
G1 X134.694 Y162.474 E.0049
M204 S1000
G1 X134.308 Y162.311 F10800
; stop printing object OV-PAM_5_patterns_1f_60_d7_largeA.stl id:2 copy 0
;LAYER_CHANGE
;Z:0.4
;HEIGHT:0.2
;BEFORE_LAYER_CHANGE
G92 E0.0
;0.4


G1 E-1 F2400
G1 Z.4 F720
;AFTER_LAYER_CHANGE
;0.4
G1 X134.865 Y193.998 F10800
G1 E1 F1500
;TYPE:Skirt/Brim
;WIDTH:0.42
G1 F1988.97
G1 X98.959 Y194.192 E1.2384
G1 X60.112 Y194.192 E1.33981
G1 X58.529 Y193.798 E.05627
G1 X57.724 Y193.203 E.03452
G1 X30.256 Y165.735 E1.33981
G1 X29.415 Y164.337 E.05627
G1 X29.267 Y163.347 E.03452
G1 X29.267 Y124.5 E1.33981
G1 X29.434 Y123.45 E.03667
G1 X57.139 Y38.752 E3.07353
G1 X57.96 Y37.414 E.05416
G1 X77.287 Y18.088 E.94265
G1 X78.685 Y17.247 E.05627
G1 X79.659 Y17.099 E.034
G1 X156.264 Y16.752 E2.64211
G1 X183.596 Y16.752 E.94265
G1 X185.179 Y17.146 E.05627
G1 X185.984 Y17.741 E.03452
G1 X205.31 Y37.068 E.94265
G1 X206.16 Y38.499 E.05742
G1 X231.125 Y122.995 E3.03879
G1 X231.264 Y123.952 E.03335
G1 X231.264 Y162.798 E1.33981
G1 X230.87 Y164.382 E.05627
G1 X230.275 Y165.186 E.03452
G1 X202.806 Y192.655 E1.33981
G1 X201.408 Y193.496 E.05627
G1 X200.436 Y193.644 E.0339
G1 X134.925 Y193.998 E2.25951
; printing object OV-PAM_one_direction_5_patterns_1f_60_d7_largeA.stl id:0 copy 0
G1 E-1 F2400
G1 X33.132 Y163.537 F10800
G1 E1 F1500
M204 S800
;TYPE:External perimeter
;WIDTH:0.421462
G1 X33.021 Y163.426 E.00545
;WIDTH:0.436439
G1 X32.862 Y163.256 E.00836
G1 X32.854 Y163.024 E.00836
;WIDTH:0.421462
G1 X32.854 Y124.823 E1.32267
;WIDTH:0.436439
G1 X32.862 Y124.591 E.00836
G1 X33.021 Y124.421 E.00836
;WIDTH:0.421462
G1 X60.033 Y97.409 E1.32267
;WIDTH:0.436439
G1 X60.203 Y97.25 E.00836
M73 Q1 S178
G1 X60.435 Y97.242 E.00836
;WIDTH:0.421462
G1 X98.636 Y97.242 E1.32267
;WIDTH:0.436439
G1 X98.868 Y97.25 E.00836
G1 X99.038 Y97.409 E.00836
;WIDTH:0.421462
G1 X126.05 Y124.421 E1.32267
;WIDTH:0.436439
G1 X126.209 Y124.591 E.00836
G1 X126.209 Y124.672 E.00293
G1 X126.217 Y124.823 E.00543
;WIDTH:0.421462
G1 X126.217 Y163.024 E1.32267
;WIDTH:0.436439
G1 X126.209 Y163.256 E.00836
G1 X126.05 Y163.426 E.00836
;WIDTH:0.421462
G1 X99.038 Y190.438 E1.32267
;WIDTH:0.436439
G1 X98.868 Y190.597 E.00836
G1 X98.636 Y190.605 E.00836
;WIDTH:0.421462
G1 X60.435 Y190.605 E1.32267
;WIDTH:0.436439
G1 X60.203 Y190.597 E.00836
G1 X60.033 Y190.438 E.00836
;WIDTH:0.421462
G1 X33.174 Y163.579 E1.31515
M204 S1000
G1 E-1 F2400
G1 X98.728 Y190.205 F10800
G1 E1 F1500
M204 S800
;WIDTH:0.436439
G1 X98.712 Y190.219 E.00075
G1 X98.636 Y190.226 E.00272
;WIDTH:0.421462
G1 X60.435 Y190.226 E1.32267
G1 X60.301 Y190.171 E.00502
G1 X33.288 Y163.158 E1.32267
G1 X33.233 Y163.024 E.00502
G1 X33.233 Y124.823 E1.32267
G1 X33.288 Y124.689 E.00502
G1 X60.301 Y97.676 E1.32267
G1 X60.435 Y97.621 E.00502
M73 P1 R172
G1 X98.636 Y97.621 E1.32267
G1 X98.77 Y97.676 E.00502
G1 X125.783 Y124.689 E1.32267
G1 X125.838 Y124.823 E.00502
G1 X125.838 Y163.024 E1.32267
G1 X125.783 Y163.158 E.00502
G1 X98.774 Y190.167 E1.32249
M204 S1000
G1 X98.732 Y190.226 F10800
; stop printing object OV-PAM_one_direction_5_patterns_1f_60_d7_largeA.stl id:0 copy 0
; printing object OV-PAM_5_patterns_1f_60_d7_half_wall.stl id:1 copy 0
G1 E-1 F2400
G1 X106.906 Y20.699 F10800
G1 E1 F1500
M204 S800
;WIDTH:0.399998
G1 X106.975 Y20.728 E.00247
G1 X126.08 Y39.832 E.88241
;WIDTH:0.414126
G1 X126.125 Y39.888 E.00242
G1 X126.132 Y39.959 E.00242
;WIDTH:0.399998
G1 X126.132 Y66.976 E.88241
G1 X126.08 Y67.103 E.00446
G1 X106.975 Y86.207 E.88241
G1 X106.849 Y86.259 E.00446
G1 X79.831 Y86.259 E.88241
G1 X79.705 Y86.207 E.00446
G1 X60.601 Y67.103 E.88241
G1 X60.548 Y66.976 E.00446
G1 X60.548 Y39.959 E.88241
G1 X60.601 Y39.832 E.00446
G1 X79.705 Y20.728 E.88241
G1 X79.831 Y20.676 E.00446
G1 X106.85 Y20.676 E.88244
M204 S1000
G1 X106.925 Y20.772 F10800
; stop printing object OV-PAM_5_patterns_1f_60_d7_half_wall.stl id:1 copy 0
; printing object OV-PAM_one_direction_5_patterns_1f_60_d7_half_wall.stl id:3 copy 0
G1 E-1 F2400
G1 X202.713 Y66.652 F10800
G1 E1 F1500
M204 S800
G1 X202.669 Y66.756 E.00368
G1 X183.565 Y85.861 E.88241
G1 X183.439 Y85.913 E.00446
G1 X156.421 Y85.913 E.88241
G1 X156.295 Y85.861 E.00446
G1 X137.19 Y66.756 E.88241
G1 X137.138 Y66.63 E.00446
G1 X137.138 Y39.612 E.88241
G1 X137.19 Y39.486 E.00446
G1 X156.295 Y20.382 E.88241
G1 X156.421 Y20.329 E.00446
G1 X183.439 Y20.329 E.88241
G1 X183.565 Y20.382 E.00446
G1 X202.669 Y39.486 E.88241
;WIDTH:0.414126
G1 X202.715 Y39.541 E.00242
G1 X202.722 Y39.612 E.00242
;WIDTH:0.399998
G1 X202.722 Y66.594 E.88123
M204 S1000
; stop printing object OV-PAM_one_direction_5_patterns_1f_60_d7_half_wall.stl id:3 copy 0
; printing object OV-PAM_5_patterns_1f_60_d7_largeA.stl id:2 copy 0
G1 E-1 F2400
G1 X161.507 Y189.904 F10800
G1 E1 F1500
M204 S800
;WIDTH:0.436439
G1 X161.493 Y189.89 E.00071
;WIDTH:0.421462
G1 X134.48 Y162.877 E1.32267
;WIDTH:0.436439
G1 X134.321 Y162.708 E.00836
G1 X134.314 Y162.476 E.00836
;WIDTH:0.421462
G1 X134.314 Y124.274 E1.32267
;WIDTH:0.436439
G1 X134.321 Y124.042 E.00836
G1 X134.48 Y123.873 E.00836
;WIDTH:0.421462
G1 X161.493 Y96.86 E1.32267
;WIDTH:0.436439
G1 X161.604 Y96.759 E.00543
G1 X161.662 Y96.701 E.00293
G1 X161.894 Y96.694 E.00836
;WIDTH:0.421462
G1 X200.096 Y96.694 E1.32267
;WIDTH:0.436439
G1 X200.328 Y96.701 E.00836
G1 X200.497 Y96.86 E.00836
;WIDTH:0.421462
G1 X227.51 Y123.873 E1.32267
;WIDTH:0.436439
G1 X227.669 Y124.042 E.00836
G1 X227.676 Y124.274 E.00836
;WIDTH:0.421462
G1 X227.676 Y162.476 E1.32267
;WIDTH:0.436439
G1 X227.669 Y162.708 E.00836
G1 X227.51 Y162.877 E.00836
;WIDTH:0.421462
G1 X200.497 Y189.89 E1.32267
;WIDTH:0.436439
G1 X200.328 Y190.049 E.00836
G1 X200.096 Y190.056 E.00836
;WIDTH:0.421462
G1 X161.894 Y190.056 E1.32267
;WIDTH:0.436439
G1 X161.662 Y190.049 E.00836
G1 X161.551 Y189.945 E.00548
M204 S1000
G1 X161.509 Y189.884 F10800
G1 E-1 F2400
G1 X134.692 Y162.409 F10800
G1 E1 F1500
M204 S800
;WIDTH:0.421462
G1 X134.692 Y124.274 E1.32037
G1 X134.748 Y124.141 E.00502
G1 X161.76 Y97.128 E1.32267
G1 X161.894 Y97.073 E.00502
M73 P2 R172
M73 Q1 S177
G1 X200.096 Y97.073 E1.32267
G1 X200.229 Y97.128 E.00502
G1 X227.242 Y124.141 E1.32267
G1 X227.297 Y124.274 E.00502
M73 Q2 S177
G1 X227.297 Y162.476 E1.32267
;WIDTH:0.424332
G1 X227.264 Y162.585 E.00399
G1 X227.242 Y162.61 E.00115
;WIDTH:0.421462
G1 X200.229 Y189.622 E1.32267
G1 X200.096 Y189.678 E.00502
G1 X161.894 Y189.678 E1.32267
G1 X161.76 Y189.622 E.00502
G1 X134.748 Y162.61 E1.32267
G1 X134.692 Y162.469 E.00522
M204 S1000
G1 X134.306 Y162.306 F10800
; stop printing object OV-PAM_5_patterns_1f_60_d7_largeA.stl id:2 copy 0
;LAYER_CHANGE
;Z:0.6
;HEIGHT:0.2
;BEFORE_LAYER_CHANGE
G92 E0.0
;0.6


G1 E-1 F2400
G1 Z.6 F720
;AFTER_LAYER_CHANGE
;0.6
G1 X134.863 Y193.998 F10800
G1 E1 F1500
;TYPE:Skirt/Brim
;WIDTH:0.42
G1 F1988.97
G1 X98.959 Y194.192 E1.23833
G1 X60.112 Y194.192 E1.33981
G1 X58.529 Y193.798 E.05627
G1 X57.724 Y193.203 E.03452
G1 X30.256 Y165.735 E1.33981
G1 X29.415 Y164.337 E.05627
G1 X29.267 Y163.347 E.03452
G1 X29.267 Y124.5 E1.33981
G1 X29.434 Y123.45 E.03667
G1 X57.139 Y38.752 E3.07353
G1 X57.96 Y37.414 E.05416
M73 P2 R171
G1 X77.287 Y18.088 E.94265
G1 X78.685 Y17.247 E.05627
G1 X79.659 Y17.099 E.034
G1 X156.264 Y16.752 E2.64211
G1 X183.596 Y16.752 E.94265
G1 X185.179 Y17.146 E.05627
G1 X185.984 Y17.741 E.03452
G1 X205.31 Y37.068 E.94265
G1 X206.16 Y38.499 E.05742
G1 X231.125 Y122.995 E3.03879
G1 X231.264 Y123.952 E.03335
G1 X231.264 Y162.798 E1.33981
G1 X230.87 Y164.382 E.05627
G1 X230.275 Y165.186 E.03452
G1 X202.806 Y192.655 E1.33981
G1 X201.408 Y193.496 E.05627
G1 X200.436 Y193.644 E.0339
G1 X134.923 Y193.998 E2.25958
