; generated by PrusaSlicer 2.5.2+win64 on 2023-06-26 at 06:19:11 UTC


;
;
; 

; external perimeters extrusion width = 0.45mm
; perimeters extrusion width = 0.45mm
; infill extrusion width = 0.45mm
; solid infill extrusion width = 0.45mm
; top infill extrusion width = 0.40mm
; first layer extrusion width = 0.42mm

; external perimeters extrusion width = 0.45mm
; perimeters extrusion width = 0.45mm
; infill extrusion width = 0.45mm
; solid infill extrusion width = 0.45mm
; top infill extrusion width = 0.40mm
; first layer extrusion width = 0.42mm

M73 P0 R87
M73 Q0 S89
M201 X1000 Y1000 Z200 E5000 ; sets maximum accelerations, mm/sec^2
M203 X200 Y200 Z12 E120 ; sets maximum feedrates, mm / sec
M204 P1250 R1250 T1250 ; sets acceleration (P, T) and retract acceleration (R), mm/sec^2
M205 X8.00 Y8.00 Z0.40 E4.50 ; sets the jerk limits, mm/sec
M205 S0 T0 ; sets the minimum extruding and travel feed rate, mm/sec
M107
;TYPE:Custom
M862.3 P "MK3S" ; printer model check
M862.1 P0.4 ; nozzle diameter check
M115 U3.12.2 ; tell printer latest fw version
G90 ; use absolute coordinates
M83 ; extruder relative mode
M104 S240 ; set extruder temp
M140 S50 ; set bed temp
M190 S50 ; wait for bed temp
M109 S240 ; wait for extruder temp
G28 W ; home all without mesh bed level
G80 ; mesh bed leveling

G1 Z0.2 F720
G1 Y-3 F1000 ; go outside print area
G92 E0
G1 X60 E9 F1000 ; intro line
G1 X100 E12.5 F1000 ; intro line

G92 E0
M221 S95

; Don't change E values below. Excessive value can damage the printer.
M907 E430 ; set extruder motor current
G21 ; set units to millimeters
G90 ; use absolute coordinates
M83 ; use relative distances for extrusion
M900 K0 ; Filament gcode
M107
;LAYER_CHANGE
;Z:0.2
;HEIGHT:0.2
;BEFORE_LAYER_CHANGE
G92 E0.0
;0.2


G1 E-1 F2400
G1 Z.2 F720
;AFTER_LAYER_CHANGE
;0.2
G1 X69.722 Y78.324 F10800
G1 E1 F1500
M204 S800
;TYPE:Skirt/Brim
;WIDTH:0.42
G1 F1200
G1 X71.121 Y77.484 E.05627
G1 X72.11 Y77.335 E.03452
G1 X116.233 Y77.338 E1.52177
G1 X184.608 Y79.818 E2.35979
G1 X186.176 Y80.27 E.05627
G1 X187.349 Y81.403 E.05627
G1 X187.863 Y83.193 E.06423
G1 X187.863 Y134.644 E1.77453
G1 X187.468 Y136.227 E.05627
G1 X186.378 Y137.441 E.05627
G1 X184.588 Y138.02 E.0649
G1 X116.212 Y140.088 E2.35932
G1 X72.11 Y140.09 E1.52107
G1 X70.527 Y139.695 E.05627
G1 X69.722 Y139.1 E.03452
G1 X63.722 Y133.1 E.29266
G1 X62.882 Y131.702 E.05627
G1 X62.733 Y130.712 E.03452
G1 X62.733 Y86.712 E1.51755
G1 X63.127 Y85.129 E.05627
G1 X63.722 Y84.324 E.03452
G1 X69.68 Y78.367 E.29059
M204 S1000
; printing object OV-PAM_NEW_SHAPE_5_patterns_1f.stl id:0 copy 0
G1 E-1 F2400
G1 X115.9 Y80.936 F10800
G1 E1 F1500
M204 S800
;TYPE:External perimeter
;WIDTH:0.429104
G1 F1200
G1 X116.016 Y80.94 E.00412
G1 X116.183 Y81.095 E.00805
;WIDTH:0.414407
G1 X121.727 Y86.64 E.26644
;WIDTH:0.429105
G1 X121.883 Y86.807 E.00805
G1 X121.883 Y86.887 E.00283
G1 X121.891 Y87.034 E.00523
;WIDTH:0.414406
G1 X121.891 Y130.391 E1.47316
;WIDTH:0.429105
G1 X121.883 Y130.618 E.00805
G1 X121.727 Y130.785 E.00805
;WIDTH:0.414407
G1 X116.183 Y136.329 E.26644
;WIDTH:0.429104
G1 X116.016 Y136.485 E.00805
G1 X115.788 Y136.493 E.00805
;WIDTH:0.414407
G1 X72.432 Y136.493 E1.47317
;WIDTH:0.429105
G1 X72.204 Y136.485 E.00805
G1 X72.038 Y136.329 E.00805
;WIDTH:0.414407
G1 X66.493 Y130.785 E.26644
;WIDTH:0.429105
G1 X66.338 Y130.618 E.00805
G1 X66.33 Y130.391 E.00805
;WIDTH:0.414407
G1 X66.33 Y87.034 E1.47317
;WIDTH:0.429105
G1 X66.338 Y86.807 E.00805
M73 Q0 S88
G1 X66.493 Y86.64 E.00805
;WIDTH:0.414407
G1 X72.038 Y81.095 E.26644
;WIDTH:0.429105
G1 X72.204 Y80.94 E.00805
G1 X72.432 Y80.932 E.00805
;WIDTH:0.414407
G1 X115.788 Y80.932 E1.47317
;WIDTH:0.429104
G1 X115.84 Y80.934 E.00181
M204 S1000
G1 E-1 F2400
G1 X72.309 Y81.355 F10800
G1 E1 F1500
M204 S800
;WIDTH:0.414407
G1 F1200
G1 X72.432 Y81.304 E.00453
G1 X115.788 Y81.304 E1.47317
G1 X115.92 Y81.358 E.00483
M73 P0 R86
G1 X121.465 Y86.903 E.26644
G1 X121.519 Y87.034 E.00483
G1 X121.519 Y130.391 E1.47317
;WIDTH:0.417223
G1 X121.487 Y130.498 E.00384
G1 X121.465 Y130.522 E.00111
;WIDTH:0.414407
G1 X115.92 Y136.067 E.26644
G1 X115.788 Y136.121 E.00483
G1 X72.432 Y136.121 E1.47317
G1 X72.301 Y136.067 E.00483
G1 X66.756 Y130.522 E.26644
G1 X66.702 Y130.391 E.00483
G1 X66.702 Y87.034 E1.47317
G1 X66.756 Y86.903 E.00483
G1 X72.265 Y81.394 E.2647
M204 S1000
G1 X72.309 Y81.221 F10800
; stop printing object OV-PAM_NEW_SHAPE_5_patterns_1f.stl id:0 copy 0
; printing object square_OV-PAM_5_patterns_1f.stl id:1 copy 0
G1 E-1 F2400
G1 X184.2 Y83.478 F10800
G1 E1 F1500
M204 S800
;WIDTH:0.461822
G1 F1200
G1 X184.274 Y84.207 E.02806
;WIDTH:0.42
G1 X184.273 Y133.644 E1.70509
;WIDTH:0.461751
G1 X184.2 Y134.359 E.02752
G1 X183.472 Y134.433 E.02805
;WIDTH:0.420002
G1 X134.034 Y134.432 E1.7051
;WIDTH:0.461753
G1 X133.32 Y134.359 E.02752
M73 P1 R86
G1 X133.246 Y133.638 E.02778
;WIDTH:0.42
G1 X133.246 Y84.193 E1.70533
;WIDTH:0.461752
G1 X133.32 Y83.479 E.02752
M73 Q1 S88
G1 X134.041 Y83.405 E.02778
;WIDTH:0.419999
G1 X183.486 Y83.405 E1.70533
;WIDTH:0.461822
G1 X184.14 Y83.472 E.02521
M204 S1000
G1 X183.856 Y83.822 F10800
M204 S800
G1 F1200
G1 X183.897 Y84.207 E.01482
;WIDTH:0.420002
G1 X183.897 Y133.631 E1.70462
;WIDTH:0.461751
G1 X183.856 Y134.015 E.01482
G1 X183.789 Y134.033 E.00267
;WIDTH:0.436299
G1 X183.722 Y134.051 E.0025
;WIDTH:0.419999
G1 X134.048 Y134.056 E1.71323
;WIDTH:0.461753
G1 X133.663 Y134.015 E.01482
G1 X133.623 Y133.631 E.01482
;WIDTH:0.42
G1 X133.623 Y84.207 E1.70461
;WIDTH:0.461752
G1 X133.663 Y83.822 E.01482
G1 X134.048 Y83.782 E.01482
;WIDTH:0.42
G1 X183.472 Y83.782 E1.70462
;WIDTH:0.461822
G1 X183.797 Y83.816 E.01251
M204 S1000
; stop printing object square_OV-PAM_5_patterns_1f.stl id:1 copy 0
;LAYER_CHANGE
;Z:0.4
;HEIGHT:0.2
;BEFORE_LAYER_CHANGE
G92 E0.0
;0.4


G1 E-1 F2400
G1 Z.4 F720
;AFTER_LAYER_CHANGE
;0.4
G1 X183.943 Y79.794 F10800
G1 E1 F1500
;TYPE:Skirt/Brim
;WIDTH:0.42
G1 F1988.97
G1 X184.608 Y79.818 E.02296
G1 X186.176 Y80.27 E.05627
G1 X187.349 Y81.403 E.05627
G1 X187.863 Y83.193 E.06423
G1 X187.863 Y134.644 E1.77453
G1 X187.468 Y136.227 E.05627
G1 X186.378 Y137.441 E.05627
G1 X184.588 Y138.02 E.0649
G1 X116.212 Y140.088 E2.35932
G1 X72.11 Y140.09 E1.52107
G1 X70.527 Y139.695 E.05627
G1 X69.722 Y139.1 E.03452
G1 X63.722 Y133.1 E.29266
G1 X62.882 Y131.702 E.05627
G1 X62.733 Y130.712 E.03452
G1 X62.733 Y86.712 E1.51755
G1 X63.127 Y85.129 E.05627
G1 X63.722 Y84.324 E.03452
G1 X69.722 Y78.324 E.29266
G1 X71.121 Y77.484 E.05627
G1 X72.11 Y77.335 E.03452
G1 X116.233 Y77.338 E1.52177
G1 X183.883 Y79.792 E2.33476
; printing object OV-PAM_NEW_SHAPE_5_patterns_1f.stl id:0 copy 0
G1 E-1 F2400
G1 X72.362 Y81.331 F10800
G1 E1 F1500
M204 S800
;TYPE:External perimeter
;WIDTH:0.42146
G1 X72.433 Y81.302 E.00266
G1 X115.788 Y81.302 E1.50109
G1 X115.922 Y81.357 E.00502
G1 X121.466 Y86.901 E.27146
G1 X121.521 Y87.035 E.00502
G1 X121.521 Y130.39 E1.50109
G1 X121.466 Y130.524 E.00502
G1 X115.922 Y136.068 E.27146
G1 X115.788 Y136.123 E.00502
G1 X72.433 Y136.123 E1.50109
G1 X72.299 Y136.068 E.00502
G1 X66.755 Y130.524 E.27146
G1 X66.7 Y130.39 E.00502
G1 X66.7 Y87.035 E1.50109
G1 X66.755 Y86.901 E.00502
G1 X72.306 Y81.354 E.27172
M204 S1000
G1 X72.362 Y81.254 F10800
G1 E-1 F2400
G1 X115.82 Y80.924 F10800
G1 E1 F1500
M204 S800
;WIDTH:0.436437
G1 X116.02 Y80.931 E.00719
G1 X116.189 Y81.089 E.00836
;WIDTH:0.421461
G1 X121.733 Y86.633 E.27146
;WIDTH:0.436438
G1 X121.892 Y86.803 E.00836
G1 X121.892 Y86.884 E.00293
G1 X121.9 Y87.035 E.00543
;WIDTH:0.42146
G1 X121.9 Y130.39 E1.50109
;WIDTH:0.436438
G1 X121.892 Y130.622 E.00836
G1 X121.733 Y130.791 E.00836
;WIDTH:0.421461
G1 X116.189 Y136.335 E.27146
;WIDTH:0.436437
G1 X116.02 Y136.494 E.00836
G1 X115.788 Y136.502 E.00836
;WIDTH:0.42146
G1 X72.433 Y136.502 E1.50109
;WIDTH:0.436437
G1 X72.201 Y136.494 E.00836
M73 Q1 S87
G1 X72.031 Y136.335 E.00836
;WIDTH:0.421461
G1 X66.487 Y130.791 E.27146
;WIDTH:0.436437
G1 X66.329 Y130.622 E.00836
G1 X66.321 Y130.39 E.00836
;WIDTH:0.42146
G1 X66.321 Y87.035 E1.50109
;WIDTH:0.436437
G1 X66.329 Y86.803 E.00836
G1 X66.487 Y86.633 E.00836
;WIDTH:0.421461
G1 X72.031 Y81.089 E.27146
;WIDTH:0.436437
G1 X72.201 Y80.931 E.00836
G1 X72.433 Y80.923 E.00836
;WIDTH:0.42146
G1 X115.76 Y80.923 E1.50014
M204 S1000
; stop printing object OV-PAM_NEW_SHAPE_5_patterns_1f.stl id:0 copy 0
; printing object square_OV-PAM_5_patterns_1f.stl id:1 copy 0
G1 E-1 F2400
M73 P1 R85
G1 X184.242 Y83.436 F10800
G1 E1 F1500
M204 S800
;WIDTH:0.48641
G1 X184.242 Y83.658 E.00899
G1 X184.258 Y83.815 E.00639
;WIDTH:0.453937
G1 X184.275 Y83.972 E.00593
;WIDTH:0.421464
G1 X184.275 Y133.866 E1.72751
;WIDTH:0.453938
G1 X184.258 Y134.133 E.01008
;WIDTH:0.486412
G1 X184.242 Y134.401 E.01088
G1 X183.975 Y134.417 E.01088
;WIDTH:0.453938
G1 X183.707 Y134.434 E.01008
;WIDTH:0.421464
G1 X133.813 Y134.434 E1.72751
;WIDTH:0.453936
G1 X133.545 Y134.417 E.01008
;WIDTH:0.486408
G1 X133.278 Y134.401 E.01088
G1 X133.261 Y134.133 E.01088
;WIDTH:0.453934
G1 X133.245 Y133.866 E.01008
;WIDTH:0.42146
G1 X133.245 Y83.972 E1.72749
;WIDTH:0.453934
G1 X133.261 Y83.704 E.01008
;WIDTH:0.486407
G1 X133.278 Y83.436 E.01088
G1 X133.545 Y83.42 E.01088
;WIDTH:0.453934
G1 X133.813 Y83.404 E.01008
;WIDTH:0.42146
G1 X183.707 Y83.404 E1.72749
;WIDTH:0.453935
G1 X183.975 Y83.42 E.01008
;WIDTH:0.48641
M73 P2 R85
M73 Q2 S87
G1 X184.182 Y83.433 E.00844
M204 S1000
G1 X183.896 Y83.972 F10800
M204 S800
;WIDTH:0.421464
G1 F1500
G1 X183.896 Y133.866 E1.72751
;WIDTH:0.453938
G1 X183.88 Y133.944 E.00301
;WIDTH:0.486412
G1 X183.864 Y134.023 E.00325
G1 X183.802 Y134.038 E.00259
;WIDTH:0.455372
G1 X183.74 Y134.054 E.00241
;WIDTH:0.424332
G1 X183.707 Y134.055 E.00115
;WIDTH:0.421464
G1 X133.813 Y134.055 E1.72751
;WIDTH:0.453936
G1 X133.735 Y134.039 E.00301
;WIDTH:0.486408
G1 X133.656 Y134.023 E.00325
G1 X133.64 Y133.944 E.00325
;WIDTH:0.453934
G1 X133.624 Y133.866 E.00301
;WIDTH:0.42146
G1 X133.624 Y83.972 E1.72749
;WIDTH:0.453934
G1 X133.64 Y83.893 E.00301
;WIDTH:0.486407
G1 X133.656 Y83.815 E.00325
G1 X133.735 Y83.799 E.00325
;WIDTH:0.453934
G1 X133.813 Y83.783 E.00301
;WIDTH:0.42146
G1 X183.707 Y83.783 E1.72749
;WIDTH:0.453935
G1 X183.785 Y83.799 E.00301
;WIDTH:0.48641
G1 X183.864 Y83.815 E.00325
G1 X183.88 Y83.893 E.00325
;WIDTH:0.453937
G1 X183.884 Y83.913 E.00075
M204 S1000
; stop printing object square_OV-PAM_5_patterns_1f.stl id:1 copy 0
;LAYER_CHANGE
;Z:0.6
;HEIGHT:0.2
;BEFORE_LAYER_CHANGE
G92 E0.0
;0.6


G1 E-1 F2400
G1 Z.6 F720
;AFTER_LAYER_CHANGE
;0.6
G1 X187.863 Y83.913 F10800
G1 E1 F1500
;TYPE:Skirt/Brim
;WIDTH:0.42
G1 F1988.97
G1 X187.863 Y134.644 E1.74971
G1 X187.468 Y136.227 E.05627
G1 X186.378 Y137.441 E.05627
G1 X184.588 Y138.02 E.0649
G1 X116.212 Y140.088 E2.35932
G1 X72.11 Y140.09 E1.52107
G1 X70.527 Y139.695 E.05627
G1 X69.722 Y139.1 E.03452
G1 X63.722 Y133.1 E.29266
G1 X62.882 Y131.702 E.05627
G1 X62.733 Y130.712 E.03452
G1 X62.733 Y86.712 E1.51755
G1 X63.127 Y85.129 E.05627
G1 X63.722 Y84.324 E.03452
G1 X69.722 Y78.324 E.29266
G1 X71.121 Y77.484 E.05627
G1 X72.11 Y77.335 E.03452
G1 X116.233 Y77.338 E1.52177
G1 X184.608 Y79.818 E2.35979
G1 X186.176 Y80.27 E.05627
G1 X187.349 Y81.403 E.05627
G1 X187.863 Y83.193 E.06423
G1 X187.863 Y83.853 E.02276
; printing object OV-PAM_NEW_SHAPE_5_patterns_1f.stl id:0 copy 0
G1 E-1 F2400
G1 X115.729 Y80.923 F10800
G1 E1 F1500
M204 S800
;TYPE:External perimeter
;WIDTH:0.42146
G1 X115.756 Y80.923 E.00093
;WIDTH:0.442781
G1 X116.019 Y80.934 E.00961
G1 X116.17 Y81.078 E.00762
;WIDTH:0.432673
G1 X121.745 Y86.653 E.2811
;WIDTH:0.442782
G1 X121.889 Y86.804 E.00762
G1 X121.889 Y86.887 E.00303
G1 X121.9 Y87.067 E.00658
;WIDTH:0.42146
G1 X121.9 Y130.358 E1.4989
;WIDTH:0.442782
G1 X121.889 Y130.621 E.00961
G1 X121.745 Y130.772 E.00762
;WIDTH:0.432673
G1 X116.17 Y136.347 E.2811
;WIDTH:0.442781
G1 X116.019 Y136.491 E.00762
G1 X115.756 Y136.502 E.00961
;WIDTH:0.42146
G1 X72.465 Y136.502 E1.4989
;WIDTH:0.442781
G1 X72.202 Y136.491 E.00961
G1 X72.051 Y136.347 E.00762
;WIDTH:0.432673
G1 X66.476 Y130.772 E.2811
;WIDTH:0.442781
G1 X66.332 Y130.621 E.00762
G1 X66.321 Y130.358 E.00961
;WIDTH:0.42146
G1 X66.321 Y87.067 E1.4989
;WIDTH:0.442781
G1 X66.332 Y86.804 E.00961
G1 X66.476 Y86.653 E.00762
;WIDTH:0.432673
G1 X72.051 Y81.078 E.2811
;WIDTH:0.442781
G1 X72.202 Y80.934 E.00762
G1 X72.465 Y80.923 E.00961
;WIDTH:0.42146
G1 X115.669 Y80.923 E1.49589
M204 S1000
G1 E-1 F2400
G1 X72.441 Y81.31 F10800
G1 E1 F1500
M204 S800
;WIDTH:0.432673
G1 X72.465 Y81.302 E.00089
;WIDTH:0.42146
G1 X115.756 Y81.302 E1.4989
;WIDTH:0.432671
G1 X115.894 Y81.353 E.00524
G1 X121.47 Y86.929 E.2811
G1 X121.521 Y87.067 E.00524
;WIDTH:0.42146
G1 X121.521 Y130.358 E1.4989
;WIDTH:0.435626
G1 X121.493 Y130.471 E.00418
G1 X121.47 Y130.496 E.00122
;WIDTH:0.432673
G1 X115.894 Y136.072 E.2811
G1 X115.756 Y136.123 E.00524
;WIDTH:0.42146
G1 X72.465 Y136.123 E1.4989
;WIDTH:0.432673
G1 X72.327 Y136.072 E.00524
G1 X66.751 Y130.496 E.2811
G1 X66.7 Y130.358 E.00524
;WIDTH:0.42146
G1 X66.7 Y87.067 E1.4989
;WIDTH:0.432673
G1 X66.751 Y86.929 E.00524
G1 X72.327 Y81.353 E.2811
G1 X72.385 Y81.331 E.00222
M204 S1000
G1 X72.442 Y81.286 F10800
; stop printing object OV-PAM_NEW_SHAPE_5_patterns_1f.stl id:0 copy 0
; printing object square_OV-PAM_5_patterns_1f.stl id:1 copy 0
G1 E-1 F2400
G1 X184.242 Y83.436 F10800
G1 E1 F1500
M204 S800
;WIDTH:0.48641
G1 X184.242 Y83.658 E.00899
G1 X184.258 Y83.815 E.00639
;WIDTH:0.453937
G1 X184.275 Y83.972 E.00593
;WIDTH:0.421464
G1 X184.275 Y133.866 E1.72751
;WIDTH:0.453938
G1 X184.258 Y134.133 E.01008
;WIDTH:0.486412
G1 X184.242 Y134.401 E.01088
G1 X183.975 Y134.417 E.01088
;WIDTH:0.453938
G1 X183.707 Y134.434 E.01008
;WIDTH:0.421464
G1 X133.813 Y134.434 E1.72751
;WIDTH:0.453936
G1 X133.545 Y134.417 E.01008
;WIDTH:0.486408
G1 X133.278 Y134.401 E.01088
G1 X133.261 Y134.133 E.01088
;WIDTH:0.453934
G1 X133.245 Y133.866 E.01008
;WIDTH:0.42146
G1 X133.245 Y83.972 E1.72749
;WIDTH:0.453934
G1 X133.261 Y83.704 E.01008
;WIDTH:0.486407
G1 X133.278 Y83.436 E.01088
G1 X133.545 Y83.42 E.01088
;WIDTH:0.453934
G1 X133.813 Y83.404 E.01008
;WIDTH:0.42146
G1 X183.707 Y83.404 E1.72749
;WIDTH:0.453935
G1 X183.975 Y83.42 E.01008
;WIDTH:0.48641
M73 Q2 S86
G1 X184.182 Y83.433 E.00844
M204 S1000
G1 X183.896 Y83.972 F10800
M204 S800
;WIDTH:0.421464
G1 F1500
G1 X183.896 Y133.866 E1.72751
;WIDTH:0.453938
G1 X183.88 Y133.944 E.00301
;WIDTH:0.486412
G1 X183.864 Y134.023 E.00325
G1 X183.802 Y134.038 E.00259
;WIDTH:0.455372
G1 X183.74 Y134.054 E.00241
;WIDTH:0.424332
G1 X183.707 Y134.055 E.00115
;WIDTH:0.421464
G1 X133.813 Y134.055 E1.72751
;WIDTH:0.453936
G1 X133.735 Y134.039 E.00301
;WIDTH:0.486408
G1 X133.656 Y134.023 E.00325
G1 X133.64 Y133.944 E.00325
;WIDTH:0.453934
G1 X133.624 Y133.866 E.00301
;WIDTH:0.42146
G1 X133.624 Y83.972 E1.72749
;WIDTH:0.453934
G1 X133.64 Y83.893 E.00301
;WIDTH:0.486407
M73 P3 R84
G1 X133.656 Y83.815 E.00325
G1 X133.735 Y83.799 E.00325
;WIDTH:0.453934
G1 X133.813 Y83.783 E.00301
;WIDTH:0.42146
G1 X183.707 Y83.783 E1.72749
;WIDTH:0.453935
G1 X183.785 Y83.799 E.00301
;WIDTH:0.48641
M73 Q3 S86
G1 X183.864 Y83.815 E.00325
G1 X183.88 Y83.893 E.00325
;WIDTH:0.453937
G1 X183.884 Y83.913 E.00075
M204 S1000
; stop printing object square_OV-PAM_5_patterns_1f.stl id:1 copy 0
;LAYER_CHANGE
;Z:0.8
;HEIGHT:0.2
;BEFORE_LAYER_CHANGE
G92 E0.0
;0.8


G1 E-1 F2400
G1 Z.8 F720
;AFTER_LAYER_CHANGE
;0.8
; printing object OV-PAM_NEW_SHAPE_5_patterns_1f.stl id:0 copy 0
G1 X115.697 Y80.952 F10800
G1 E1 F1500
M204 S800
;WIDTH:0.491857
G1 X115.775 Y80.958 E.00319
;WIDTH:0.529241
G1 X116.001 Y80.977 E.01008
G1 X121.846 Y86.822 E.36769
G1 X121.846 Y86.923 E.00448
G1 X121.864 Y87.098 E.00785
;WIDTH:0.491857
G1 X121.883 Y87.274 E.00725
;WIDTH:0.454472
G1 X121.883 Y130.151 E1.61402
;WIDTH:0.491857
G1 X121.864 Y130.377 E.00931
;WIDTH:0.529241
G1 X121.846 Y130.603 E.01008
G1 X116.001 Y136.448 E.36769
G1 X115.775 Y136.466 E.01008
;WIDTH:0.491857
G1 X115.549 Y136.485 E.00931
;WIDTH:0.454473
G1 X72.672 Y136.485 E1.61403
;WIDTH:0.491857
G1 X72.446 Y136.466 E.00931
;WIDTH:0.529241
G1 X72.22 Y136.448 E.01008
G1 X66.375 Y130.603 E.36769
G1 X66.356 Y130.377 E.01008
