; generated by PrusaSlicer 2.5.2+win64 on 2023-10-26 at 05:52:26 UTC


;
;
; 

; external perimeters extrusion width = 0.50mm
; perimeters extrusion width = 0.50mm
; infill extrusion width = 0.50mm
; solid infill extrusion width = 0.50mm
; top infill extrusion width = 0.50mm
; first layer extrusion width = 0.50mm

M73 P0 R27
M73 Q0 S27
M201 X1000 Y1000 Z200 E5000 ; sets maximum accelerations, mm/sec^2
M203 X200 Y200 Z12 E120 ; sets maximum feedrates, mm / sec
M204 P1250 R1250 T1250 ; sets acceleration (P, T) and retract acceleration (R), mm/sec^2
M205 X8.00 Y8.00 Z0.40 E4.50 ; sets the jerk limits, mm/sec
M205 S0 T0 ; sets the minimum extruding and travel feed rate, mm/sec
M107
;TYPE:Custom
M862.3 P "MK3S" ; printer model check
M862.1 P0.4 ; nozzle diameter check
M115 U3.12.2 ; tell printer latest fw version
G90 ; use absolute coordinates
M83 ; extruder relative mode
M104 S240 ; set extruder temp
M140 S60 ; set bed temp
M190 S60 ; wait for bed temp
M109 S240 ; wait for extruder temp
G28 W ; home all without mesh bed level
G80 ; mesh bed leveling

G1 Z0.2 F720
G1 Y-3 F1000 ; go outside print area
G92 E0
G1 X60 E9 F1000 ; intro line
G1 X100 E12.5 F1000 ; intro line

G92 E0
M221 S95

; Don't change E values below. Excessive value can damage the printer.
M907 E430 ; set extruder motor current
G21 ; set units to millimeters
G90 ; use absolute coordinates
M83 ; use relative distances for extrusion
M900 K0 ; Filament gcode
M107
;LAYER_CHANGE
;Z:0.2
;HEIGHT:0.2
;BEFORE_LAYER_CHANGE
G92 E0.0
;0.2


G1 E-1 F2400
G1 Z.2 F720
;AFTER_LAYER_CHANGE
;0.2
G1 X89.164 Y88.724 F4200
G1 E1 F1500
M204 S300
;TYPE:Skirt/Brim
;WIDTH:0.5
G1 F1200
G1 X108.724 Y69.164 E1.1565
G1 X110.136 Y68.309 E.06902
G1 X111.169 Y68.151 E.04365
G1 X138.831 Y68.151 E1.1565
G1 X140.435 Y68.545 E.06902
G1 X141.276 Y69.164 E.04365
G1 X160.836 Y88.724 E1.1565
G1 X161.691 Y90.136 E.06902
G1 X161.849 Y91.169 E.04365
G1 X161.849 Y118.831 E1.1565
G1 X161.455 Y120.435 E.06902
G1 X160.836 Y121.276 E.04365
G1 X141.276 Y140.836 E1.1565
G1 X139.864 Y141.691 E.06902
G1 X138.831 Y141.849 E.04365
G1 X111.169 Y141.849 E1.1565
G1 X109.565 Y141.455 E.06902
M73 P1 R27
M73 Q1 S27
G1 X108.724 Y140.836 E.04365
G1 X89.164 Y121.276 E1.1565
G1 X88.309 Y119.864 E.06902
G1 X88.151 Y118.831 E.04365
G1 X88.151 Y91.169 E1.1565
G1 X88.545 Y89.565 E.06902
G1 X89.128 Y88.772 E.04114
; printing object OV-PAM_standard_1F.stl id:0 copy 0
G1 E-1 F2400
G1 X158.038 Y118.578 F4200
G1 E1 F1500
;TYPE:External perimeter
;WIDTH:0.770616
G1 F1030.65
G1 X158.028 Y118.681 E.00685
G1 X157.939 Y118.789 E.00931
G1 X138.789 Y137.939 E1.80261
G1 X138.681 Y138.028 E.00931
G1 X138.541 Y138.042 E.00931
G1 X111.459 Y138.042 E1.80261
G1 X111.319 Y138.028 E.00931
G1 X111.211 Y137.939 E.00931
G1 X92.061 Y118.789 E1.80261
G1 X91.972 Y118.681 E.00931
G1 X91.958 Y118.541 E.00931
G1 X91.958 Y91.459 E1.80261
G1 X91.972 Y91.319 E.00931
M73 P1 R26
M73 Q1 S26
G1 X92.061 Y91.211 E.00931
G1 X111.211 Y72.061 E1.80261
G1 X111.319 Y71.972 E.00931
G1 X111.459 Y71.958 E.00931
G1 X138.541 Y71.958 E1.80261
G1 X138.681 Y71.972 E.00931
G1 X138.789 Y72.061 E.00931
G1 X157.939 Y91.211 E1.80261
G1 X158.028 Y91.319 E.00931
G1 X158.042 Y91.459 E.00931
G1 X158.042 Y118.518 E1.80108
G1 X158.124 Y118.635 F4200
; stop printing object OV-PAM_standard_1F.stl id:0 copy 0
;LAYER_CHANGE
;Z:0.4
;HEIGHT:0.2
;BEFORE_LAYER_CHANGE
G92 E0.0
;0.4


M73 P2 R26
M73 Q2 S26
G1 E-1 F2400
G1 Z.4 F720
;AFTER_LAYER_CHANGE
;0.4
G1 X161.704 Y119.419 F4200
G1 E1 F1500
;TYPE:Skirt/Brim
;WIDTH:0.5
G1 F1200
G1 X161.455 Y120.435 E.04372
G1 X160.836 Y121.276 E.04365
G1 X141.276 Y140.836 E1.1565
G1 X139.864 Y141.691 E.06902
G1 X138.831 Y141.849 E.04365
G1 X111.169 Y141.849 E1.1565
G1 X109.565 Y141.455 E.06902
G1 X108.724 Y140.836 E.04365
G1 X89.164 Y121.276 E1.1565
G1 X88.309 Y119.864 E.06902
G1 X88.151 Y118.831 E.04365
G1 X88.151 Y91.169 E1.1565
G1 X88.545 Y89.565 E.06902
G1 X89.164 Y88.724 E.04365
G1 X108.724 Y69.164 E1.1565
G1 X110.136 Y68.309 E.06902
G1 X111.169 Y68.151 E.04365
G1 X138.831 Y68.151 E1.1565
G1 X140.435 Y68.545 E.06902
G1 X141.276 Y69.164 E.04365
G1 X160.836 Y88.724 E1.1565
G1 X161.691 Y90.136 E.06902
G1 X161.849 Y91.169 E.04365
G1 X161.849 Y118.831 E1.1565
G1 X161.719 Y119.361 E.02279
; printing object OV-PAM_standard_1F.stl id:0 copy 0
G1 E-1 F2400
G1 X158.204 Y118.601 F4200
G1 X158.206 Y118.578
G1 X158.04 Y118.564
G1 E1 F1500
;TYPE:External perimeter
;WIDTH:0.770616
G1 F1030.65
G1 X158.028 Y118.681 E.00778
G1 X157.939 Y118.789 E.00931
G1 X138.789 Y137.939 E1.80261
G1 X138.681 Y138.028 E.00931
G1 X138.541 Y138.042 E.00931
G1 X111.459 Y138.042 E1.80261
G1 X111.319 Y138.028 E.00931
M73 P3 R26
M73 Q3 S26
G1 X111.211 Y137.939 E.00931
G1 X92.061 Y118.789 E1.80261
G1 X91.972 Y118.681 E.00931
G1 X91.958 Y118.541 E.00931
G1 X91.958 Y91.459 E1.80261
G1 X91.972 Y91.319 E.00931
G1 X92.061 Y91.211 E.00931
G1 X111.211 Y72.061 E1.80261
G1 X111.319 Y71.972 E.00931
G1 X111.459 Y71.958 E.00931
G1 X138.541 Y71.958 E1.80261
G1 X138.681 Y71.972 E.00931
G1 X138.789 Y72.061 E.00931
G1 X157.939 Y91.211 E1.80261
G1 X158.028 Y91.319 E.00931
G1 X158.042 Y91.459 E.00931
G1 X158.042 Y118.505 E1.80015
G1 X158.137 Y118.629 F4200
; stop printing object OV-PAM_standard_1F.stl id:0 copy 0
;LAYER_CHANGE
;Z:0.6
;HEIGHT:0.2
;BEFORE_LAYER_CHANGE
G92 E0.0
;0.6


G1 E-1 F2400
G1 Z.6 F720
;AFTER_LAYER_CHANGE
;0.6
G1 X161.708 Y119.406 F4200
G1 E1 F1500
;TYPE:Skirt/Brim
;WIDTH:0.5
G1 F1200
G1 X161.455 Y120.435 E.04429
G1 X160.836 Y121.276 E.04365
G1 X141.276 Y140.836 E1.1565
G1 X139.864 Y141.691 E.06902
G1 X138.831 Y141.849 E.04365
G1 X111.169 Y141.849 E1.1565
G1 X109.565 Y141.455 E.06902
G1 X108.724 Y140.836 E.04365
G1 X89.164 Y121.276 E1.1565
G1 X88.309 Y119.864 E.06902
G1 X88.151 Y118.831 E.04365
G1 X88.151 Y91.169 E1.1565
G1 X88.545 Y89.565 E.06902
M73 P4 R26
M73 Q4 S26
G1 X89.164 Y88.724 E.04365
G1 X108.724 Y69.164 E1.1565
G1 X110.136 Y68.309 E.06902
G1 X111.169 Y68.151 E.04365
G1 X138.831 Y68.151 E1.1565
G1 X140.435 Y68.545 E.06902
G1 X141.276 Y69.164 E.04365
G1 X160.836 Y88.724 E1.1565
G1 X161.691 Y90.136 E.06902
G1 X161.849 Y91.169 E.04365
G1 X161.849 Y118.831 E1.1565
G1 X161.722 Y119.348 E.02223
; printing object OV-PAM_standard_1F.stl id:0 copy 0
G1 E-1 F2400
G1 X158.205 Y118.585 F4200
G1 X158.207 Y118.563
G1 X158.041 Y118.549
G1 E1 F1500
;TYPE:External perimeter
;WIDTH:0.770616
G1 F1030.65
G1 X158.028 Y118.681 E.00884
G1 X157.939 Y118.789 E.00931
G1 X138.789 Y137.939 E1.80261
G1 X138.681 Y138.028 E.00931
G1 X138.541 Y138.042 E.00931
G1 X111.459 Y138.042 E1.80261
G1 X111.319 Y138.028 E.00931
G1 X111.211 Y137.939 E.00931
G1 X92.061 Y118.789 E1.80261
G1 X91.972 Y118.681 E.00931
G1 X91.958 Y118.541 E.00931
G1 X91.958 Y91.459 E1.80261
G1 X91.972 Y91.319 E.00931
G1 X92.061 Y91.211 E.00931
G1 X111.211 Y72.061 E1.80261
G1 X111.319 Y71.972 E.00931
G1 X111.459 Y71.958 E.00931
G1 X138.541 Y71.958 E1.80261
G1 X138.681 Y71.972 E.00931
G1 X138.789 Y72.061 E.00931
G1 X157.939 Y91.211 E1.80261
G1 X158.028 Y91.319 E.00931
M73 P5 R26
M73 Q5 S26
G1 X158.042 Y91.459 E.00931
G1 X158.042 Y118.489 E1.79909
G1 X158.152 Y118.622 F4200
; stop printing object OV-PAM_standard_1F.stl id:0 copy 0
;LAYER_CHANGE
;Z:0.8
;HEIGHT:0.2
;BEFORE_LAYER_CHANGE
G92 E0.0
;0.8


G1 E-1 F2400
G1 Z.8 F720
;AFTER_LAYER_CHANGE
;0.8
; printing object OV-PAM_standard_1F.stl id:0 copy 0
G1 X158.042 Y118.528 F4200
G1 E1 F1500
G1 F1030.65
G1 X158.028 Y118.681 E.01023
G1 X157.939 Y118.789 E.00931
G1 X138.789 Y137.939 E1.80261
G1 X138.681 Y138.028 E.00931
G1 X138.541 Y138.042 E.00931
G1 X111.459 Y138.042 E1.80261
G1 X111.319 Y138.028 E.00931
M73 P5 R25
M73 Q5 S25
G1 X111.211 Y137.939 E.00931
G1 X92.061 Y118.789 E1.80261
G1 X91.972 Y118.681 E.00931
G1 X91.958 Y118.541 E.00931
G1 X91.958 Y91.459 E1.80261
G1 X91.972 Y91.319 E.00931
G1 X92.061 Y91.211 E.00931
G1 X111.211 Y72.061 E1.80261
G1 X111.319 Y71.972 E.00931
G1 X111.459 Y71.958 E.00931
G1 X138.541 Y71.958 E1.80261
G1 X138.681 Y71.972 E.00931
G1 X138.789 Y72.061 E.00931
G1 X157.939 Y91.211 E1.80261
G1 X158.028 Y91.319 E.00931
G1 X158.042 Y91.459 E.00931
G1 X158.042 Y118.468 E1.79769
G1 X158.17 Y118.612 F4200
; stop printing object OV-PAM_standard_1F.stl id:0 copy 0
;LAYER_CHANGE
;Z:1
;HEIGHT:0.2
;BEFORE_LAYER_CHANGE
G92 E0.0
;1


G1 E-1 F2400
G1 Z1 F720
;AFTER_LAYER_CHANGE
;1
; printing object OV-PAM_standard_1F.stl id:0 copy 0
G1 X158.042 Y118.503 F4200
G1 E1 F1500
G1 F1030.65
G1 X158.028 Y118.681 E.01184
G1 X157.939 Y118.789 E.00931
G1 X138.789 Y137.939 E1.80261
G1 X138.681 Y138.028 E.00931
M73 P6 R25
M73 Q6 S25
G1 X138.541 Y138.042 E.00931
G1 X111.459 Y138.042 E1.80261
G1 X111.319 Y138.028 E.00931
G1 X111.211 Y137.939 E.00931
G1 X92.061 Y118.789 E1.80261
G1 X91.972 Y118.681 E.00931
G1 X91.958 Y118.541 E.00931
G1 X91.958 Y91.459 E1.80261
G1 X91.972 Y91.319 E.00931
G1 X92.061 Y91.211 E.00931
G1 X111.211 Y72.061 E1.80261
G1 X111.319 Y71.972 E.00931
G1 X111.459 Y71.958 E.00931
G1 X138.541 Y71.958 E1.80261
G1 X138.681 Y71.972 E.00931
G1 X138.789 Y72.061 E.00931
G1 X157.939 Y91.211 E1.80261
G1 X158.028 Y91.319 E.00931
G1 X158.042 Y91.459 E.00931
G1 X158.042 Y118.443 E1.79607
G1 X158.191 Y118.6 F4200
; stop printing object OV-PAM_standard_1F.stl id:0 copy 0
;LAYER_CHANGE
;Z:1.2
;HEIGHT:0.2
;BEFORE_LAYER_CHANGE
G92 E0.0
;1.2


G1 E-1 F2400
G1 Z1.2 F720
;AFTER_LAYER_CHANGE
;1.2
; printing object OV-PAM_standard_1F.stl id:0 copy 0
G1 X158.032 Y118.472 F4200
G1 E1 F1500
;WIDTH:0.791009
G1 F1002.555
G1 X158.018 Y118.676 E.01403
G1 X157.927 Y118.788 E.00984
G1 X138.788 Y137.927 E1.85201
G1 X138.676 Y138.018 E.00984
G1 X138.533 Y138.032 E.00984
G1 X111.467 Y138.032 E1.85201
G1 X111.324 Y138.018 E.00984
G1 X111.212 Y137.927 E.00984
G1 X92.073 Y118.788 E1.85201
G1 X91.982 Y118.676 E.00984
M73 P7 R25
M73 Q7 S25
G1 X91.968 Y118.533 E.00984
G1 X91.968 Y91.467 E1.85201
G1 X91.982 Y91.324 E.00984
G1 X92.073 Y91.212 E.00984
G1 X111.212 Y72.073 E1.85201
G1 X111.324 Y71.982 E.00984
G1 X111.467 Y71.968 E.00984
G1 X138.533 Y71.968 E1.85201
G1 X138.676 Y71.982 E.00984
G1 X138.788 Y72.073 E.00984
G1 X157.927 Y91.212 E1.85201
G1 X158.018 Y91.324 E.00984
G1 X158.032 Y91.467 E.00984
G1 X158.032 Y118.412 E1.8437
G1 X158.205 Y118.582 F4200
; stop printing object OV-PAM_standard_1F.stl id:0 copy 0
;LAYER_CHANGE
;Z:1.4
;HEIGHT:0.2
;BEFORE_LAYER_CHANGE
G92 E0.0
;1.4


G1 E-1 F2400
G1 Z1.4 F720
;AFTER_LAYER_CHANGE
;1.4
; printing object OV-PAM_standard_1F.stl id:0 copy 0
G1 X157.845 Y118.416 F4200
G1 E1 F1500
;WIDTH:0.643113
G1 F1200
G1 X157.834 Y118.6 E.01012
G1 X157.761 Y118.69 E.00634
G1 X138.6 Y137.834 E1.48692
G1 X111.4 Y137.834 E1.49323
G1 X92.166 Y118.6 E1.49323
G1 X92.166 Y91.4 E1.49323
G1 X111.4 Y72.166 E1.49323
G1 X138.6 Y72.166 E1.49323
G1 X157.834 Y91.4 E1.49323
M73 P8 R25
M73 Q8 S25
G1 X157.845 Y118.356 E1.47984
G1 X158.013 Y118.494 F4200
; stop printing object OV-PAM_standard_1F.stl id:0 copy 0
;LAYER_CHANGE
;Z:1.6
;HEIGHT:0.2
;BEFORE_LAYER_CHANGE
G92 E0.0
;1.6


G1 E-1 F2400
G1 Z1.6 F720
;AFTER_LAYER_CHANGE
;1.6
; printing object OV-PAM_standard_1F.stl id:0 copy 0
G1 X157.73 Y118.358 F4200
G1 E1 F1500
;WIDTH:0.645775
G1 F1200
G1 X157.722 Y118.547 E.01044
G1 X157.645 Y118.642 E.00673
G1 X138.559 Y137.717 E1.48794
G1 X138.438 Y137.73 E.00673
G1 X111.453 Y137.722 E1.48794
G1 X111.358 Y137.645 E.00673
G1 X92.283 Y118.559 E1.48794
G1 X92.27 Y118.438 E.00673
G1 X92.278 Y91.453 E1.48794
G1 X92.355 Y91.358 E.00673
G1 X111.441 Y72.283 E1.48794
G1 X111.562 Y72.27 E.00673
G1 X138.547 Y72.278 E1.48794
G1 X138.642 Y72.355 E.00673
G1 X157.717 Y91.441 E1.48794
G1 X157.73 Y91.562 E.00673
G1 X157.73 Y118.298 E1.4742
G1 X157.564 Y118.448 F4200
; stop printing object OV-PAM_standard_1F.stl id:0 copy 0
;LAYER_CHANGE
;Z:1.8
;HEIGHT:0.2
;BEFORE_LAYER_CHANGE
G92 E0.0
;1.8


G1 E-1 F2400
G1 Z1.8 F720
;AFTER_LAYER_CHANGE
;1.8
; printing object OV-PAM_standard_1F.stl id:0 copy 0
G1 X157.615 Y118.19 F4200
G1 E1 F1500
;WIDTH:0.664647
G1 F1200
G1 X157.627 Y118.465 E.01567
G1 X157.53 Y118.594 E.00919
G1 X138.642 Y137.482 E1.51898
G1 X138.55 Y137.592 E.0082
M73 P9 R24
M73 Q9 S24
G1 X138.39 Y137.615 E.00919
G1 X111.678 Y137.615 E1.51898
G1 X111.535 Y137.627 E.0082
G1 X111.406 Y137.53 E.00919
G1 X92.518 Y118.642 E1.51898
G1 X92.408 Y118.55 E.0082
G1 X92.385 Y118.39 E.00919
G1 X92.385 Y91.678 E1.51898
G1 X92.373 Y91.535 E.0082
G1 X92.47 Y91.406 E.00919
G1 X111.358 Y72.518 E1.51898
G1 X111.45 Y72.408 E.0082
G1 X111.61 Y72.385 E.00919
G1 X138.322 Y72.385 E1.51898
G1 X138.465 Y72.373 E.0082
G1 X138.594 Y72.47 E.00919
G1 X157.482 Y91.358 E1.51898
G1 X157.592 Y91.45 E.0082
G1 X157.615 Y91.61 E.00919
G1 X157.615 Y118.13 E1.50808
G1 X157.38 Y118.335 F4200
; stop printing object OV-PAM_standard_1F.stl id:0 copy 0
;LAYER_CHANGE
;Z:2
;HEIGHT:0.2
;BEFORE_LAYER_CHANGE
G92 E0.0
;2


G1 E-1 F2400
G1 Z2 F720
;AFTER_LAYER_CHANGE
;2
; printing object OV-PAM_standard_1F.stl id:0 copy 0
G1 X157.499 Y118.106 F4200
G1 E1 F1500
;WIDTH:0.62027
G1 F1200
G1 X157.515 Y118.246 E.00745
;WIDTH:0.683644
G1 F1170.551
G1 X157.538 Y118.365 E.0071
;WIDTH:0.700722
G1 F1140.161
G1 X157.415 Y118.546 E.01319
;WIDTH:0.62027
G1 F1200
G1 X138.681 Y137.279 E1.39901
G1 X138.625 Y137.358 E.00512
;WIDTH:0.683641
G1 F1170.557
G1 X138.557 Y137.459 E.0071
G1 X138.342 Y137.499 E.01285
;WIDTH:0.62027
G1 F1200
G1 X111.849 Y137.499 E1.39901
G1 X111.754 Y137.515 E.00512
;WIDTH:0.683644
G1 F1170.551
G1 X111.635 Y137.538 E.0071
G1 X111.454 Y137.415 E.01285
;WIDTH:0.62027
G1 F1200
G1 X92.721 Y118.681 E1.39901
G1 X92.642 Y118.625 E.00512
;WIDTH:0.683641
G1 F1170.557
G1 X92.541 Y118.557 E.0071
G1 X92.501 Y118.342 E.01285
;WIDTH:0.62027
G1 F1200
G1 X92.501 Y91.849 E1.39901
G1 X92.485 Y91.754 E.00512
;WIDTH:0.683644
G1 F1170.551
G1 X92.462 Y91.635 E.0071
G1 X92.585 Y91.454 E.01285
;WIDTH:0.62027
G1 F1200
G1 X111.319 Y72.721 E1.39901
G1 X111.375 Y72.642 E.00512
;WIDTH:0.683641
M73 P10 R24
M73 Q10 S24
G1 F1170.557
G1 X111.443 Y72.541 E.0071
G1 X111.658 Y72.501 E.01285
;WIDTH:0.62027
G1 F1200
G1 X138.151 Y72.501 E1.39901
G1 X138.246 Y72.485 E.00512
;WIDTH:0.683644
G1 F1170.551
G1 X138.365 Y72.462 E.0071
G1 X138.546 Y72.585 E.01285
;WIDTH:0.62027
G1 F1200
G1 X157.279 Y91.319 E1.39901
G1 X157.358 Y91.375 E.00512
;WIDTH:0.683641
G1 F1170.557
G1 X157.459 Y91.443 E.0071
G1 X157.499 Y91.658 E.01285
;WIDTH:0.62027
G1 F1200
G1 X157.499 Y118.046 E1.3935
; stop printing object OV-PAM_standard_1F.stl id:0 copy 0
;LAYER_CHANGE
;Z:2.2
;HEIGHT:0.2
;BEFORE_LAYER_CHANGE
G92 E0.0
;2.2


G1 E-1 F2400
G1 Z2.2 F720
;AFTER_LAYER_CHANGE
;2.2
; printing object OV-PAM_standard_1F.stl id:0 copy 0
G1 X157.439 Y118.28 F4200
G1 E1 F1500
;WIDTH:0.751576
G1 F1058.343
G1 X157.366 Y118.396 E.00888
;WIDTH:0.669799
G1 F1196.404
G1 X157.299 Y118.498 E.007
G1 X138.72 Y137.077 E1.50649
G1 X138.622 Y137.238 E.01082
;WIDTH:0.751576
G1 F1058.342
G1 X138.572 Y137.318 E.00612
G1 X138.414 Y137.359 E.01061
;WIDTH:0.669799
G1 F1196.403
G1 X138.294 Y137.384 E.007
G1 X112.02 Y137.384 E1.50649
G1 X111.837 Y137.427 E.01082
;WIDTH:0.751576
G1 F1058.341
G1 X111.745 Y137.449 E.00612
G1 X111.604 Y137.366 E.01061
;WIDTH:0.669799
G1 F1196.404
G1 X111.502 Y137.299 E.007
G1 X92.923 Y118.72 E1.50649
G1 X92.762 Y118.622 E.01082
;WIDTH:0.751576
G1 F1058.342
G1 X92.682 Y118.572 E.00612
G1 X92.641 Y118.414 E.01061
;WIDTH:0.669799
G1 F1196.403
G1 X92.616 Y118.294 E.007
G1 X92.616 Y92.02 E1.50649
G1 X92.573 Y91.837 E.01082
;WIDTH:0.751576
G1 F1058.341
G1 X92.551 Y91.745 E.00612
G1 X92.634 Y91.604 E.01061
;WIDTH:0.669799
G1 F1196.404
G1 X92.701 Y91.502 E.007
G1 X111.28 Y72.923 E1.50649
G1 X111.378 Y72.762 E.01082
;WIDTH:0.751576
G1 F1058.342
G1 X111.428 Y72.682 E.00612
G1 X111.586 Y72.641 E.01061
;WIDTH:0.669799
G1 F1196.403
G1 X111.706 Y72.616 E.007
G1 X137.98 Y72.616 E1.50649
G1 X138.163 Y72.573 E.01082
;WIDTH:0.751574
G1 F1058.344
G1 X138.255 Y72.551 E.00612
G1 X138.396 Y72.634 E.01061
;WIDTH:0.669799
G1 F1196.404
G1 X138.498 Y72.701 E.007
G1 X157.077 Y91.28 E1.50649
G1 X157.238 Y91.378 E.01082
;WIDTH:0.751576
G1 F1058.342
G1 X157.318 Y91.428 E.00612
G1 X157.359 Y91.586 E.01061
;WIDTH:0.669799
G1 F1196.403
G1 X157.384 Y91.706 E.007
