; generated by PrusaSlicer 2.5.2+win64 on 2023-08-31 at 05:38:00 UTC


;
;
; 

; external perimeters extrusion width = 0.60mm
; perimeters extrusion width = 0.60mm
; infill extrusion width = 0.60mm
; solid infill extrusion width = 0.60mm
; top infill extrusion width = 0.60mm
; first layer extrusion width = 0.60mm

M73 P0 R30
M73 Q0 S30
M201 X1000 Y1000 Z200 E5000 ; sets maximum accelerations, mm/sec^2
M203 X200 Y200 Z12 E120 ; sets maximum feedrates, mm / sec
M204 P1250 R1250 T1250 ; sets acceleration (P, T) and retract acceleration (R), mm/sec^2
M205 X8.00 Y8.00 Z0.40 E4.50 ; sets the jerk limits, mm/sec
M205 S0 T0 ; sets the minimum extruding and travel feed rate, mm/sec
M107
;TYPE:Custom
M862.3 P "MK3S" ; printer model check
M862.1 P0.4 ; nozzle diameter check
M115 U3.12.2 ; tell printer latest fw version
G90 ; use absolute coordinates
M83 ; extruder relative mode
M104 S240 ; set extruder temp
M140 S50 ; set bed temp
M190 S50 ; wait for bed temp
M109 S240 ; wait for extruder temp
G28 W ; home all without mesh bed level
G80 ; mesh bed leveling

G1 Z0.2 F720
G1 Y-3 F1000 ; go outside print area
G92 E0
G1 X60 E9 F1000 ; intro line
G1 X100 E12.5 F1000 ; intro line

G92 E0
M221 S95

; Don't change E values below. Excessive value can damage the printer.
M907 E430 ; set extruder motor current
G21 ; set units to millimeters
G90 ; use absolute coordinates
M83 ; use relative distances for extrusion
M900 K0 ; Filament gcode
M107
;LAYER_CHANGE
;Z:0.2
;HEIGHT:0.2
;BEFORE_LAYER_CHANGE
G92 E0.0
;0.2


G1 E-1 F2400
G1 Z.2 F720
;AFTER_LAYER_CHANGE
;0.2
G1 X93.859 Y81.016 F4200
G1 E1 F1500
M204 S300
;TYPE:Skirt/Brim
;WIDTH:0.6
G1 F1200
G1 X111.813 Y67.972 E1.13077
G1 X113.904 Y67.293 E.11202
G1 X136.096 Y67.293 E1.13077
G1 X138.187 Y67.972 E.11202
G1 X156.141 Y81.016 E1.13077
G1 X157.433 Y82.795 E.11202
G1 X164.291 Y103.901 E1.13077
G1 X164.291 Y106.099 E.11202
G1 X157.433 Y127.205 E1.13077
G1 X156.141 Y128.984 E.11202
G1 X138.187 Y142.028 E1.13077
G1 X136.096 Y142.707 E.11202
G1 X113.904 Y142.707 E1.13077
G1 X111.813 Y142.028 E.11202
G1 X93.859 Y128.984 E1.13077
G1 X92.567 Y127.205 E.11202
G1 X85.709 Y106.099 E1.13077
G1 X85.709 Y103.901 E.11202
M73 P1 R30
M73 Q1 S30
G1 X92.567 Y82.795 E1.13077
G1 X93.824 Y81.065 E.10896
; printing object OV-PAM_n_10_1F.stl id:0 copy 0
G1 E-1 F2400
G1 X89.415 Y105 F4200
G1 E1 F1500
;TYPE:External perimeter
;WIDTH:0.657971
G1 F1200
G1 X96.212 Y84.084 E1.2372
G1 X113.922 Y71.207 E1.23186
G1 X114.004 Y71.157 E.00536
G1 X114.099 Y71.15 E.00536
G1 X135.996 Y71.157 E1.23186
G1 X153.716 Y84.022 E1.23186
G1 X153.788 Y84.084 E.00536
G1 X153.825 Y84.172 E.00536
G1 X160.585 Y105 E1.23186
G1 X153.788 Y125.916 E1.2372
G1 X136.078 Y138.793 E1.23186
G1 X135.996 Y138.843 E.00536
G1 X135.901 Y138.85 E.00536
G1 X114.004 Y138.843 E1.23186
G1 X96.284 Y125.978 E1.23186
G1 X96.212 Y125.916 E.00536
G1 X96.175 Y125.828 E.00536
G1 X89.429 Y105.058 E1.22849
G1 X89.092 Y104.765 F4200
; stop printing object OV-PAM_n_10_1F.stl id:0 copy 0
;LAYER_CHANGE
;Z:0.4
;HEIGHT:0.2
;BEFORE_LAYER_CHANGE
G92 E0.0
;0.4


G1 E-1 F2400
G1 Z.4 F720
;AFTER_LAYER_CHANGE
;0.4
G1 X85.709 Y105.058 F4200
G1 E1 F1500
;TYPE:Skirt/Brim
;WIDTH:0.6
G1 F1346.307
G1 X85.709 Y103.901 E.05898
G1 X92.567 Y82.795 E1.13077
G1 X93.859 Y81.016 E.11202
G1 X111.813 Y67.972 E1.13077
G1 X113.904 Y67.293 E.11202
G1 X136.096 Y67.293 E1.13077
G1 X138.187 Y67.972 E.11202
G1 X156.141 Y81.016 E1.13077
G1 X157.433 Y82.795 E.11202
G1 X164.291 Y103.901 E1.13077
G1 X164.291 Y106.099 E.11202
M73 P2 R30
M73 Q2 S30
G1 X157.433 Y127.205 E1.13077
G1 X156.141 Y128.984 E.11202
G1 X138.187 Y142.028 E1.13077
G1 X136.096 Y142.707 E.11202
G1 X113.904 Y142.707 E1.13077
G1 X111.813 Y142.028 E.11202
M73 P2 R29
M73 Q2 S29
G1 X93.859 Y128.984 E1.13077
G1 X92.567 Y127.205 E.11202
G1 X85.709 Y106.099 E1.13077
G1 X85.709 Y105.118 E.04998
; printing object OV-PAM_n_10_1F.stl id:0 copy 0
G1 E-1 F2400
G1 X89.21 Y105.024 F4200
G1 X89.224 Y105.076
G1 X89.42 Y105.02
G1 E1 F1500
;TYPE:External perimeter
;WIDTH:0.657971
G1 F1200
G1 X89.438 Y104.907 E.00641
G1 X96.212 Y84.084 E1.23186
G1 X113.922 Y71.207 E1.23186
G1 X114.004 Y71.157 E.00536
G1 X114.099 Y71.15 E.00536
G1 X135.996 Y71.157 E1.23186
G1 X153.716 Y84.022 E1.23186
G1 X153.788 Y84.084 E.00536
G1 X153.825 Y84.172 E.00536
G1 X160.585 Y105 E1.23186
G1 X153.788 Y125.916 E1.2372
G1 X136.078 Y138.793 E1.23186
G1 X135.996 Y138.843 E.00536
G1 X135.901 Y138.85 E.00536
G1 X114.004 Y138.843 E1.23186
G1 X96.284 Y125.978 E1.23186
G1 X96.212 Y125.916 E.00536
G1 X96.175 Y125.828 E.00536
G1 X89.434 Y105.078 E1.22734
G1 X89.321 Y104.963 F4200
; stop printing object OV-PAM_n_10_1F.stl id:0 copy 0
;LAYER_CHANGE
;Z:0.6
;HEIGHT:0.2
;BEFORE_LAYER_CHANGE
G92 E0.0
;0.6


G1 E-1 F2400
G1 Z.6 F720
;AFTER_LAYER_CHANGE
;0.6
G1 X89.453 Y105.072 F4200
G1 X89.453 Y105.071
G1 X85.709 Y105.078
G1 E1 F1500
;TYPE:Skirt/Brim
;WIDTH:0.6
G1 F1346.307
G1 X85.709 Y103.901 E.06
G1 X92.567 Y82.795 E1.13077
G1 X93.859 Y81.016 E.11202
M73 P3 R29
M73 Q3 S29
G1 X111.813 Y67.972 E1.13077
G1 X113.904 Y67.293 E.11202
G1 X136.096 Y67.293 E1.13077
G1 X138.187 Y67.972 E.11202
G1 X156.141 Y81.016 E1.13077
G1 X157.433 Y82.795 E.11202
G1 X164.291 Y103.901 E1.13077
G1 X164.291 Y106.099 E.11202
G1 X157.433 Y127.205 E1.13077
G1 X156.141 Y128.984 E.11202
G1 X138.187 Y142.028 E1.13077
G1 X136.096 Y142.707 E.11202
G1 X113.904 Y142.707 E1.13077
G1 X111.813 Y142.028 E.11202
G1 X93.859 Y128.984 E1.13077
G1 X92.567 Y127.205 E.11202
G1 X85.709 Y106.099 E1.13077
G1 X85.709 Y105.138 E.04896
; printing object OV-PAM_n_10_1F.stl id:0 copy 0
G1 E-1 F2400
G1 X89.216 Y105.045 F4200
G1 X89.231 Y105.099
G1 X89.426 Y105.043
G1 E1 F1500
;TYPE:External perimeter
;WIDTH:0.657971
G1 F1200
G1 X89.415 Y105 E.00252
G1 X89.438 Y104.907 E.00536
G1 X96.212 Y84.084 E1.23186
G1 X113.922 Y71.207 E1.23186
G1 X114.004 Y71.157 E.00536
G1 X114.099 Y71.15 E.00536
G1 X135.996 Y71.157 E1.23186
G1 X153.716 Y84.022 E1.23186
G1 X153.788 Y84.084 E.00536
G1 X153.825 Y84.172 E.00536
G1 X160.585 Y105 E1.23186
G1 X153.788 Y125.916 E1.2372
G1 X136.078 Y138.793 E1.23186
G1 X135.996 Y138.843 E.00536
G1 X135.901 Y138.85 E.00536
G1 X114.099 Y138.85 E1.22651
G1 X114.004 Y138.843 E.00536
M73 P4 R29
M73 Q4 S29
G1 X113.922 Y138.793 E.00536
G1 X96.212 Y125.916 E1.23186
G1 X89.441 Y105.102 E1.23133
G1 X89.382 Y105.036 F4200
; stop printing object OV-PAM_n_10_1F.stl id:0 copy 0
;LAYER_CHANGE
;Z:0.8
;HEIGHT:0.2
;BEFORE_LAYER_CHANGE
G92 E0.0
;0.8


G1 E-1 F2400
G1 Z.8 F720
;AFTER_LAYER_CHANGE
;0.8
; printing object OV-PAM_n_10_1F.stl id:0 copy 0
G1 X89.432 Y105.07 F4200
G1 E1 F1500
G1 F1200
G1 X89.415 Y105 E.00405
G1 X89.438 Y104.907 E.00536
G1 X96.212 Y84.084 E1.23186
G1 X113.922 Y71.207 E1.23186
G1 X114.004 Y71.157 E.00536
G1 X114.099 Y71.15 E.00536
G1 X135.996 Y71.157 E1.23186
G1 X153.716 Y84.022 E1.23186
G1 X153.788 Y84.084 E.00536
G1 X153.825 Y84.172 E.00536
G1 X160.585 Y105 E1.23186
G1 X153.788 Y125.916 E1.2372
G1 X136.078 Y138.793 E1.23186
G1 X135.996 Y138.843 E.00536
G1 X135.901 Y138.85 E.00536
G1 X114.099 Y138.85 E1.22651
G1 X114.004 Y138.843 E.00536
G1 X113.922 Y138.793 E.00536
G1 X96.212 Y125.916 E1.23186
G1 X89.449 Y105.128 E1.2298
G1 X89.361 Y105.059 F4200
; stop printing object OV-PAM_n_10_1F.stl id:0 copy 0
;LAYER_CHANGE
;Z:1
;HEIGHT:0.2
;BEFORE_LAYER_CHANGE
G92 E0.0
;1


G1 E-1 F2400
G1 Z1 F720
;AFTER_LAYER_CHANGE
;1
; printing object OV-PAM_n_10_1F.stl id:0 copy 0
G1 X89.442 Y105.105 F4200
G1 E1 F1500
G1 F1200
G1 X89.415 Y105 E.00607
G1 X89.438 Y104.907 E.00536
G1 X96.212 Y84.084 E1.23186
G1 X113.922 Y71.207 E1.23186
G1 X114.004 Y71.157 E.00536
G1 X114.099 Y71.15 E.00536
G1 X135.996 Y71.157 E1.23186
G1 X153.716 Y84.022 E1.23186
G1 X153.788 Y84.084 E.00536
M73 P5 R29
M73 Q5 S29
G1 X153.825 Y84.172 E.00536
G1 X160.585 Y105 E1.23186
G1 X153.788 Y125.916 E1.2372
G1 X136.078 Y138.793 E1.23186
G1 X135.996 Y138.843 E.00536
G1 X135.901 Y138.85 E.00536
G1 X114.099 Y138.85 E1.22651
G1 X114.004 Y138.843 E.00536
G1 X113.922 Y138.793 E.00536
G1 X96.212 Y125.916 E1.23186
G1 X89.46 Y105.162 E1.22777
G1 X89.335 Y105.088 F4200
; stop printing object OV-PAM_n_10_1F.stl id:0 copy 0
;LAYER_CHANGE
;Z:1.2
;HEIGHT:0.2
;BEFORE_LAYER_CHANGE
G92 E0.0
;1.2


G1 E-1 F2400
G1 Z1.2 F720
;AFTER_LAYER_CHANGE
;1.2
; printing object OV-PAM_n_10_1F.stl id:0 copy 0
G1 X89.471 Y105.139 F4200
G1 E1 F1500
;WIDTH:0.693936
G1 F1152.047
G1 X89.434 Y105 E.00853
G1 X89.458 Y104.902 E.00601
G1 X96.227 Y84.095 E1.30286
G1 X113.924 Y71.228 E1.30286
M73 P5 R28
M73 Q5 S28
G1 X114.01 Y71.175 E.00601
G1 X114.11 Y71.167 E.00601
G1 X135.99 Y71.175 E1.30286
G1 X153.696 Y84.029 E1.30286
G1 X153.773 Y84.095 E.00601
G1 X153.812 Y84.188 E.00601
G1 X160.566 Y105 E1.30286
G1 X153.773 Y125.905 E1.30885
G1 X136.076 Y138.772 E1.30286
G1 X135.99 Y138.825 E.00601
G1 X135.89 Y138.833 E.00601
G1 X114.11 Y138.833 E1.29687
G1 X114.01 Y138.825 E.00601
G1 X113.924 Y138.772 E.00601
G1 X96.227 Y125.905 E1.30286
G1 X89.49 Y105.196 E1.29676
G1 X89.329 Y105.118 F4200
; stop printing object OV-PAM_n_10_1F.stl id:0 copy 0
;LAYER_CHANGE
;Z:1.4
;HEIGHT:0.2
;BEFORE_LAYER_CHANGE
G92 E0.0
;1.4


M73 P6 R28
M73 Q6 S28
G1 E-1 F2400
G1 Z1.4 F720
;AFTER_LAYER_CHANGE
;1.4
; printing object OV-PAM_n_10_1F.stl id:0 copy 0
G1 X89.57 Y105.162 F4200
G1 E1 F1500
;WIDTH:0.753123
G1 F1056.037
G1 X89.526 Y105 E.01087
G1 X89.552 Y104.893 E.00715
G1 X96.301 Y84.149 E1.41703
G1 X113.944 Y71.32 E1.41703
G1 X114.038 Y71.262 E.00715
G1 X114.148 Y71.254 E.00715
G1 X135.962 Y71.262 E1.41703
G1 X153.615 Y84.077 E1.41703
G1 X153.699 Y84.149 E.00715
G1 X153.741 Y84.251 E.00715
G1 X160.474 Y105 E1.41703
G1 X153.699 Y125.851 E1.42416
G1 X136.056 Y138.68 E1.41703
G1 X135.962 Y138.738 E.00715
G1 X135.852 Y138.746 E.00715
G1 X114.148 Y138.746 E1.4099
G1 X114.038 Y138.738 E.00715
G1 X113.944 Y138.68 E.00715
G1 X96.301 Y125.851 E1.41703
G1 X89.588 Y105.219 E1.40941
G1 X89.404 Y105.138 F4200
; stop printing object OV-PAM_n_10_1F.stl id:0 copy 0
;LAYER_CHANGE
;Z:1.6
;HEIGHT:0.2
;BEFORE_LAYER_CHANGE
G92 E0.0
;1.6


G1 E-1 F2400
G1 Z1.6 F720
;AFTER_LAYER_CHANGE
;1.6
; printing object OV-PAM_n_10_1F.stl id:0 copy 0
G1 X89.697 Y105.18 F4200
G1 E1 F1500
;WIDTH:0.756691
G1 F1050.757
G1 X89.646 Y105.011 E.01151
G1 X89.673 Y104.893 E.00789
G1 X96.392 Y84.228 E1.41862
G1 X113.982 Y71.435 E1.41996
G1 X114.065 Y71.38 E.00653
G1 X114.185 Y71.369 E.00789
G1 X135.915 Y71.373 E1.41862
G1 X153.517 Y84.149 E1.41996
G1 X153.596 Y84.211 E.00653
G1 X153.643 Y84.322 E.0079
G1 X160.354 Y104.989 E1.41862
G1 X153.608 Y125.772 E1.42648
M73 P7 R28
M73 Q7 S28
G1 X136.018 Y138.565 E1.41996
G1 X135.935 Y138.62 E.00653
G1 X135.815 Y138.631 E.00789
G1 X114.185 Y138.631 E1.41209
G1 X114.085 Y138.627 E.00653
G1 X113.982 Y138.565 E.00789
G1 X96.404 Y125.789 E1.41862
G1 X89.715 Y105.237 E1.41106
G1 X89.522 Y105.159 F4200
; stop printing object OV-PAM_n_10_1F.stl id:0 copy 0
;LAYER_CHANGE
;Z:1.8
;HEIGHT:0.2
;BEFORE_LAYER_CHANGE
G92 E0.0
;1.8


G1 E-1 F2400
G1 Z1.8 F720
;AFTER_LAYER_CHANGE
;1.8
; printing object OV-PAM_n_10_1F.stl id:0 copy 0
G1 X89.834 Y105.228 F4200
G1 E1 F1500
;WIDTH:0.775246
G1 F1024.135
G1 X89.762 Y105.056 E.01243
G1 X89.795 Y104.893 E.01116
G1 X96.425 Y84.486 E1.43722
G1 X96.459 Y84.333 E.01049
G1 X96.581 Y84.22 E.01116
G1 X113.94 Y71.608 E1.43722
G1 X114.057 Y71.504 E.01049
G1 X114.223 Y71.485 E.01116
G1 X135.679 Y71.485 E1.43722
G1 X135.835 Y71.47 E.01049
G1 X135.981 Y71.551 E.01116
G1 X153.34 Y84.163 E1.43722
G1 X153.475 Y84.242 E.01049
G1 X153.545 Y84.393 E.01116
G1 X160.175 Y104.8 E1.43722
G1 X160.238 Y104.944 E.01049
G1 X160.205 Y105.107 E.01116
G1 X153.575 Y125.514 E1.43722
G1 X153.541 Y125.667 E.01049
G1 X153.419 Y125.78 E.01116
G1 X136.06 Y138.392 E1.43722
G1 X135.943 Y138.496 E.01049
G1 X135.777 Y138.515 E.01116
G1 X114.321 Y138.515 E1.43722
G1 X114.165 Y138.53 E.01049
G1 X114.019 Y138.449 E.01116
G1 X96.66 Y125.837 E1.43722
G1 X96.525 Y125.758 E.01049
M73 P8 R28
M73 Q8 S28
G1 X96.455 Y125.607 E.01116
G1 X89.852 Y105.285 E1.43126
G1 X89.651 Y105.199 F4200
; stop printing object OV-PAM_n_10_1F.stl id:0 copy 0
;LAYER_CHANGE
;Z:2
;HEIGHT:0.2
;BEFORE_LAYER_CHANGE
G92 E0.0
;2


G1 E-1 F2400
G1 Z2 F720
;AFTER_LAYER_CHANGE
;2
; printing object OV-PAM_n_10_1F.stl id:0 copy 0
G1 X89.956 Y105.263 F4200
G1 E1 F1500
;WIDTH:0.808883
G1 F979.16
G1 X89.881 Y105.119 E.01136
G1 X89.899 Y105.006 E.00805
;WIDTH:0.73574
G1 F1082.532
G1 X89.916 Y104.893 E.00723
G1 X96.483 Y84.681 E1.34675
;WIDTH:0.808885
G1 F979.158
G1 X96.518 Y84.454 E.01604
G1 X96.599 Y84.373 E.00805
;WIDTH:0.735741
G1 F1082.531
G1 X96.679 Y84.292 E.00723
G1 X113.873 Y71.8 E1.34675
;WIDTH:0.808882
G1 F979.161
G1 X114.034 Y71.637 E.01604
G1 X114.148 Y71.618 E.00805
;WIDTH:0.73574
G1 F1082.532
G1 X114.26 Y71.6 E.00723
G1 X135.513 Y71.6 E1.34675
;WIDTH:0.808884
G1 F979.159
G1 X135.739 Y71.563 E.01604
G1 X135.842 Y71.615 E.00805
;WIDTH:0.735741
G1 F1082.531
G1 X135.943 Y71.666 E.00723
G1 X153.137 Y84.158 E1.34675
;WIDTH:0.808884
G1 F979.159
G1 X153.342 Y84.261 E.01604
G1 X153.394 Y84.363 E.00805
;WIDTH:0.73574
G1 F1082.532
G1 X153.446 Y84.465 E.00723
G1 X160.014 Y104.677 E1.34675
;WIDTH:0.809466
G1 F978.415
G1 X160.119 Y104.881 E.01606
;WIDTH:0.808883
G1 F979.16
G1 X160.101 Y104.994 E.00805
;WIDTH:0.73574
G1 F1082.532
G1 X160.084 Y105.107 E.00723
G1 X153.517 Y125.319 E1.34675
;WIDTH:0.808885
G1 F979.158
G1 X153.482 Y125.546 E.01604
G1 X153.401 Y125.627 E.00805
;WIDTH:0.735741
G1 F1082.531
G1 X153.321 Y125.708 E.00723
G1 X136.127 Y138.2 E1.34675
;WIDTH:0.808882
G1 F979.161
G1 X135.966 Y138.363 E.01604
G1 X135.852 Y138.382 E.00805
;WIDTH:0.73574
G1 F1082.532
G1 X135.74 Y138.4 E.00723
G1 X114.487 Y138.4 E1.34675
;WIDTH:0.808883
G1 F979.16
G1 X114.261 Y138.437 E.01604
G1 X114.158 Y138.385 E.00805
;WIDTH:0.73574
G1 F1082.532
G1 X114.057 Y138.334 E.00723
G1 X96.863 Y125.842 E1.34675
;WIDTH:0.808884
G1 F979.159
G1 X96.658 Y125.739 E.01604
G1 X96.606 Y125.637 E.00805
;WIDTH:0.73574
G1 F1082.532
G1 X96.554 Y125.535 E.00723
G1 X89.986 Y105.323 E1.34675
;WIDTH:0.808883
G1 F979.16
M73 P8 R27
M73 Q8 S27
G1 X89.983 Y105.317 E.00048
; stop printing object OV-PAM_n_10_1F.stl id:0 copy 0
;LAYER_CHANGE
;Z:2.2
;HEIGHT:0.2
;BEFORE_LAYER_CHANGE
G92 E0.0
;2.2


G1 E-1 F2400
G1 Z2.2 F720
;AFTER_LAYER_CHANGE
;2.2
; printing object OV-PAM_n_10_1F.stl id:0 copy 0
G1 X90.071 Y105.312 F4200
G1 E1 F1500
;WIDTH:0.854142
G1 F924.532
G1 X90.003 Y105.192 E.01027
G1 X90.003 Y105.118 E.00543
;WIDTH:0.775209
G1 F1024.186
G1 X90.037 Y104.893 E.01528
G1 X96.542 Y84.875 E1.4098
G1 X96.553 Y84.778 E.00653
;WIDTH:0.854143
G1 F924.531
G1 X96.574 Y84.584 E.01447
G1 X96.617 Y84.525 E.00543
;WIDTH:0.775209
G1 F1024.187
G1 X96.778 Y84.363 E.01528
G1 X113.806 Y71.991 E1.4098
G1 X113.872 Y71.919 E.00653
;WIDTH:0.854142
G1 F924.531
G1 X114.003 Y71.775 E.01447
G1 X114.073 Y71.752 E.00543
;WIDTH:0.775207
G1 F1024.189
G1 X114.298 Y71.716 E.01528
G1 X135.346 Y71.716 E1.40979
G1 X135.442 Y71.696 E.00653
;WIDTH:0.854141
G1 F924.532
G1 X135.633 Y71.656 E.01447
G1 X135.702 Y71.679 E.00543
;WIDTH:0.775208
G1 F1024.188
G1 X135.906 Y71.782 E.01528
G1 X152.934 Y84.154 E1.4098
G1 X153.023 Y84.194 E.00653
;WIDTH:0.854144
M73 P9 R27
M73 Q9 S27
G1 F924.529
G1 X153.201 Y84.274 E.01447
G1 X153.244 Y84.333 E.00543
;WIDTH:0.775208
G1 F1024.188
G1 X153.348 Y84.536 E.01528
G1 X159.852 Y104.554 E1.4098
G1 X159.901 Y104.639 E.00653
;WIDTH:0.85414
G1 F924.534
G1 X159.997 Y104.808 E.01447
;WIDTH:0.854142
G1 X159.997 Y104.882 E.00543
;WIDTH:0.775209
G1 F1024.186
G1 X159.963 Y105.107 E.01528
G1 X153.458 Y125.125 E1.4098
G1 X153.447 Y125.222 E.00653
;WIDTH:0.854143
G1 F924.531
G1 X153.426 Y125.416 E.01447
G1 X153.383 Y125.475 E.00543
;WIDTH:0.775209
G1 F1024.187
G1 X153.222 Y125.637 E.01528
G1 X136.194 Y138.009 E1.4098
G1 X136.128 Y138.081 E.00653
;WIDTH:0.854142
G1 F924.531
G1 X135.997 Y138.225 E.01447
G1 X135.927 Y138.248 E.00543
;WIDTH:0.775207
G1 F1024.189
G1 X135.702 Y138.284 E.01528
G1 X114.654 Y138.284 E1.40979
G1 X114.558 Y138.304 E.00653
;WIDTH:0.854141
G1 F924.533
G1 X114.367 Y138.344 E.01447
G1 X114.298 Y138.321 E.00543
;WIDTH:0.775208
G1 F1024.188
