; generated by PrusaSlicer 2.5.2+win64 on 2023-08-31 at 05:37:18 UTC


;
;
; 

; external perimeters extrusion width = 0.60mm
; perimeters extrusion width = 0.60mm
; infill extrusion width = 0.60mm
; solid infill extrusion width = 0.60mm
; top infill extrusion width = 0.60mm
; first layer extrusion width = 0.60mm

M73 P0 R28
M73 Q0 S28
M201 X1000 Y1000 Z200 E5000 ; sets maximum accelerations, mm/sec^2
M203 X200 Y200 Z12 E120 ; sets maximum feedrates, mm / sec
M204 P1250 R1250 T1250 ; sets acceleration (P, T) and retract acceleration (R), mm/sec^2
M205 X8.00 Y8.00 Z0.40 E4.50 ; sets the jerk limits, mm/sec
M205 S0 T0 ; sets the minimum extruding and travel feed rate, mm/sec
M107
;TYPE:Custom
M862.3 P "MK3S" ; printer model check
M862.1 P0.4 ; nozzle diameter check
M115 U3.12.2 ; tell printer latest fw version
G90 ; use absolute coordinates
M83 ; extruder relative mode
M104 S240 ; set extruder temp
M140 S50 ; set bed temp
M190 S50 ; wait for bed temp
M109 S240 ; wait for extruder temp
G28 W ; home all without mesh bed level
G80 ; mesh bed leveling

G1 Z0.2 F720
G1 Y-3 F1000 ; go outside print area
G92 E0
G1 X60 E9 F1000 ; intro line
G1 X100 E12.5 F1000 ; intro line

G92 E0
M221 S95

; Don't change E values below. Excessive value can damage the printer.
M907 E430 ; set extruder motor current
G21 ; set units to millimeters
G90 ; use absolute coordinates
M83 ; use relative distances for extrusion
M900 K0 ; Filament gcode
M107
;LAYER_CHANGE
;Z:0.2
;HEIGHT:0.2
;BEFORE_LAYER_CHANGE
G92 E0.0
;0.2


G1 E-1 F2400
G1 Z.2 F720
;AFTER_LAYER_CHANGE
;0.2
G1 X96.293 Y77.827 F4200
G1 E1 F1500
M204 S300
;TYPE:Skirt/Brim
;WIDTH:0.6
G1 F1200
G1 X97.388 Y76.561 E.08535
G1 X99.455 Y75.898 E.11059
G1 X150.545 Y75.898 E2.60317
G1 X152.173 Y76.293 E.08535
G1 X153.439 Y77.388 E.08535
G1 X154.102 Y79.455 E.11059
G1 X154.102 Y130.545 E2.60317
G1 X153.707 Y132.173 E.08535
G1 X152.612 Y133.439 E.08535
G1 X150.545 Y134.102 E.11059
G1 X99.455 Y134.102 E2.60317
G1 X97.827 Y133.707 E.08535
G1 X96.561 Y132.612 E.08535
G1 X95.898 Y130.545 E.11059
G1 X95.898 Y79.455 E2.60317
G1 X96.279 Y77.886 E.08229
; printing object OV-PAM_n_4_1F.stl id:0 copy 0
M73 P1 R28
M73 Q1 S28
G1 E-1 F2400
G1 X150.239 Y129.973 F4200
G1 E1 F1500
;TYPE:External perimeter
;WIDTH:0.677235
G1 F1182.379
G1 X150.227 Y130.027 E.00325
;WIDTH:0.745864
G1 F1066.941
G1 X150.193 Y130.193 E.01088
G1 X150.11 Y130.21 E.00544
;WIDTH:0.677235
G1 F1182.379
G1 X149.945 Y130.245 E.00982
G1 X100.055 Y130.245 E2.89446
G1 X99.973 Y130.227 E.00491
;WIDTH:0.745864
G1 F1066.941
G1 X99.807 Y130.193 E.01088
G1 X99.79 Y130.11 E.00544
;WIDTH:0.677235
G1 F1182.379
G1 X99.755 Y129.945 E.00982
G1 X99.755 Y80.055 E2.89446
G1 X99.773 Y79.973 E.00491
;WIDTH:0.745864
G1 F1066.942
G1 X99.807 Y79.807 E.01088
;WIDTH:0.745864
G1 X99.89 Y79.79 E.00544
;WIDTH:0.677235
G1 F1182.379
G1 X100.055 Y79.755 E.00982
G1 X149.945 Y79.755 E2.89446
G1 X150.027 Y79.773 E.00491
;WIDTH:0.745864
G1 F1066.941
G1 X150.193 Y79.807 E.01088
G1 X150.21 Y79.89 E.00544
;WIDTH:0.677235
G1 F1182.379
G1 X150.245 Y80.055 E.00982
G1 X150.245 Y129.913 E2.89264
G1 X150.283 Y130.007 F4200
; stop printing object OV-PAM_n_4_1F.stl id:0 copy 0
;LAYER_CHANGE
;Z:0.4
;HEIGHT:0.2
;BEFORE_LAYER_CHANGE
G92 E0.0
;0.4


G1 E-1 F2400
G1 Z.4 F720
;AFTER_LAYER_CHANGE
;0.4
G1 X154.102 Y129.913 F4200
G1 E1 F1500
;TYPE:Skirt/Brim
;WIDTH:0.6
G1 F1346.307
G1 X154.102 Y130.545 E.03217
G1 X153.707 Y132.173 E.08535
G1 X152.612 Y133.439 E.08535
G1 X150.545 Y134.102 E.11059
G1 X99.455 Y134.102 E2.60317
G1 X97.827 Y133.707 E.08535
G1 X96.561 Y132.612 E.08535
G1 X95.898 Y130.545 E.11059
G1 X95.898 Y79.455 E2.60317
G1 X96.293 Y77.827 E.08535
M73 P2 R28
M73 Q2 S28
G1 X97.388 Y76.561 E.08535
G1 X99.455 Y75.898 E.11059
G1 X150.545 Y75.898 E2.60317
G1 X152.173 Y76.293 E.08535
G1 X153.439 Y77.388 E.08535
G1 X154.102 Y79.455 E.11059
G1 X154.102 Y129.853 E2.56794
; printing object OV-PAM_n_4_1F.stl id:0 copy 0
G1 E-1 F2400
G1 X150.445 Y129.948 F4200
G1 X150.444 Y129.96
G1 X150.243 Y129.954
G1 E1 F1500
;TYPE:External perimeter
;WIDTH:0.677235
G1 F1182.379
G1 X150.227 Y130.027 E.00435
;WIDTH:0.745864
G1 F1066.941
G1 X150.193 Y130.193 E.01088
G1 X150.11 Y130.21 E.00544
;WIDTH:0.677235
G1 F1182.379
G1 X149.945 Y130.245 E.00982
G1 X100.055 Y130.245 E2.89446
G1 X99.973 Y130.227 E.00491
;WIDTH:0.745864
G1 F1066.941
G1 X99.807 Y130.193 E.01088
G1 X99.79 Y130.11 E.00544
;WIDTH:0.677235
G1 F1182.379
G1 X99.755 Y129.945 E.00982
G1 X99.755 Y80.055 E2.89446
G1 X99.773 Y79.973 E.00491
;WIDTH:0.745864
G1 F1066.942
G1 X99.807 Y79.807 E.01088
;WIDTH:0.745864
G1 X99.89 Y79.79 E.00544
;WIDTH:0.677235
G1 F1182.379
G1 X100.055 Y79.755 E.00982
G1 X149.945 Y79.755 E2.89446
G1 X150.027 Y79.773 E.00491
;WIDTH:0.745864
M73 P2 R27
M73 Q2 S27
G1 F1066.941
G1 X150.193 Y79.807 E.01088
G1 X150.21 Y79.89 E.00544
;WIDTH:0.677235
G1 F1182.379
G1 X150.245 Y80.055 E.00982
G1 X150.245 Y129.894 E2.89154
G1 X150.302 Y130 F4200
; stop printing object OV-PAM_n_4_1F.stl id:0 copy 0
;LAYER_CHANGE
;Z:0.6
;HEIGHT:0.2
;BEFORE_LAYER_CHANGE
G92 E0.0
;0.6


G1 E-1 F2400
G1 Z.6 F720
;AFTER_LAYER_CHANGE
;0.6
G1 X154.102 Y129.894 F4200
G1 E1 F1500
;TYPE:Skirt/Brim
;WIDTH:0.6
M73 P3 R27
M73 Q3 S27
G1 F1346.307
G1 X154.102 Y130.545 E.03314
G1 X153.707 Y132.173 E.08535
G1 X152.612 Y133.439 E.08535
G1 X150.545 Y134.102 E.11059
G1 X99.455 Y134.102 E2.60317
G1 X97.827 Y133.707 E.08535
G1 X96.561 Y132.612 E.08535
G1 X95.898 Y130.545 E.11059
G1 X95.898 Y79.455 E2.60317
G1 X96.293 Y77.827 E.08535
G1 X97.388 Y76.561 E.08535
G1 X99.455 Y75.898 E.11059
G1 X150.545 Y75.898 E2.60317
G1 X152.173 Y76.293 E.08535
G1 X153.439 Y77.388 E.08535
G1 X154.102 Y79.455 E.11059
G1 X154.102 Y129.834 E2.56698
; printing object OV-PAM_n_4_1F.stl id:0 copy 0
G1 E-1 F2400
G1 X150.445 Y129.934 F4200
G1 X150.445 Y129.945
G1 X150.245 Y129.939
G1 E1 F1500
;TYPE:External perimeter
;WIDTH:0.677235
G1 F1182.379
G1 X150.227 Y130.027 E.0052
;WIDTH:0.745864
G1 F1066.941
G1 X150.193 Y130.193 E.01088
G1 X150.11 Y130.21 E.00544
;WIDTH:0.677235
G1 F1182.379
G1 X149.945 Y130.245 E.00982
G1 X100.055 Y130.245 E2.89446
G1 X99.973 Y130.227 E.00491
;WIDTH:0.745864
G1 F1066.941
G1 X99.807 Y130.193 E.01088
G1 X99.79 Y130.11 E.00544
;WIDTH:0.677235
G1 F1182.379
G1 X99.755 Y129.945 E.00982
G1 X99.755 Y80.055 E2.89446
G1 X99.773 Y79.973 E.00491
;WIDTH:0.745864
G1 F1066.942
G1 X99.807 Y79.807 E.01088
;WIDTH:0.745864
G1 X99.89 Y79.79 E.00544
;WIDTH:0.677235
G1 F1182.379
G1 X100.055 Y79.755 E.00982
G1 X149.945 Y79.755 E2.89446
G1 X150.027 Y79.773 E.00491
;WIDTH:0.745864
M73 P4 R27
M73 Q4 S27
G1 F1066.941
G1 X150.193 Y79.807 E.01088
G1 X150.21 Y79.89 E.00544
;WIDTH:0.677235
G1 F1182.379
G1 X150.245 Y80.055 E.00982
G1 X150.245 Y129.879 E2.89068
G1 X150.316 Y129.994 F4200
; stop printing object OV-PAM_n_4_1F.stl id:0 copy 0
;LAYER_CHANGE
;Z:0.8
;HEIGHT:0.2
;BEFORE_LAYER_CHANGE
G92 E0.0
;0.8


G1 E-1 F2400
G1 Z.8 F720
;AFTER_LAYER_CHANGE
;0.8
; printing object OV-PAM_n_4_1F.stl id:0 copy 0
G1 X150.245 Y129.906 F4200
G1 E1 F1500
G1 F1182.379
G1 X150.227 Y130.027 E.00709
;WIDTH:0.745864
G1 F1066.941
G1 X150.193 Y130.193 E.01088
G1 X150.11 Y130.21 E.00544
;WIDTH:0.677235
G1 F1182.379
G1 X149.945 Y130.245 E.00982
G1 X100.055 Y130.245 E2.89446
G1 X99.973 Y130.227 E.00491
;WIDTH:0.745864
G1 F1066.941
G1 X99.807 Y130.193 E.01088
G1 X99.79 Y130.11 E.00544
;WIDTH:0.677235
G1 F1182.379
G1 X99.755 Y129.945 E.00982
G1 X99.755 Y80.055 E2.89446
G1 X99.773 Y79.973 E.00491
;WIDTH:0.745864
G1 F1066.942
G1 X99.807 Y79.807 E.01088
;WIDTH:0.745864
G1 X99.89 Y79.79 E.00544
;WIDTH:0.677235
G1 F1182.379
G1 X100.055 Y79.755 E.00982
G1 X149.945 Y79.755 E2.89446
G1 X150.027 Y79.773 E.00491
;WIDTH:0.745864
G1 F1066.941
G1 X150.193 Y79.807 E.01088
G1 X150.21 Y79.89 E.00544
;WIDTH:0.677235
G1 F1182.379
G1 X150.245 Y80.055 E.00982
G1 X150.245 Y129.846 E2.88877
G1 X150.344 Y129.977 F4200
; stop printing object OV-PAM_n_4_1F.stl id:0 copy 0
;LAYER_CHANGE
;Z:1
;HEIGHT:0.2
;BEFORE_LAYER_CHANGE
G92 E0.0
;1


G1 E-1 F2400
G1 Z1 F720
;AFTER_LAYER_CHANGE
;1
; printing object OV-PAM_n_4_1F.stl id:0 copy 0
G1 X150.245 Y129.87 F4200
G1 E1 F1500
G1 F1182.379
G1 X150.227 Y130.027 E.00919
;WIDTH:0.745864
G1 F1066.941
G1 X150.193 Y130.193 E.01088
G1 X150.11 Y130.21 E.00544
;WIDTH:0.677235
G1 F1182.379
G1 X149.945 Y130.245 E.00982
G1 X100.055 Y130.245 E2.89446
G1 X99.973 Y130.227 E.00491
;WIDTH:0.745864
G1 F1066.941
G1 X99.807 Y130.193 E.01088
G1 X99.79 Y130.11 E.00544
;WIDTH:0.677235
G1 F1182.379
G1 X99.755 Y129.945 E.00982
G1 X99.755 Y80.055 E2.89446
G1 X99.773 Y79.973 E.00491
;WIDTH:0.745864
M73 P5 R27
M73 Q5 S27
G1 F1066.942
G1 X99.807 Y79.807 E.01088
;WIDTH:0.745864
G1 X99.89 Y79.79 E.00544
;WIDTH:0.677235
G1 F1182.379
G1 X100.055 Y79.755 E.00982
G1 X149.945 Y79.755 E2.89446
G1 X150.027 Y79.773 E.00491
;WIDTH:0.745864
G1 F1066.941
G1 X150.193 Y79.807 E.01088
G1 X150.21 Y79.89 E.00544
;WIDTH:0.677235
G1 F1182.379
G1 X150.245 Y80.055 E.00982
G1 X150.245 Y129.81 E2.88665
G1 X150.376 Y129.959 F4200
; stop printing object OV-PAM_n_4_1F.stl id:0 copy 0
;LAYER_CHANGE
;Z:1.2
;HEIGHT:0.2
;BEFORE_LAYER_CHANGE
G92 E0.0
;1.2


G1 E-1 F2400
G1 Z1.2 F720
;AFTER_LAYER_CHANGE
;1.2
; printing object OV-PAM_n_4_1F.stl id:0 copy 0
G1 X150.227 Y129.819 F4200
G1 E1 F1500
;WIDTH:0.714327
G1 F1117.057
G1 X150.209 Y129.997 E.01102
;WIDTH:0.786968
G1 F1008
G1 X150.173 Y130.173 E.01219
G1 X150.085 Y130.191 E.00609
;WIDTH:0.714327
G1 F1117.057
G1 X149.91 Y130.227 E.011
G1 X100.09 Y130.227 E3.05941
G1 X100.003 Y130.209 E.0055
;WIDTH:0.786968
G1 F1008
G1 X99.827 Y130.173 E.01219
G1 X99.809 Y130.085 E.00609
;WIDTH:0.714327
G1 F1117.057
G1 X99.773 Y129.91 E.011
G1 X99.773 Y80.09 E3.05941
G1 X99.791 Y80.003 E.0055
;WIDTH:0.786969
G1 F1007.998
G1 X99.827 Y79.827 E.01219
;WIDTH:0.786968
G1 F1008
G1 X99.915 Y79.809 E.00609
;WIDTH:0.714327
G1 F1117.057
G1 X100.09 Y79.773 E.011
G1 X149.91 Y79.773 E3.05941
G1 X149.997 Y79.791 E.0055
;WIDTH:0.786968
G1 F1008
G1 X150.173 Y79.827 E.01219
G1 X150.191 Y79.915 E.00609
;WIDTH:0.714327
G1 F1117.057
G1 X150.227 Y80.09 E.011
G1 X150.227 Y129.759 E3.05015
G1 X150.376 Y129.919 F4200
; stop printing object OV-PAM_n_4_1F.stl id:0 copy 0
;LAYER_CHANGE
;Z:1.4
;HEIGHT:0.2
;BEFORE_LAYER_CHANGE
G92 E0.0
;1.4


M73 P6 R27
M73 Q6 S27
G1 E-1 F2400
G1 Z1.4 F720
;AFTER_LAYER_CHANGE
;1.4
; printing object OV-PAM_n_4_1F.stl id:0 copy 0
G1 X150.14 Y129.738 F4200
G1 E1 F1500
;WIDTH:0.775363
G1 F1023.971
G1 X150.121 Y129.89 E.01023
;WIDTH:0.85461
G1 F923.998
G1 X150.081 Y130.081 E.01451
G1 X149.985 Y130.101 E.00725
;WIDTH:0.775363
G1 F1023.971
G1 X149.794 Y130.14 E.01309
G1 X100.206 Y130.14 E3.32206
G1 X100.11 Y130.121 E.00654
;WIDTH:0.85461
G1 F923.998
G1 X99.919 Y130.081 E.01451
G1 X99.899 Y129.985 E.00725
;WIDTH:0.775363
G1 F1023.971
G1 X99.86 Y129.794 E.01309
G1 X99.86 Y80.206 E3.32206
G1 X99.879 Y80.11 E.00654
;WIDTH:0.854608
M73 P6 R26
M73 Q6 S26
G1 F924.001
G1 X99.919 Y79.919 E.01451
;WIDTH:0.85461
G1 F923.998
G1 X100.015 Y79.899 E.00725
;WIDTH:0.775363
G1 F1023.971
G1 X100.206 Y79.86 E.01309
G1 X149.794 Y79.86 E3.32206
G1 X149.89 Y79.879 E.00654
;WIDTH:0.85461
G1 F923.998
G1 X150.081 Y79.919 E.01451
G1 X150.101 Y80.015 E.00725
;WIDTH:0.775363
G1 F1023.971
G1 X150.14 Y80.206 E.01309
G1 X150.14 Y129.678 E3.3143
G1 X150.266 Y129.826 F4200
; stop printing object OV-PAM_n_4_1F.stl id:0 copy 0
;LAYER_CHANGE
;Z:1.6
;HEIGHT:0.2
;BEFORE_LAYER_CHANGE
G92 E0.0
;1.6


G1 E-1 F2400
G1 Z1.6 F720
;AFTER_LAYER_CHANGE
;1.6
; printing object OV-PAM_n_4_1F.stl id:0 copy 0
G1 X150.025 Y129.654 F4200
G1 E1 F1500
G1 F1023.971
G1 X150.005 Y129.774 E.00817
;WIDTH:0.85461
G1 F923.998
G1 X149.966 Y129.966 E.01451
G1 X149.87 Y129.985 E.00725
;WIDTH:0.775363
G1 F1023.971
G1 X149.679 Y130.025 E.01309
G1 X100.321 Y130.025 E3.30659
G1 X100.226 Y130.005 E.00654
;WIDTH:0.85461
G1 F923.998
G1 X100.034 Y129.966 E.01451
G1 X100.015 Y129.87 E.00725
;WIDTH:0.775363
G1 F1023.971
G1 X99.975 Y129.679 E.01309
G1 X99.975 Y80.321 E3.30659
G1 X99.995 Y80.226 E.00654
;WIDTH:0.854608
M73 P7 R26
M73 Q7 S26
G1 F924.001
G1 X100.034 Y80.034 E.01451
;WIDTH:0.85461
G1 F923.998
G1 X100.13 Y80.015 E.00725
;WIDTH:0.775363
G1 F1023.971
G1 X100.321 Y79.975 E.01309
G1 X149.679 Y79.975 E3.30659
G1 X149.774 Y79.995 E.00654
;WIDTH:0.85461
G1 F923.998
G1 X149.966 Y80.034 E.01451
G1 X149.985 Y80.13 E.00725
;WIDTH:0.775363
G1 F1023.971
G1 X150.025 Y80.321 E.01309
G1 X150.025 Y129.594 E3.30091
G1 X150.123 Y129.726 F4200
; stop printing object OV-PAM_n_4_1F.stl id:0 copy 0
;LAYER_CHANGE
;Z:1.8
;HEIGHT:0.2
;BEFORE_LAYER_CHANGE
G92 E0.0
;1.8


G1 E-1 F2400
G1 Z1.8 F720
;AFTER_LAYER_CHANGE
;1.8
; printing object OV-PAM_n_4_1F.stl id:0 copy 0
G1 X149.907 Y129.573 F4200
G1 E1 F1500
G1 F1023.971
G1 X149.89 Y129.659 E.00584
;WIDTH:0.85461
G1 F923.998
G1 X149.85 Y129.85 E.01451
G1 X149.754 Y129.87 E.00725
;WIDTH:0.775363
G1 F1023.971
G1 X149.563 Y129.91 E.01309
G1 X100.437 Y129.91 E3.29112
G1 X100.341 Y129.89 E.00654
;WIDTH:0.85461
G1 F923.998
G1 X100.15 Y129.85 E.01451
G1 X100.13 Y129.754 E.00725
;WIDTH:0.775363
G1 F1023.971
G1 X100.09 Y129.563 E.01309
G1 X100.09 Y80.437 E3.29112
G1 X100.11 Y80.341 E.00654
;WIDTH:0.854608
G1 F924.001
G1 X100.15 Y80.15 E.01451
;WIDTH:0.85461
G1 F923.998
G1 X100.246 Y80.13 E.00725
;WIDTH:0.775363
G1 F1023.971
G1 X100.437 Y80.09 E.01309
G1 X149.563 Y80.09 E3.29112
G1 X149.659 Y80.11 E.00654
;WIDTH:0.85461
G1 F923.998
G1 X149.85 Y80.15 E.01451
G1 X149.87 Y80.246 E.00725
;WIDTH:0.775363
G1 F1023.971
G1 X149.91 Y80.437 E.01309
G1 X149.91 Y129.514 E3.28781
G1 X149.976 Y129.627 F4200
; stop printing object OV-PAM_n_4_1F.stl id:0 copy 0
;LAYER_CHANGE
;Z:2
;HEIGHT:0.2
;BEFORE_LAYER_CHANGE
G92 E0.0
;2


M73 P8 R26
M73 Q8 S26
G1 E-1 F2400
G1 Z2 F720
;AFTER_LAYER_CHANGE
;2
; printing object OV-PAM_n_4_1F.stl id:0 copy 0
G1 X149.788 Y129.476 F4200
G1 E1 F1500
G1 F1023.971
G1 X149.774 Y129.543 E.00458
;WIDTH:0.85461
G1 F923.998
G1 X149.735 Y129.735 E.01451
G1 X149.639 Y129.754 E.00725
;WIDTH:0.775363
G1 F1023.971
G1 X149.448 Y129.794 E.01309
G1 X100.552 Y129.794 E3.27565
G1 X100.457 Y129.774 E.00654
;WIDTH:0.85461
G1 F923.998
G1 X100.265 Y129.735 E.01451
G1 X100.246 Y129.639 E.00725
;WIDTH:0.775363
G1 F1023.971
G1 X100.206 Y129.448 E.01309
G1 X100.206 Y80.552 E3.27565
G1 X100.226 Y80.457 E.00654
;WIDTH:0.854608
G1 F924.001
G1 X100.265 Y80.265 E.01451
;WIDTH:0.85461
G1 F923.998
G1 X100.361 Y80.246 E.00725
;WIDTH:0.775363
G1 F1023.971
G1 X100.552 Y80.206 E.01309
G1 X149.448 Y80.206 E3.27565
G1 X149.543 Y80.226 E.00654
;WIDTH:0.85461
G1 F923.998
G1 X149.735 Y80.265 E.01451
G1 X149.754 Y80.361 E.00725
;WIDTH:0.775363
G1 F1023.971
G1 X149.794 Y80.552 E.01309
G1 X149.794 Y129.417 E3.2736
G1 X149.842 Y129.518 F4200
; stop printing object OV-PAM_n_4_1F.stl id:0 copy 0
;LAYER_CHANGE
;Z:2.2
;HEIGHT:0.2
;BEFORE_LAYER_CHANGE
G92 E0.0
;2.2


G1 E-1 F2400
G1 Z2.2 F720
;AFTER_LAYER_CHANGE
;2.2
; printing object OV-PAM_n_4_1F.stl id:0 copy 0
G1 X149.67 Y129.376 F4200
G1 E1 F1500
G1 F1023.971
G1 X149.659 Y129.428 E.00357
;WIDTH:0.85461
G1 F923.998
G1 X149.619 Y129.619 E.01451
G1 X149.523 Y129.639 E.00725
;WIDTH:0.775363
G1 F1023.971
G1 X149.332 Y129.679 E.01309
G1 X100.668 Y129.679 E3.26018
G1 X100.572 Y129.659 E.00654
;WIDTH:0.85461
M73 P9 R26
M73 Q9 S26
G1 F923.998
G1 X100.381 Y129.619 E.01451
G1 X100.361 Y129.523 E.00725
;WIDTH:0.775363
G1 F1023.971
G1 X100.321 Y129.332 E.01309
G1 X100.321 Y80.668 E3.26018
G1 X100.341 Y80.572 E.00654
;WIDTH:0.854608
G1 F924.001
G1 X100.381 Y80.381 E.01451
;WIDTH:0.85461
G1 F923.998
G1 X100.477 Y80.361 E.00725
;WIDTH:0.775363
G1 F1023.971
G1 X100.668 Y80.321 E.01309
G1 X149.332 Y80.321 E3.26018
G1 X149.428 Y80.341 E.00654
;WIDTH:0.85461
G1 F923.998
G1 X149.619 Y80.381 E.01451
G1 X149.639 Y80.477 E.00725
;WIDTH:0.775363
G1 F1023.971
G1 X149.679 Y80.668 E.01309
G1 X149.679 Y129.317 E3.25914
G1 X149.712 Y129.408 F4200
; stop printing object OV-PAM_n_4_1F.stl id:0 copy 0
;LAYER_CHANGE
;Z:2.4
;HEIGHT:0.2
;BEFORE_LAYER_CHANGE
G92 E0.0
;2.4


G1 E-1 F2400
G1 Z2.4 F720
;AFTER_LAYER_CHANGE
;2.4
; printing object OV-PAM_n_4_1F.stl id:0 copy 0
