; generated by PrusaSlicer 2.5.2+win64 on 2023-08-31 at 05:38:37 UTC


;
;
; 

; external perimeters extrusion width = 0.60mm
; perimeters extrusion width = 0.60mm
; infill extrusion width = 0.60mm
; solid infill extrusion width = 0.60mm
; top infill extrusion width = 0.60mm
; first layer extrusion width = 0.60mm

M73 P0 R30
M73 Q0 S30
M201 X1000 Y1000 Z200 E5000 ; sets maximum accelerations, mm/sec^2
M203 X200 Y200 Z12 E120 ; sets maximum feedrates, mm / sec
M204 P1250 R1250 T1250 ; sets acceleration (P, T) and retract acceleration (R), mm/sec^2
M205 X8.00 Y8.00 Z0.40 E4.50 ; sets the jerk limits, mm/sec
M205 S0 T0 ; sets the minimum extruding and travel feed rate, mm/sec
M107
;TYPE:Custom
M862.3 P "MK3S" ; printer model check
M862.1 P0.4 ; nozzle diameter check
M115 U3.12.2 ; tell printer latest fw version
G90 ; use absolute coordinates
M83 ; extruder relative mode
M104 S240 ; set extruder temp
M140 S50 ; set bed temp
M190 S50 ; wait for bed temp
M109 S240 ; wait for extruder temp
G28 W ; home all without mesh bed level
G80 ; mesh bed leveling

G1 Z0.2 F720
G1 Y-3 F1000 ; go outside print area
G92 E0
G1 X60 E9 F1000 ; intro line
G1 X100 E12.5 F1000 ; intro line

G92 E0
M221 S95

; Don't change E values below. Excessive value can damage the printer.
M907 E430 ; set extruder motor current
G21 ; set units to millimeters
G90 ; use absolute coordinates
M83 ; use relative distances for extrusion
M900 K0 ; Filament gcode
M107
;LAYER_CHANGE
;Z:0.2
;HEIGHT:0.2
;BEFORE_LAYER_CHANGE
G92 E0.0
;0.2


G1 E-1 F2400
G1 Z.2 F720
;AFTER_LAYER_CHANGE
;0.2
G1 X92.644 Y82.546 F4200
G1 E1 F1500
M204 S300
;TYPE:Skirt/Brim
;WIDTH:0.6
G1 F1200
G1 X102.546 Y72.644 E.71351
G1 X103.7 Y71.873 E.07072
G1 X116.637 Y66.515 E.71351
G1 X117.998 Y66.244 E.07072
G1 X132.002 Y66.244 E.71351
G1 X133.363 Y66.515 E.07072
G1 X146.3 Y71.873 E.71351
G1 X147.454 Y72.644 E.07072
G1 X157.356 Y82.546 E.71351
G1 X158.127 Y83.7 E.07072
G1 X163.485 Y96.637 E.71351
G1 X163.756 Y97.998 E.07072
G1 X163.756 Y112.002 E.71351
G1 X163.485 Y113.363 E.07072
G1 X158.127 Y126.3 E.71351
G1 X157.356 Y127.454 E.07072
G1 X147.454 Y137.356 E.71351
G1 X146.3 Y138.127 E.07072
G1 X133.363 Y143.485 E.71351
G1 X132.002 Y143.756 E.07072
G1 X117.998 Y143.756 E.71351
G1 X116.637 Y143.485 E.07072
G1 X103.7 Y138.127 E.71351
G1 X102.546 Y137.356 E.07072
G1 X92.644 Y127.454 E.71351
G1 X91.873 Y126.3 E.07072
G1 X86.515 Y113.363 E.71351
G1 X86.244 Y112.002 E.07072
G1 X86.244 Y97.998 E.71351
G1 X86.515 Y96.637 E.07072
M73 P1 R30
M73 Q1 S30
G1 X91.873 Y83.7 E.71351
G1 X92.611 Y82.596 E.06766
; printing object OV-PAM_n_16_1F.stl id:0 copy 0
G1 E-1 F2400
G1 X144.74 Y134.596 F4200
G1 E1 F1500
;TYPE:External perimeter
;WIDTH:0.648741
G1 F1200
G1 X131.941 Y139.896 E.76762
G1 X118.059 Y139.896 E.76926
G1 X105.233 Y134.584 E.76926
G1 X95.416 Y124.767 E.76926
G1 X90.104 Y111.941 E.76926
G1 X90.104 Y98.059 E.76926
G1 X95.416 Y85.233 E.76926
G1 X105.233 Y75.416 E.76926
G1 X118.059 Y70.104 E.76926
G1 X131.941 Y70.104 E.76926
G1 X144.767 Y75.416 E.76926
G1 X154.584 Y85.233 E.76926
G1 X159.896 Y98.059 E.76926
G1 X159.896 Y111.941 E.76926
G1 X154.584 Y124.767 E.76926
G1 X144.79 Y134.563 E.76757
G1 X144.766 Y134.995 F4200
; stop printing object OV-PAM_n_16_1F.stl id:0 copy 0
;LAYER_CHANGE
;Z:0.4
;HEIGHT:0.2
;BEFORE_LAYER_CHANGE
G92 E0.0
;0.4


G1 E-1 F2400
G1 Z.4 F720
;AFTER_LAYER_CHANGE
;0.4
G1 X146.902 Y137.724 F4200
G1 E1 F1500
;TYPE:Skirt/Brim
;WIDTH:0.6
G1 F1346.307
G1 X146.3 Y138.127 E.03689
G1 X133.363 Y143.485 E.71351
G1 X132.002 Y143.756 E.07072
G1 X117.998 Y143.756 E.71351
G1 X116.637 Y143.485 E.07072
G1 X103.7 Y138.127 E.71351
G1 X102.546 Y137.356 E.07072
G1 X92.644 Y127.454 E.71351
G1 X91.873 Y126.3 E.07072
G1 X86.515 Y113.363 E.71351
G1 X86.244 Y112.002 E.07072
G1 X86.244 Y97.998 E.71351
G1 X86.515 Y96.637 E.07072
M73 P2 R30
M73 Q2 S30
G1 X91.873 Y83.7 E.71351
G1 X92.644 Y82.546 E.07072
G1 X102.546 Y72.644 E.71351
G1 X103.7 Y71.873 E.07072
G1 X116.637 Y66.515 E.71351
G1 X117.998 Y66.244 E.07072
G1 X132.002 Y66.244 E.71351
G1 X133.363 Y66.515 E.07072
G1 X146.3 Y71.873 E.71351
G1 X147.454 Y72.644 E.07072
G1 X157.356 Y82.546 E.71351
G1 X158.127 Y83.7 E.07072
G1 X163.485 Y96.637 E.71351
G1 X163.756 Y97.998 E.07072
G1 X163.756 Y112.002 E.71351
G1 X163.485 Y113.363 E.07072
G1 X158.127 Y126.3 E.71351
G1 X157.356 Y127.454 E.07072
G1 X147.454 Y137.356 E.71351
G1 X146.952 Y137.691 E.03077
; printing object OV-PAM_n_16_1F.stl id:0 copy 0
G1 E-1 F2400
G1 X144.843 Y134.776 F4200
G1 X144.762 Y134.586
G1 E1 F1500
;TYPE:External perimeter
;WIDTH:0.648741
G1 F1200
G1 X131.941 Y139.896 E.76893
G1 X118.059 Y139.896 E.76926
G1 X105.233 Y134.584 E.76926
G1 X95.416 Y124.767 E.76926
G1 X90.104 Y111.941 E.76926
M73 P2 R29
M73 Q2 S29
G1 X90.104 Y98.059 E.76926
G1 X95.416 Y85.233 E.76926
G1 X105.233 Y75.416 E.76926
G1 X118.059 Y70.104 E.76926
G1 X131.941 Y70.104 E.76926
G1 X144.767 Y75.416 E.76926
G1 X154.584 Y85.233 E.76926
G1 X159.896 Y98.059 E.76926
G1 X159.896 Y111.941 E.76926
G1 X154.584 Y124.767 E.76926
G1 X144.807 Y134.547 E.76627
G1 X144.788 Y134.985 F4200
; stop printing object OV-PAM_n_16_1F.stl id:0 copy 0
;LAYER_CHANGE
;Z:0.6
;HEIGHT:0.2
;BEFORE_LAYER_CHANGE
G92 E0.0
;0.6


G1 E-1 F2400
G1 Z.6 F720
;AFTER_LAYER_CHANGE
;0.6
M73 P3 R29
M73 Q3 S29
G1 X146.921 Y137.711 F4200
G1 E1 F1500
;TYPE:Skirt/Brim
;WIDTH:0.6
G1 F1346.307
G1 X146.3 Y138.127 E.03808
G1 X133.363 Y143.485 E.71351
G1 X132.002 Y143.756 E.07072
G1 X117.998 Y143.756 E.71351
G1 X116.637 Y143.485 E.07072
G1 X103.7 Y138.127 E.71351
G1 X102.546 Y137.356 E.07072
G1 X92.644 Y127.454 E.71351
G1 X91.873 Y126.3 E.07072
G1 X86.515 Y113.363 E.71351
G1 X86.244 Y112.002 E.07072
G1 X86.244 Y97.998 E.71351
G1 X86.515 Y96.637 E.07072
G1 X91.873 Y83.7 E.71351
G1 X92.644 Y82.546 E.07072
G1 X102.546 Y72.644 E.71351
G1 X103.7 Y71.873 E.07072
G1 X116.637 Y66.515 E.71351
G1 X117.998 Y66.244 E.07072
G1 X132.002 Y66.244 E.71351
G1 X133.363 Y66.515 E.07072
G1 X146.3 Y71.873 E.71351
G1 X147.454 Y72.644 E.07072
G1 X157.356 Y82.546 E.71351
G1 X158.127 Y83.7 E.07072
G1 X163.485 Y96.637 E.71351
G1 X163.756 Y97.998 E.07072
G1 X163.756 Y112.002 E.71351
G1 X163.485 Y113.363 E.07072
G1 X158.127 Y126.3 E.71351
G1 X157.356 Y127.454 E.07072
G1 X147.454 Y137.356 E.71351
G1 X146.971 Y137.678 E.02958
; printing object OV-PAM_n_16_1F.stl id:0 copy 0
G1 E-1 F2400
G1 X144.912 Y134.731 F4200
G1 X144.768 Y134.582
G1 E1 F1500
;TYPE:External perimeter
;WIDTH:0.648741
G1 F1200
G1 X131.941 Y139.896 E.76935
G1 X118.059 Y139.896 E.76926
G1 X105.233 Y134.584 E.76926
G1 X95.416 Y124.767 E.76926
G1 X90.104 Y111.941 E.76926
G1 X90.104 Y98.059 E.76926
G1 X95.416 Y85.233 E.76926
G1 X105.233 Y75.416 E.76926
G1 X118.059 Y70.104 E.76926
G1 X131.941 Y70.104 E.76926
G1 X144.767 Y75.416 E.76926
M73 P4 R29
M73 Q4 S29
G1 X154.584 Y85.233 E.76926
G1 X159.896 Y98.059 E.76926
G1 X159.896 Y111.941 E.76926
G1 X154.584 Y124.767 E.76926
G1 X144.813 Y134.542 E.76584
G1 X144.795 Y134.982 F4200
; stop printing object OV-PAM_n_16_1F.stl id:0 copy 0
;LAYER_CHANGE
;Z:0.8
;HEIGHT:0.2
;BEFORE_LAYER_CHANGE
G92 E0.0
;0.8


G1 E-1 F2400
G1 Z.8 F720
;AFTER_LAYER_CHANGE
;0.8
; printing object OV-PAM_n_16_1F.stl id:0 copy 0
G1 X144.805 Y134.549 F4200
G1 E1 F1500
G1 F1200
G1 X144.714 Y134.609 E.00607
G1 X131.941 Y139.896 E.76598
G1 X118.059 Y139.896 E.76926
G1 X105.233 Y134.584 E.76926
G1 X95.416 Y124.767 E.76926
G1 X90.104 Y111.941 E.76926
G1 X90.104 Y98.059 E.76926
G1 X95.416 Y85.233 E.76926
G1 X105.233 Y75.416 E.76926
G1 X118.059 Y70.104 E.76926
G1 X131.941 Y70.104 E.76926
G1 X144.767 Y75.416 E.76926
G1 X154.584 Y85.233 E.76926
G1 X159.896 Y98.059 E.76926
G1 X159.896 Y111.941 E.76926
G1 X154.584 Y124.767 E.76926
G1 X144.848 Y134.507 E.76308
G1 X144.826 Y134.657 F4200
; stop printing object OV-PAM_n_16_1F.stl id:0 copy 0
;LAYER_CHANGE
;Z:1
;HEIGHT:0.2
;BEFORE_LAYER_CHANGE
G92 E0.0
;1


G1 E-1 F2400
G1 Z1 F720
;AFTER_LAYER_CHANGE
;1
; printing object OV-PAM_n_16_1F.stl id:0 copy 0
G1 X144.847 Y134.508 F4200
G1 E1 F1500
G1 F1200
G1 X144.714 Y134.609 E.00923
G1 X131.941 Y139.896 E.76598
G1 X118.059 Y139.896 E.76926
G1 X105.233 Y134.584 E.76926
G1 X95.416 Y124.767 E.76926
G1 X90.104 Y111.941 E.76926
M73 P5 R29
M73 Q5 S29
G1 X90.104 Y98.059 E.76926
G1 X95.416 Y85.233 E.76926
G1 X105.233 Y75.416 E.76926
G1 X118.059 Y70.104 E.76926
G1 X131.941 Y70.104 E.76926
G1 X144.767 Y75.416 E.76926
G1 X154.584 Y85.233 E.76926
G1 X159.896 Y98.059 E.76926
G1 X159.896 Y111.941 E.76926
G1 X154.584 Y124.767 E.76926
G1 X144.889 Y134.466 E.75987
G1 X144.885 Y134.67 F4200
; stop printing object OV-PAM_n_16_1F.stl id:0 copy 0
;LAYER_CHANGE
;Z:1.2
;HEIGHT:0.2
;BEFORE_LAYER_CHANGE
G92 E0.0
;1.2


G1 E-1 F2400
G1 Z1.2 F720
;AFTER_LAYER_CHANGE
;1.2
; printing object OV-PAM_n_16_1F.stl id:0 copy 0
G1 X144.879 Y134.451 F4200
G1 E1 F1500
;WIDTH:0.684166
G1 F1169.599
G1 X144.757 Y134.569 E.00994
G1 X144.7 Y134.595 E.00367
G1 X131.938 Y139.879 E.81016
G1 X118.062 Y139.879 E.81383
G1 X105.243 Y134.569 E.81383
G1 X95.431 Y124.757 E.81382
G1 X90.121 Y111.938 E.81383
G1 X90.121 Y98.062 E.81383
G1 X95.431 Y85.243 E.81383
G1 X105.243 Y75.431 E.81382
G1 X118.062 Y70.121 E.81383
M73 P5 R28
M73 Q5 S28
G1 X131.938 Y70.121 E.81383
G1 X144.757 Y75.431 E.81383
G1 X154.569 Y85.243 E.81382
G1 X159.879 Y98.062 E.81383
G1 X159.879 Y111.938 E.81383
G1 X154.569 Y124.757 E.81383
M73 P6 R28
M73 Q6 S28
G1 X144.922 Y134.409 E.80037
G1 X144.932 Y134.612 F4200
; stop printing object OV-PAM_n_16_1F.stl id:0 copy 0
;LAYER_CHANGE
;Z:1.4
;HEIGHT:0.2
;BEFORE_LAYER_CHANGE
G92 E0.0
;1.4


G1 E-1 F2400
G1 Z1.4 F720
;AFTER_LAYER_CHANGE
;1.4
; printing object OV-PAM_n_16_1F.stl id:0 copy 0
G1 X144.867 Y134.34 F4200
G1 E1 F1500
;WIDTH:0.742462
G1 F1072.131
G1 X144.708 Y134.495 E.01421
G1 X144.646 Y134.524 E.00437
G1 X131.92 Y139.792 E.88123
G1 X118.08 Y139.792 E.8856
G1 X105.292 Y134.495 E.8856
G1 X95.505 Y124.708 E.8856
G1 X90.208 Y111.92 E.8856
G1 X90.208 Y98.08 E.8856
G1 X95.505 Y85.292 E.8856
G1 X105.292 Y75.505 E.8856
G1 X118.08 Y70.208 E.8856
G1 X131.92 Y70.208 E.8856
G1 X144.708 Y75.505 E.8856
G1 X154.495 Y85.292 E.8856
G1 X159.792 Y98.08 E.8856
G1 X159.792 Y111.92 E.8856
G1 X154.495 Y124.708 E.8856
G1 X144.91 Y134.298 E.86755
G1 X144.937 Y134.551 F4200
; stop printing object OV-PAM_n_16_1F.stl id:0 copy 0
;LAYER_CHANGE
;Z:1.6
;HEIGHT:0.2
;BEFORE_LAYER_CHANGE
G92 E0.0
;1.6


G1 E-1 F2400
G1 Z1.6 F720
;AFTER_LAYER_CHANGE
;1.6
; printing object OV-PAM_n_16_1F.stl id:0 copy 0
G1 X144.843 Y134.202 F4200
G1 E1 F1500
;WIDTH:0.753022
G1 F1056.187
G1 X144.679 Y134.376 E.01558
G1 X144.581 Y134.426 E.00713
G1 X131.939 Y139.671 E.88895
G1 X118.143 Y139.687 E.89606
G1 X105.39 Y134.422 E.89606
G1 X95.624 Y124.679 E.89606
G1 X90.329 Y111.939 E.89606
G1 X90.313 Y98.143 E.89606
G1 X95.578 Y85.39 E.89606
M73 P7 R28
M73 Q7 S28
G1 X105.321 Y75.624 E.89606
G1 X118.061 Y70.329 E.89606
G1 X131.857 Y70.313 E.89606
G1 X144.61 Y75.578 E.89606
G1 X154.376 Y85.321 E.89606
G1 X159.671 Y98.061 E.89606
G1 X159.687 Y111.857 E.89606
G1 X154.422 Y124.61 E.89606
G1 X144.885 Y134.159 E.87659
G1 X144.606 Y134.16 F4200
; stop printing object OV-PAM_n_16_1F.stl id:0 copy 0
;LAYER_CHANGE
;Z:1.8
;HEIGHT:0.2
;BEFORE_LAYER_CHANGE
G92 E0.0
;1.8


G1 E-1 F2400
G1 Z1.8 F720
;AFTER_LAYER_CHANGE
;1.8
; printing object OV-PAM_n_16_1F.stl id:0 copy 0
G1 X144.825 Y134.056 F4200
G1 E1 F1500
;WIDTH:0.780886
G1 F1016.307
G1 X144.675 Y134.238 E.0159
G1 X144.515 Y134.328 E.0124
G1 X132.143 Y139.453 E.90388
G1 X131.989 Y139.542 E.01203
G1 X131.806 Y139.564 E.0124
G1 X118.415 Y139.564 E.90388
G1 X118.238 Y139.587 E.01203
G1 X118.061 Y139.538 E.0124
G1 X105.689 Y134.413 E.90388
G1 X105.517 Y134.366 E.01203
G1 X105.372 Y134.253 E.0124
G1 X95.903 Y124.784 E.90388
G1 X95.762 Y124.675 E.01203
G1 X95.672 Y124.515 E.0124
G1 X90.547 Y112.143 E.90388
G1 X90.458 Y111.989 E.01203
G1 X90.436 Y111.806 E.0124
G1 X90.436 Y98.415 E.90388
G1 X90.413 Y98.238 E.01203
G1 X90.462 Y98.061 E.0124
G1 X95.587 Y85.689 E.90388
G1 X95.634 Y85.517 E.01203
G1 X95.747 Y85.372 E.0124
G1 X105.216 Y75.903 E.90388
G1 X105.325 Y75.762 E.01203
G1 X105.485 Y75.672 E.0124
G1 X117.857 Y70.547 E.90388
G1 X118.011 Y70.458 E.01203
G1 X118.194 Y70.436 E.0124
G1 X131.585 Y70.436 E.90388
G1 X131.762 Y70.413 E.01203
G1 X131.939 Y70.462 E.0124
G1 X144.311 Y75.587 E.90388
G1 X144.483 Y75.634 E.01203
G1 X144.628 Y75.747 E.0124
G1 X154.097 Y85.216 E.90388
G1 X154.238 Y85.325 E.01203
M73 P8 R28
M73 Q8 S28
G1 X154.328 Y85.485 E.0124
G1 X159.453 Y97.857 E.90388
G1 X159.542 Y98.011 E.01203
G1 X159.564 Y98.194 E.0124
G1 X159.564 Y111.585 E.90388
G1 X159.587 Y111.762 E.01203
G1 X159.538 Y111.939 E.0124
G1 X154.413 Y124.311 E.90388
G1 X154.366 Y124.483 E.01203
G1 X154.253 Y124.628 E.0124
G1 X144.867 Y134.014 E.89595
G1 X144.594 Y134.01 F4200
; stop printing object OV-PAM_n_16_1F.stl id:0 copy 0
;LAYER_CHANGE
;Z:2
;HEIGHT:0.2
;BEFORE_LAYER_CHANGE
G92 E0.0
;2


G1 E-1 F2400
G1 Z2 F720
;AFTER_LAYER_CHANGE
;2
; printing object OV-PAM_n_16_1F.stl id:0 copy 0
G1 X144.813 Y133.908 F4200
G1 E1 F1500
;WIDTH:0.763154
G1 F1041.329
G1 X144.752 Y133.994 E.00693
;WIDTH:0.815119
G1 F971.252
G1 X144.683 Y134.091 E.0084
G1 X144.572 Y134.165 E.00941
;WIDTH:0.763156
G1 F1041.325
G1 X144.45 Y134.23 E.00912
G1 X132.253 Y139.283 E.86968
G1 X132.153 Y139.346 E.00783
;WIDTH:0.815118
G1 F971.254
G1 X132.052 Y139.409 E.0084
G1 X131.921 Y139.435 E.00941
;WIDTH:0.763154
G1 F1041.328
G1 X131.783 Y139.449 E.00912
G1 X118.582 Y139.449 E.86967
G1 X118.465 Y139.468 E.00783
;WIDTH:0.815118
G1 F971.253
G1 X118.347 Y139.488 E.0084
G1 X118.217 Y139.462 E.00941
;WIDTH:0.763152
G1 F1041.332
G1 X118.084 Y139.422 E.00912
G1 X105.887 Y134.37 E.86967
G1 X105.772 Y134.344 E.00783
;WIDTH:0.81512
G1 F971.251
G1 X105.656 Y134.317 E.0084
G1 X105.545 Y134.243 E.00941
;WIDTH:0.763154
G1 F1041.329
G1 X105.438 Y134.155 E.00912
G1 X96.103 Y124.82 E.86967
G1 X96.006 Y124.752 E.00783
;WIDTH:0.815119
G1 F971.252
G1 X95.909 Y124.683 E.0084
G1 X95.835 Y124.572 E.00941
;WIDTH:0.763156
G1 F1041.325
G1 X95.77 Y124.45 E.00912
G1 X90.717 Y112.253 E.86968
G1 X90.654 Y112.153 E.00783
;WIDTH:0.815118
G1 F971.254
G1 X90.591 Y112.052 E.0084
G1 X90.565 Y111.921 E.00941
;WIDTH:0.763154
G1 F1041.328
G1 X90.551 Y111.783 E.00912
G1 X90.551 Y98.582 E.86967
G1 X90.532 Y98.465 E.00783
;WIDTH:0.815118
G1 F971.253
G1 X90.512 Y98.347 E.0084
G1 X90.538 Y98.217 E.00941
;WIDTH:0.763152
G1 F1041.332
G1 X90.578 Y98.084 E.00912
G1 X95.63 Y85.887 E.86967
G1 X95.656 Y85.772 E.00783
;WIDTH:0.81512
G1 F971.251
G1 X95.683 Y85.656 E.0084
G1 X95.757 Y85.545 E.00941
;WIDTH:0.763154
G1 F1041.329
G1 X95.845 Y85.438 E.00912
G1 X105.18 Y76.103 E.86967
G1 X105.248 Y76.006 E.00783
;WIDTH:0.815119
G1 F971.252
G1 X105.317 Y75.909 E.0084
G1 X105.428 Y75.835 E.00941
;WIDTH:0.763156
G1 F1041.325
G1 X105.55 Y75.77 E.00912
G1 X117.747 Y70.717 E.86968
G1 X117.847 Y70.654 E.00783
;WIDTH:0.815118
G1 F971.254
G1 X117.948 Y70.591 E.0084
G1 X118.079 Y70.565 E.00941
;WIDTH:0.763154
G1 F1041.328
G1 X118.217 Y70.551 E.00912
G1 X131.418 Y70.551 E.86967
G1 X131.535 Y70.532 E.00783
;WIDTH:0.815118
G1 F971.253
G1 X131.653 Y70.512 E.0084
G1 X131.783 Y70.538 E.00941
;WIDTH:0.763152
G1 F1041.331
G1 X131.916 Y70.578 E.00912
G1 X144.113 Y75.63 E.86967
G1 X144.228 Y75.656 E.00783
;WIDTH:0.81512
G1 F971.251
G1 X144.344 Y75.683 E.0084
G1 X144.455 Y75.757 E.00941
;WIDTH:0.763154
G1 F1041.329
G1 X144.562 Y75.845 E.00912
G1 X153.897 Y85.18 E.86967
G1 X153.994 Y85.248 E.00783
;WIDTH:0.815119
G1 F971.252
G1 X154.091 Y85.317 E.0084
G1 X154.165 Y85.428 E.00941
;WIDTH:0.763156
G1 F1041.325
G1 X154.23 Y85.55 E.00912
G1 X159.283 Y97.747 E.86968
G1 X159.346 Y97.847 E.00783
;WIDTH:0.815118
G1 F971.254
G1 X159.409 Y97.948 E.0084
G1 X159.435 Y98.079 E.00941
;WIDTH:0.763154
G1 F1041.328
G1 X159.449 Y98.217 E.00912
G1 X159.449 Y111.418 E.86967
G1 X159.468 Y111.535 E.00783
;WIDTH:0.815118
G1 F971.253
G1 X159.488 Y111.653 E.0084
;WIDTH:0.815117
G1 X159.462 Y111.783 E.00941
;WIDTH:0.763152
G1 F1041.332
G1 X159.422 Y111.916 E.00912
G1 X154.37 Y124.113 E.86967
G1 X154.344 Y124.228 E.00783
;WIDTH:0.81512
G1 F971.251
