; generated by PrusaSlicer 2.5.2+win64 on 2023-08-31 at 05:37:34 UTC


;
;
; 

; external perimeters extrusion width = 0.60mm
; perimeters extrusion width = 0.60mm
; infill extrusion width = 0.60mm
; solid infill extrusion width = 0.60mm
; top infill extrusion width = 0.60mm
; first layer extrusion width = 0.60mm

M73 P0 R32
M73 Q0 S32
M201 X1000 Y1000 Z200 E5000 ; sets maximum accelerations, mm/sec^2
M203 X200 Y200 Z12 E120 ; sets maximum feedrates, mm / sec
M204 P1250 R1250 T1250 ; sets acceleration (P, T) and retract acceleration (R), mm/sec^2
M205 X8.00 Y8.00 Z0.40 E4.50 ; sets the jerk limits, mm/sec
M205 S0 T0 ; sets the minimum extruding and travel feed rate, mm/sec
M107
;TYPE:Custom
M862.3 P "MK3S" ; printer model check
M862.1 P0.4 ; nozzle diameter check
M115 U3.12.2 ; tell printer latest fw version
G90 ; use absolute coordinates
M83 ; extruder relative mode
M104 S240 ; set extruder temp
M140 S50 ; set bed temp
M190 S50 ; wait for bed temp
M109 S240 ; wait for extruder temp
G28 W ; home all without mesh bed level
G80 ; mesh bed leveling

G1 Z0.2 F720
G1 Y-3 F1000 ; go outside print area
G92 E0
G1 X60 E9 F1000 ; intro line
G1 X100 E12.5 F1000 ; intro line

G92 E0
M221 S95

; Don't change E values below. Excessive value can damage the printer.
M907 E430 ; set extruder motor current
G21 ; set units to millimeters
G90 ; use absolute coordinates
M83 ; use relative distances for extrusion
M900 K0 ; Filament gcode
M107
;LAYER_CHANGE
;Z:0.2
;HEIGHT:0.2
;BEFORE_LAYER_CHANGE
G92 E0.0
;0.2


G1 E-1 F2400
G1 Z.2 F720
;AFTER_LAYER_CHANGE
;0.2
G1 X103.935 Y72.071 F4200
G1 E1 F1500
M204 S300
;TYPE:Skirt/Brim
;WIDTH:0.6
G1 F1200
G1 X105.09 Y70.858 E.08535
G1 X107.015 Y70.292 E.10224
G1 X142.985 Y70.292 E1.83279
G1 X144.613 Y70.687 E.08535
G1 X146.065 Y72.071 E.10224
G1 X164.05 Y103.221 E1.83279
G1 X164.523 Y104.828 E.08535
G1 X164.05 Y106.779 E.10224
G1 X146.065 Y137.929 E1.83279
G1 X144.91 Y139.142 E.08535
G1 X142.985 Y139.708 E.10224
G1 X107.015 Y139.708 E1.83279
G1 X105.387 Y139.313 E.08535
G1 X103.935 Y137.929 E.10224
G1 X85.95 Y106.779 E1.83279
G1 X85.477 Y105.172 E.08535
G1 X85.95 Y103.221 E.10224
G1 X103.905 Y72.123 E1.82973
; printing object OV-PAM_n_6_1F.stl id:0 copy 0
G1 E-1 F2400
G1 X89.401 Y105 F4200
G1 E1 F1500
;TYPE:External perimeter
;WIDTH:0.685998
M73 P1 R32
M73 Q1 S32
G1 F1166.267
G1 X89.463 Y104.85 E.00954
G1 X107.102 Y74.299 E2.07497
G1 X107.201 Y74.171 E.00954
G1 X107.362 Y74.149 E.00954
G1 X142.639 Y74.149 E2.07497
G1 X142.799 Y74.171 E.00954
G1 X142.898 Y74.299 E.00954
G1 X160.537 Y104.85 E2.07497
G1 X160.599 Y105 E.00954
G1 X160.537 Y105.15 E.00954
G1 X142.898 Y135.701 E2.07497
G1 X142.799 Y135.829 E.00954
G1 X142.639 Y135.851 E.00954
G1 X107.362 Y135.851 E2.07497
G1 X107.201 Y135.829 E.00954
G1 X107.102 Y135.701 E.00954
G1 X89.463 Y105.15 E2.07497
G1 X89.424 Y105.055 E.00601
G1 X89.268 Y104.907 F4200
; stop printing object OV-PAM_n_6_1F.stl id:0 copy 0
;LAYER_CHANGE
;Z:0.4
;HEIGHT:0.2
;BEFORE_LAYER_CHANGE
G92 E0.0
;0.4


G1 E-1 F2400
G1 Z.4 F720
;AFTER_LAYER_CHANGE
;0.4
G1 X89.431 Y105.052 F4200
G1 X89.423 Y105.037
G1 X85.723 Y104.159
G1 E1 F1500
;TYPE:Skirt/Brim
;WIDTH:0.6
G1 F1346.307
G1 X85.95 Y103.221 E.04914
G1 X103.935 Y72.071 E1.83279
G1 X105.09 Y70.858 E.08535
G1 X107.015 Y70.292 E.10224
G1 X142.985 Y70.292 E1.83279
G1 X144.613 Y70.687 E.08535
G1 X146.065 Y72.071 E.10224
G1 X164.05 Y103.221 E1.83279
G1 X164.523 Y104.828 E.08535
G1 X164.05 Y106.779 E.10224
G1 X146.065 Y137.929 E1.83279
G1 X144.91 Y139.142 E.08535
G1 X142.985 Y139.708 E.10224
G1 X107.015 Y139.708 E1.83279
G1 X105.387 Y139.313 E.08535
M73 P2 R32
M73 Q2 S32
G1 X103.935 Y137.929 E.10224
G1 X85.95 Y106.779 E1.83279
G1 X85.477 Y105.172 E.08535
G1 X85.708 Y104.217 E.05004
; printing object OV-PAM_n_6_1F.stl id:0 copy 0
G1 E-1 F2400
G1 X89.197 Y104.961 F4200
G1 X89.215 Y104.918
G1 X89.401 Y105
G1 E1 F1500
;TYPE:External perimeter
;WIDTH:0.685998
G1 F1166.267
G1 X89.463 Y104.85 E.00954
G1 X107.102 Y74.299 E2.07497
G1 X107.201 Y74.171 E.00954
M73 P2 R31
M73 Q2 S31
G1 X107.362 Y74.149 E.00954
G1 X142.639 Y74.149 E2.07497
G1 X142.799 Y74.171 E.00954
G1 X142.898 Y74.299 E.00954
G1 X160.537 Y104.85 E2.07497
G1 X160.599 Y105 E.00954
G1 X160.537 Y105.15 E.00954
G1 X142.898 Y135.701 E2.07497
G1 X142.799 Y135.829 E.00954
G1 X142.639 Y135.851 E.00954
G1 X107.362 Y135.851 E2.07497
G1 X107.201 Y135.829 E.00954
G1 X107.102 Y135.701 E.00954
G1 X89.463 Y105.15 E2.07497
G1 X89.424 Y105.055 E.00601
G1 X89.268 Y104.907 F4200
; stop printing object OV-PAM_n_6_1F.stl id:0 copy 0
;LAYER_CHANGE
;Z:0.6
;HEIGHT:0.2
;BEFORE_LAYER_CHANGE
G92 E0.0
;0.6


G1 E-1 F2400
G1 Z.6 F720
;AFTER_LAYER_CHANGE
;0.6
G1 X89.431 Y105.052 F4200
G1 X89.423 Y105.037
G1 X85.723 Y104.159
G1 E1 F1500
;TYPE:Skirt/Brim
;WIDTH:0.6
G1 F1346.307
G1 X85.95 Y103.221 E.04914
G1 X103.935 Y72.071 E1.83279
G1 X105.09 Y70.858 E.08535
G1 X107.015 Y70.292 E.10224
G1 X142.985 Y70.292 E1.83279
G1 X144.613 Y70.687 E.08535
G1 X146.065 Y72.071 E.10224
G1 X164.05 Y103.221 E1.83279
G1 X164.523 Y104.828 E.08535
M73 P3 R31
M73 Q3 S31
G1 X164.05 Y106.779 E.10224
G1 X146.065 Y137.929 E1.83279
G1 X144.91 Y139.142 E.08535
G1 X142.985 Y139.708 E.10224
G1 X107.015 Y139.708 E1.83279
G1 X105.387 Y139.313 E.08535
G1 X103.935 Y137.929 E.10224
G1 X85.95 Y106.779 E1.83279
G1 X85.477 Y105.172 E.08535
G1 X85.708 Y104.217 E.05004
; printing object OV-PAM_n_6_1F.stl id:0 copy 0
G1 E-1 F2400
G1 X89.197 Y104.961 F4200
G1 X89.215 Y104.918
G1 X89.401 Y105
G1 E1 F1500
;TYPE:External perimeter
;WIDTH:0.685998
G1 F1166.267
G1 X89.463 Y104.85 E.00954
G1 X107.102 Y74.299 E2.07497
G1 X107.201 Y74.171 E.00954
G1 X107.362 Y74.149 E.00954
G1 X142.639 Y74.149 E2.07497
G1 X142.799 Y74.171 E.00954
G1 X142.898 Y74.299 E.00954
G1 X160.537 Y104.85 E2.07497
G1 X160.599 Y105 E.00954
G1 X160.537 Y105.15 E.00954
G1 X142.898 Y135.701 E2.07497
G1 X142.799 Y135.829 E.00954
G1 X142.639 Y135.851 E.00954
G1 X107.362 Y135.851 E2.07497
G1 X107.201 Y135.829 E.00954
G1 X107.102 Y135.701 E.00954
G1 X89.463 Y105.15 E2.07497
G1 X89.424 Y105.055 E.00601
G1 X89.268 Y104.907 F4200
; stop printing object OV-PAM_n_6_1F.stl id:0 copy 0
;LAYER_CHANGE
;Z:0.8
;HEIGHT:0.2
;BEFORE_LAYER_CHANGE
G92 E0.0
;0.8


G1 E-1 F2400
G1 Z.8 F720
;AFTER_LAYER_CHANGE
;0.8
; printing object OV-PAM_n_6_1F.stl id:0 copy 0
G1 X89.401 Y105 F4200
G1 E1 F1500
G1 F1166.267
G1 X89.463 Y104.85 E.00954
G1 X107.102 Y74.299 E2.07497
G1 X107.201 Y74.171 E.00954
G1 X107.362 Y74.149 E.00954
G1 X142.639 Y74.149 E2.07497
G1 X142.799 Y74.171 E.00954
M73 P4 R31
M73 Q4 S31
G1 X142.898 Y74.299 E.00954
G1 X160.537 Y104.85 E2.07497
G1 X160.599 Y105 E.00954
G1 X160.537 Y105.15 E.00954
G1 X142.898 Y135.701 E2.07497
G1 X142.799 Y135.829 E.00954
G1 X142.639 Y135.851 E.00954
G1 X107.362 Y135.851 E2.07497
G1 X107.201 Y135.829 E.00954
G1 X107.102 Y135.701 E.00954
G1 X89.463 Y105.15 E2.07497
G1 X89.424 Y105.055 E.00601
G1 X89.268 Y104.907 F4200
; stop printing object OV-PAM_n_6_1F.stl id:0 copy 0
;LAYER_CHANGE
;Z:1
;HEIGHT:0.2
;BEFORE_LAYER_CHANGE
G92 E0.0
;1


G1 E-1 F2400
G1 Z1 F720
;AFTER_LAYER_CHANGE
;1
; printing object OV-PAM_n_6_1F.stl id:0 copy 0
G1 X89.401 Y105 F4200
G1 E1 F1500
G1 F1166.267
G1 X89.463 Y104.85 E.00954
G1 X107.102 Y74.299 E2.07497
G1 X107.201 Y74.171 E.00954
G1 X107.362 Y74.149 E.00954
G1 X142.639 Y74.149 E2.07497
G1 X142.799 Y74.171 E.00954
G1 X142.898 Y74.299 E.00954
G1 X160.537 Y104.85 E2.07497
G1 X160.599 Y105 E.00954
G1 X160.537 Y105.15 E.00954
G1 X142.898 Y135.701 E2.07497
G1 X142.799 Y135.829 E.00954
G1 X142.639 Y135.851 E.00954
G1 X107.362 Y135.851 E2.07497
G1 X107.201 Y135.829 E.00954
G1 X107.102 Y135.701 E.00954
G1 X89.463 Y105.15 E2.07497
G1 X89.424 Y105.055 E.00601
M73 P5 R31
M73 Q5 S31
G1 X89.268 Y104.907 F4200
; stop printing object OV-PAM_n_6_1F.stl id:0 copy 0
;LAYER_CHANGE
;Z:1.2
;HEIGHT:0.2
;BEFORE_LAYER_CHANGE
G92 E0.0
;1.2


G1 E-1 F2400
G1 Z1.2 F720
;AFTER_LAYER_CHANGE
;1.2
; printing object OV-PAM_n_6_1F.stl id:0 copy 0
G1 X89.423 Y105 F4200
G1 E1 F1500
;WIDTH:0.723602
G1 F1101.836
G1 X89.489 Y104.841 E.01069
G1 X107.107 Y74.326 E2.19378
G1 X107.212 Y74.19 E.01069
G1 X107.382 Y74.167 E.01069
G1 X142.618 Y74.167 E2.19378
G1 X142.788 Y74.19 E.01069
G1 X142.893 Y74.326 E.01069
G1 X160.511 Y104.841 E2.19378
G1 X160.577 Y105 E.01069
M73 P5 R30
M73 Q5 S30
G1 X160.511 Y105.159 E.01069
G1 X142.893 Y135.674 E2.19378
G1 X142.788 Y135.81 E.01069
G1 X142.618 Y135.833 E.01069
G1 X107.382 Y135.833 E2.19378
G1 X107.212 Y135.81 E.01069
G1 X107.107 Y135.674 E.01069
G1 X89.489 Y105.159 E2.19378
G1 X89.446 Y105.055 E.00695
G1 X89.282 Y104.902 F4200
; stop printing object OV-PAM_n_6_1F.stl id:0 copy 0
;LAYER_CHANGE
;Z:1.4
;HEIGHT:0.2
;BEFORE_LAYER_CHANGE
G92 E0.0
;1.4


G1 E-1 F2400
G1 Z1.4 F720
;AFTER_LAYER_CHANGE
;1.4
; printing object OV-PAM_n_6_1F.stl id:0 copy 0
G1 X89.597 Y105.173 F4200
G1 E1 F1500
;WIDTH:0.785482
G1 F1010.017
G1 X89.526 Y105 E.01272
G1 X89.597 Y104.827 E.01272
G1 X107.148 Y74.427 E2.38416
G1 X107.263 Y74.278 E.01272
G1 X107.448 Y74.253 E.01272
G1 X142.552 Y74.253 E2.38416
G1 X142.737 Y74.278 E.01272
G1 X142.852 Y74.427 E.01272
G1 X160.403 Y104.827 E2.38416
G1 X160.474 Y105 E.01272
G1 X160.403 Y105.173 E.01272
G1 X142.852 Y135.573 E2.38416
G1 X142.737 Y135.722 E.01272
M73 P6 R30
M73 Q6 S30
G1 X142.552 Y135.747 E.01272
G1 X107.448 Y135.747 E2.38416
G1 X107.263 Y135.722 E.01272
G1 X107.148 Y135.573 E.01272
G1 X89.627 Y105.225 E2.38009
G1 X89.41 Y105.157 F4200
; stop printing object OV-PAM_n_6_1F.stl id:0 copy 0
;LAYER_CHANGE
;Z:1.6
;HEIGHT:0.2
;BEFORE_LAYER_CHANGE
G92 E0.0
;1.6


G1 E-1 F2400
G1 Z1.6 F720
;AFTER_LAYER_CHANGE
;1.6
; printing object OV-PAM_n_6_1F.stl id:0 copy 0
G1 X89.73 Y105.173 F4200
G1 E1 F1500
;WIDTH:0.785482
G1 F1010.017
G1 X89.659 Y105 E.01272
G1 X89.73 Y104.827 E.01272
G1 X107.215 Y74.542 E2.37511
G1 X107.329 Y74.394 E.01272
G1 X107.515 Y74.369 E.01272
G1 X142.485 Y74.369 E2.3751
G1 X142.671 Y74.394 E.01272
G1 X142.785 Y74.542 E.01272
G1 X160.27 Y104.827 E2.37511
G1 X160.341 Y105 E.01272
G1 X160.27 Y105.173 E.01272
G1 X142.785 Y135.458 E2.37511
G1 X142.671 Y135.606 E.01272
G1 X142.485 Y135.631 E.01272
G1 X107.515 Y135.631 E2.3751
G1 X107.329 Y135.606 E.01272
G1 X107.215 Y135.458 E.01272
G1 X89.76 Y105.225 E2.37103
G1 X89.544 Y105.157 F4200
; stop printing object OV-PAM_n_6_1F.stl id:0 copy 0
;LAYER_CHANGE
;Z:1.8
;HEIGHT:0.2
;BEFORE_LAYER_CHANGE
G92 E0.0
;1.8


G1 E-1 F2400
G1 Z1.8 F720
;AFTER_LAYER_CHANGE
;1.8
; printing object OV-PAM_n_6_1F.stl id:0 copy 0
G1 X89.864 Y105.173 F4200
G1 E1 F1500
;WIDTH:0.786345
G1 F1008.845
G1 X89.792 Y105.002 E.01265
G1 X89.828 Y104.914 E.00642
;WIDTH:0.735741
G1 F1082.532
G1 X89.864 Y104.827 E.00599
G1 X107.282 Y74.658 E2.20756
;WIDTH:0.786344
G1 F1008.846
M73 P7 R30
M73 Q7 S30
G1 X107.395 Y74.51 E.01265
G1 X107.488 Y74.497 E.00642
;WIDTH:0.73574
G1 F1082.532
G1 X107.582 Y74.484 E.00599
G1 X142.418 Y74.484 E2.20755
;WIDTH:0.786344
G1 F1008.846
G1 X142.603 Y74.508 E.01265
G1 X142.66 Y74.583 E.00642
;WIDTH:0.735741
G1 F1082.532
G1 X142.718 Y74.658 E.00599
G1 X160.136 Y104.827 E2.20756
;WIDTH:0.786343
G1 F1008.847
G1 X160.208 Y104.998 E.01265
;WIDTH:0.786345
G1 X160.172 Y105.086 E.00642
;WIDTH:0.735741
G1 F1082.532
G1 X160.136 Y105.173 E.00599
G1 X142.718 Y135.342 E2.20756
;WIDTH:0.786344
G1 F1008.846
G1 X142.605 Y135.49 E.01265
G1 X142.512 Y135.503 E.00642
;WIDTH:0.73574
G1 F1082.532
G1 X142.418 Y135.516 E.00599
G1 X107.582 Y135.516 E2.20755
;WIDTH:0.786344
G1 F1008.846
G1 X107.397 Y135.492 E.01265
G1 X107.34 Y135.417 E.00642
;WIDTH:0.735741
G1 F1082.532
G1 X107.282 Y135.342 E.00599
G1 X89.894 Y105.225 E2.20375
G1 X89.678 Y105.157 F4200
; stop printing object OV-PAM_n_6_1F.stl id:0 copy 0
;LAYER_CHANGE
;Z:2
;HEIGHT:0.2
;BEFORE_LAYER_CHANGE
G92 E0.0
;2


G1 E-1 F2400
G1 Z2 F720
;AFTER_LAYER_CHANGE
;2
; printing object OV-PAM_n_6_1F.stl id:0 copy 0
G1 X89.997 Y105.173 F4200
G1 E1 F1500
;WIDTH:0.739348
G1 F1076.924
G1 X89.973 Y105.129 E.00319
;WIDTH:0.79665
G1 F995.052
G1 X89.921 Y105.02 E.00836
G1 X89.959 Y104.923 E.00716
;WIDTH:0.739348
G1 F1076.924
G1 X89.997 Y104.827 E.00661
G1 X107.375 Y74.731 E2.21374
;WIDTH:0.796648
G1 F995.054
G1 X107.443 Y74.63 E.00836
G1 X107.546 Y74.615 E.00716
;WIDTH:0.73935
G1 F1076.922
G1 X107.648 Y74.6 E.00661
G1 X142.402 Y74.602 E2.21375
;WIDTH:0.796648
G1 F995.054
G1 X142.522 Y74.61 E.00836
G1 X142.587 Y74.692 E.00716
;WIDTH:0.739348
G1 F1076.924
G1 X142.652 Y74.773 E.00661
G1 X160.027 Y104.871 E2.21374
;WIDTH:0.79665
G1 F995.051
G1 X160.079 Y104.98 E.00836
;WIDTH:0.79665
G1 X160.041 Y105.077 E.00716
;WIDTH:0.739348
G1 F1076.924
G1 X160.003 Y105.173 E.00661
G1 X142.625 Y135.269 E2.21374
;WIDTH:0.796648
G1 F995.054
G1 X142.557 Y135.37 E.00836
G1 X142.454 Y135.385 E.00716
;WIDTH:0.73935
G1 F1076.922
G1 X142.352 Y135.4 E.00661
G1 X107.598 Y135.398 E2.21375
;WIDTH:0.796649
G1 F995.054
M73 P8 R30
M73 Q8 S30
G1 X107.478 Y135.39 E.00836
G1 X107.413 Y135.308 E.00716
;WIDTH:0.739348
G1 F1076.924
G1 X107.348 Y135.227 E.00661
G1 X90.027 Y105.225 E2.20674
G1 X89.947 Y105.172 F4200
; stop printing object OV-PAM_n_6_1F.stl id:0 copy 0
;LAYER_CHANGE
;Z:2.2
;HEIGHT:0.2
;BEFORE_LAYER_CHANGE
G92 E0.0
;2.2


G1 E-1 F2400
G1 Z2.2 F720
;AFTER_LAYER_CHANGE
;2.2
; printing object OV-PAM_n_6_1F.stl id:0 copy 0
G1 X90.129 Y105.174 F4200
G1 E1 F1500
;WIDTH:0.817355
G1 F968.448
G1 X90.047 Y105.053 E.01035
G1 X90.088 Y104.94 E.00854
;WIDTH:0.739348
G1 F1076.924
G1 X90.13 Y104.827 E.00768
G1 X107.414 Y74.888 E2.20206
;WIDTH:0.817354
G1 F968.449
G1 X107.477 Y74.756 E.01035
G1 X107.596 Y74.736 E.00854
;WIDTH:0.739348
G1 F1076.924
G1 X107.715 Y74.715 E.00768
G1 X142.285 Y74.713 E2.20206
;WIDTH:0.817354
G1 F968.45
M73 P8 R29
M73 Q8 S29
G1 X142.431 Y74.703 E.01035
G1 X142.508 Y74.796 E.00854
;WIDTH:0.739348
G1 F1076.924
G1 X142.585 Y74.888 E.00768
G1 X159.871 Y104.826 E2.20206
;WIDTH:0.817355
G1 F968.448
G1 X159.953 Y104.947 E.01035
;WIDTH:0.817355
G1 X159.912 Y105.06 E.00854
;WIDTH:0.739348
G1 F1076.924
G1 X159.87 Y105.173 E.00768
G1 X142.586 Y135.112 E2.20206
;WIDTH:0.817354
G1 F968.449
G1 X142.523 Y135.244 E.01035
G1 X142.404 Y135.264 E.00854
;WIDTH:0.739348
G1 F1076.924
G1 X142.285 Y135.285 E.00768
G1 X107.715 Y135.287 E2.20206
;WIDTH:0.817354
G1 F968.45
G1 X107.569 Y135.297 E.01035
G1 X107.492 Y135.204 E.00854
;WIDTH:0.739348
G1 F1076.924
G1 X107.415 Y135.112 E.00768
G1 X90.16 Y105.225 E2.19824
G1 X89.983 Y105.181 F4200
; stop printing object OV-PAM_n_6_1F.stl id:0 copy 0
;LAYER_CHANGE
;Z:2.4
;HEIGHT:0.2
;BEFORE_LAYER_CHANGE
G92 E0.0
;2.4


G1 E-1 F2400
G1 Z2.4 F720
;AFTER_LAYER_CHANGE
;2.4
; printing object OV-PAM_n_6_1F.stl id:0 copy 0
G1 X90.249 Y105.181 F4200
G1 E1 F1500
;WIDTH:0.848214
G1 F931.337
G1 X90.173 Y105.097 E.00842
G1 X90.203 Y105.007 E.00699
;WIDTH:0.768216
G1 F1034.062
G1 X90.264 Y104.827 E.01259
G1 X107.407 Y75.134 E2.27455
G1 X107.468 Y74.996 E.01001
;WIDTH:0.848214
G1 F931.337
G1 X107.503 Y74.887 E.00842
G1 X107.596 Y74.868 E.00699
;WIDTH:0.768216
G1 F1034.061
G1 X107.782 Y74.831 E.01259
G1 X142.068 Y74.831 E2.27455
G1 X142.218 Y74.814 E.01001
;WIDTH:0.848215
G1 F931.336
G1 X142.33 Y74.79 E.00842
G1 X142.393 Y74.862 E.00699
;WIDTH:0.768217
G1 F1034.059
G1 X142.518 Y75.004 E.01259
G1 X159.661 Y104.697 E2.27455
G1 X159.751 Y104.819 E.01001
;WIDTH:0.848215
M73 P9 R29
M73 Q9 S29
G1 F931.336
G1 X159.827 Y104.903 E.00842
;WIDTH:0.848214
G1 X159.797 Y104.993 E.00699
;WIDTH:0.768216
G1 F1034.062
G1 X159.736 Y105.173 E.01259
G1 X142.593 Y134.866 E2.27455
G1 X142.532 Y135.004 E.01001
;WIDTH:0.848214
G1 F931.337
G1 X142.497 Y135.113 E.00842
G1 X142.404 Y135.132 E.00699
;WIDTH:0.768216
G1 F1034.061
G1 X142.218 Y135.169 E.01259
G1 X107.932 Y135.169 E2.27455
G1 X107.782 Y135.186 E.01001
;WIDTH:0.848216
G1 F931.335
G1 X107.67 Y135.21 E.00842
G1 X107.607 Y135.138 E.00699
;WIDTH:0.768217
G1 F1034.059
G1 X107.482 Y134.996 E.01259
G1 X90.285 Y105.23 E2.28054
G1 X90.136 Y105.198 F4200
; stop printing object OV-PAM_n_6_1F.stl id:0 copy 0
;LAYER_CHANGE
;Z:2.6
;HEIGHT:0.2
;BEFORE_LAYER_CHANGE
G92 E0.0
;2.6


G1 E-1 F2400
G1 Z2.6 F720
;AFTER_LAYER_CHANGE
;2.6
