; generated by PrusaSlicer 2.5.2+win64 on 2023-08-31 at 05:38:18 UTC


;
;
; 

; external perimeters extrusion width = 0.60mm
; perimeters extrusion width = 0.60mm
; infill extrusion width = 0.60mm
; solid infill extrusion width = 0.60mm
; top infill extrusion width = 0.60mm
; first layer extrusion width = 0.60mm

M73 P0 R30
M73 Q0 S30
M201 X1000 Y1000 Z200 E5000 ; sets maximum accelerations, mm/sec^2
M203 X200 Y200 Z12 E120 ; sets maximum feedrates, mm / sec
M204 P1250 R1250 T1250 ; sets acceleration (P, T) and retract acceleration (R), mm/sec^2
M205 X8.00 Y8.00 Z0.40 E4.50 ; sets the jerk limits, mm/sec
M205 S0 T0 ; sets the minimum extruding and travel feed rate, mm/sec
M107
;TYPE:Custom
M862.3 P "MK3S" ; printer model check
M862.1 P0.4 ; nozzle diameter check
M115 U3.12.2 ; tell printer latest fw version
G90 ; use absolute coordinates
M83 ; extruder relative mode
M104 S240 ; set extruder temp
M140 S50 ; set bed temp
M190 S50 ; wait for bed temp
M109 S240 ; wait for extruder temp
G28 W ; home all without mesh bed level
G80 ; mesh bed leveling

G1 Z0.2 F720
G1 Y-3 F1000 ; go outside print area
G92 E0
G1 X60 E9 F1000 ; intro line
G1 X100 E12.5 F1000 ; intro line

G92 E0
M221 S95

; Don't change E values below. Excessive value can damage the printer.
M907 E430 ; set extruder motor current
G21 ; set units to millimeters
G90 ; use absolute coordinates
M83 ; use relative distances for extrusion
M900 K0 ; Filament gcode
M107
;LAYER_CHANGE
;Z:0.2
;HEIGHT:0.2
;BEFORE_LAYER_CHANGE
G92 E0.0
;0.2


G1 E-1 F2400
G1 Z.2 F720
;AFTER_LAYER_CHANGE
;0.2
G1 X96.536 Y77.838 F4200
G1 E1 F1500
M204 S300
;TYPE:Skirt/Brim
;WIDTH:0.6
G1 F1200
G1 X97.838 Y76.536 E.09382
G1 X113.93 Y67.245 E.94683
G1 X115.709 Y66.768 E.09382
G1 X134.291 Y66.768 E.94683
G1 X136.07 Y67.245 E.09382
G1 X152.162 Y76.536 E.94683
G1 X153.464 Y77.838 E.09382
G1 X162.755 Y93.93 E.94683
G1 X163.232 Y95.709 E.09382
G1 X163.232 Y114.291 E.94683
G1 X162.755 Y116.07 E.09382
G1 X153.464 Y132.162 E.94683
G1 X152.162 Y133.464 E.09382
G1 X136.07 Y142.755 E.94683
G1 X134.291 Y143.232 E.09382
G1 X115.709 Y143.232 E.94683
G1 X113.93 Y142.755 E.09382
G1 X97.838 Y133.464 E.94683
G1 X96.536 Y132.162 E.09382
G1 X87.245 Y116.07 E.94683
G1 X86.768 Y114.291 E.09382
G1 X86.768 Y95.709 E.94683
G1 X87.245 Y93.93 E.09382
M73 P1 R30
M73 Q1 S30
G1 X96.506 Y77.89 E.94377
; printing object OV-PAM_n_12_1F.stl id:0 copy 0
G1 E-1 F2400
G1 X115.788 Y70.632 F4200
G1 E1 F1500
;TYPE:External perimeter
;WIDTH:0.653316
G1 F1200
G1 X134.13 Y70.625 E1.02405
G1 X134.209 Y70.63 E.00442
G1 X134.28 Y70.665 E.00442
G1 X150.16 Y79.84 E1.02391
G1 X159.37 Y95.791 E1.02832
G1 X159.375 Y114.13 E1.02391
G1 X159.37 Y114.209 E.00442
G1 X159.335 Y114.28 E.00442
G1 X150.16 Y130.16 E1.02391
G1 X134.209 Y139.37 E1.02832
G1 X115.87 Y139.375 E1.02391
G1 X115.791 Y139.37 E.00442
G1 X115.72 Y139.335 E.00442
G1 X99.84 Y130.16 E1.02391
G1 X90.63 Y114.209 E1.02832
G1 X90.625 Y95.87 E1.02391
G1 X90.63 Y95.791 E.00442
G1 X90.665 Y95.72 E.00442
G1 X99.84 Y79.84 E1.02391
G1 X115.734 Y70.658 E1.02481
G1 X115.892 Y70.245 F4200
; stop printing object OV-PAM_n_12_1F.stl id:0 copy 0
;LAYER_CHANGE
;Z:0.4
;HEIGHT:0.2
;BEFORE_LAYER_CHANGE
G92 E0.0
;0.4


G1 E-1 F2400
G1 Z.4 F720
;AFTER_LAYER_CHANGE
;0.4
G1 X115.744 Y70.676 F4200
G1 X115.747 Y70.674
G1 X114.76 Y67.022
G1 E1 F1500
;TYPE:Skirt/Brim
;WIDTH:0.6
G1 F1346.307
G1 X115.709 Y66.768 E.05005
G1 X134.291 Y66.768 E.94683
G1 X136.07 Y67.245 E.09382
G1 X152.162 Y76.536 E.94683
G1 X153.464 Y77.838 E.09382
G1 X162.755 Y93.93 E.94683
G1 X163.232 Y95.709 E.09382
G1 X163.232 Y114.291 E.94683
G1 X162.755 Y116.07 E.09382
G1 X153.464 Y132.162 E.94683
G1 X152.162 Y133.464 E.09382
G1 X136.07 Y142.755 E.94683
G1 X134.291 Y143.232 E.09382
M73 P2 R30
M73 Q2 S30
G1 X115.709 Y143.232 E.94683
G1 X113.93 Y142.755 E.09382
G1 X97.838 Y133.464 E.94683
G1 X96.536 Y132.162 E.09382
G1 X87.245 Y116.07 E.94683
G1 X86.768 Y114.291 E.09382
G1 X86.768 Y95.709 E.94683
G1 X87.245 Y93.93 E.09382
G1 X96.536 Y77.838 E.94683
G1 X97.838 Y76.536 E.09382
G1 X113.93 Y67.245 E.94683
G1 X114.702 Y67.038 E.04071
; printing object OV-PAM_n_12_1F.stl id:0 copy 0
G1 E-1 F2400
G1 X115.71 Y70.44 F4200
G1 X115.666 Y70.464
G1 X115.764 Y70.643
G1 E1 F1500
;TYPE:External perimeter
;WIDTH:0.653316
G1 F1200
G1 X115.87 Y70.625 E.006
G1 X134.13 Y70.625 E1.0195
G1 X134.209 Y70.63 E.00442
G1 X134.28 Y70.665 E.00442
G1 X150.16 Y79.84 E1.02391
G1 X159.37 Y95.791 E1.02832
G1 X159.375 Y114.13 E1.02391
G1 X159.37 Y114.209 E.00442
G1 X159.335 Y114.28 E.00442
G1 X150.16 Y130.16 E1.02391
G1 X134.209 Y139.37 E1.02832
M73 P2 R29
M73 Q2 S29
G1 X115.87 Y139.375 E1.02391
G1 X115.791 Y139.37 E.00442
G1 X115.72 Y139.335 E.00442
G1 X99.84 Y130.16 E1.02391
G1 X90.63 Y114.209 E1.02832
G1 X90.625 Y95.87 E1.02391
G1 X90.63 Y95.791 E.00442
G1 X90.665 Y95.72 E.00442
G1 X99.84 Y79.84 E1.02391
G1 X115.71 Y70.671 E1.02331
G1 X115.78 Y70.537 F4200
; stop printing object OV-PAM_n_12_1F.stl id:0 copy 0
;LAYER_CHANGE
;Z:0.6
;HEIGHT:0.2
;BEFORE_LAYER_CHANGE
G92 E0.0
;0.6


G1 E-1 F2400
G1 Z.6 F720
;AFTER_LAYER_CHANGE
;0.6
G1 X115.721 Y70.689 F4200
G1 X115.727 Y70.686
G1 X114.735 Y67.029
G1 E1 F1500
;TYPE:Skirt/Brim
;WIDTH:0.6
G1 F1346.307
G1 X115.709 Y66.768 E.05139
G1 X134.291 Y66.768 E.94683
G1 X136.07 Y67.245 E.09382
M73 P3 R29
M73 Q3 S29
G1 X152.162 Y76.536 E.94683
G1 X153.464 Y77.838 E.09382
G1 X162.755 Y93.93 E.94683
G1 X163.232 Y95.709 E.09382
G1 X163.232 Y114.291 E.94683
G1 X162.755 Y116.07 E.09382
G1 X153.464 Y132.162 E.94683
G1 X152.162 Y133.464 E.09382
G1 X136.07 Y142.755 E.94683
G1 X134.291 Y143.232 E.09382
G1 X115.709 Y143.232 E.94683
G1 X113.93 Y142.755 E.09382
G1 X97.838 Y133.464 E.94683
G1 X96.536 Y132.162 E.09382
G1 X87.245 Y116.07 E.94683
G1 X86.768 Y114.291 E.09382
G1 X86.768 Y95.709 E.94683
G1 X87.245 Y93.93 E.09382
G1 X96.536 Y77.838 E.94683
G1 X97.838 Y76.536 E.09382
G1 X113.93 Y67.245 E.94683
G1 X114.677 Y67.045 E.03937
; printing object OV-PAM_n_12_1F.stl id:0 copy 0
G1 E-1 F2400
G1 X115.686 Y70.453 F4200
G1 X115.639 Y70.479
G1 X115.736 Y70.657
G1 E1 F1500
;TYPE:External perimeter
;WIDTH:0.653316
G1 F1200
G1 X115.791 Y70.63 E.00338
G1 X115.87 Y70.625 E.00442
G1 X134.13 Y70.625 E1.0195
G1 X134.209 Y70.63 E.00442
G1 X134.28 Y70.665 E.00442
G1 X150.16 Y79.84 E1.02391
G1 X159.37 Y95.791 E1.02832
G1 X159.375 Y114.13 E1.02391
G1 X159.37 Y114.209 E.00442
G1 X159.335 Y114.28 E.00442
G1 X150.16 Y130.16 E1.02391
G1 X134.209 Y139.37 E1.02832
G1 X115.87 Y139.375 E1.02391
G1 X115.791 Y139.37 E.00442
G1 X115.72 Y139.335 E.00442
G1 X99.84 Y130.16 E1.02391
G1 X90.63 Y114.209 E1.02832
G1 X90.625 Y95.87 E1.02391
M73 P4 R29
M73 Q4 S29
G1 X90.63 Y95.791 E.00442
G1 X90.665 Y95.72 E.00442
G1 X99.84 Y79.84 E1.02391
G1 X115.684 Y70.686 E1.02159
G1 X115.734 Y70.596 F4200
; stop printing object OV-PAM_n_12_1F.stl id:0 copy 0
;LAYER_CHANGE
;Z:0.8
;HEIGHT:0.2
;BEFORE_LAYER_CHANGE
G92 E0.0
;0.8


G1 E-1 F2400
G1 Z.8 F720
;AFTER_LAYER_CHANGE
;0.8
; printing object OV-PAM_n_12_1F.stl id:0 copy 0
G1 X115.705 Y70.674 F4200
G1 E1 F1500
G1 F1200
G1 X115.791 Y70.63 E.00539
G1 X115.87 Y70.625 E.00442
G1 X134.13 Y70.625 E1.0195
G1 X134.209 Y70.63 E.00442
G1 X134.28 Y70.665 E.00442
G1 X150.16 Y79.84 E1.02391
G1 X159.37 Y95.791 E1.02832
G1 X159.375 Y114.13 E1.02391
G1 X159.37 Y114.209 E.00442
G1 X159.335 Y114.28 E.00442
G1 X150.16 Y130.16 E1.02391
G1 X134.209 Y139.37 E1.02832
G1 X115.87 Y139.375 E1.02391
G1 X115.791 Y139.37 E.00442
G1 X115.72 Y139.335 E.00442
G1 X99.84 Y130.16 E1.02391
G1 X90.63 Y114.209 E1.02832
G1 X90.625 Y95.87 E1.02391
G1 X90.63 Y95.791 E.00442
G1 X90.665 Y95.72 E.00442
G1 X99.84 Y79.84 E1.02391
G1 X115.653 Y70.704 E1.01959
G1 X115.7 Y70.578 F4200
; stop printing object OV-PAM_n_12_1F.stl id:0 copy 0
;LAYER_CHANGE
;Z:1
;HEIGHT:0.2
;BEFORE_LAYER_CHANGE
G92 E0.0
;1


G1 E-1 F2400
G1 Z1 F720
;AFTER_LAYER_CHANGE
;1
; printing object OV-PAM_n_12_1F.stl id:0 copy 0
G1 X115.667 Y70.695 F4200
G1 E1 F1500
G1 F1200
G1 X115.791 Y70.63 E.00779
G1 X115.87 Y70.625 E.00442
G1 X134.13 Y70.625 E1.0195
G1 X134.209 Y70.63 E.00442
G1 X134.28 Y70.665 E.00442
G1 X150.16 Y79.84 E1.02391
G1 X159.37 Y95.791 E1.02832
G1 X159.375 Y114.13 E1.02391
G1 X159.37 Y114.209 E.00442
G1 X159.335 Y114.28 E.00442
G1 X150.16 Y130.16 E1.02391
G1 X134.209 Y139.37 E1.02832
M73 P5 R29
M73 Q5 S29
G1 X115.87 Y139.375 E1.02391
G1 X115.791 Y139.37 E.00442
G1 X115.72 Y139.335 E.00442
G1 X99.84 Y130.16 E1.02391
G1 X90.63 Y114.209 E1.02832
G1 X90.625 Y95.87 E1.02391
G1 X90.63 Y95.791 E.00442
G1 X90.665 Y95.72 E.00442
G1 X99.84 Y79.84 E1.02391
G1 X115.615 Y70.725 E1.01718
G1 X115.659 Y70.556 F4200
; stop printing object OV-PAM_n_12_1F.stl id:0 copy 0
;LAYER_CHANGE
;Z:1.2
;HEIGHT:0.2
;BEFORE_LAYER_CHANGE
G92 E0.0
;1.2


G1 E-1 F2400
G1 Z1.2 F720
;AFTER_LAYER_CHANGE
;1.2
; printing object OV-PAM_n_12_1F.stl id:0 copy 0
G1 X115.633 Y70.735 F4200
G1 E1 F1500
;WIDTH:0.689009
G1 F1160.831
G1 X115.795 Y70.648 E.01088
G1 X115.879 Y70.643 E.00495
G1 X134.121 Y70.643 E1.078
G1 X134.205 Y70.648 E.00495
G1 X134.28 Y70.685 E.00495
G1 X150.147 Y79.853 E1.08294
G1 X159.352 Y95.795 E1.08788
G1 X159.357 Y114.121 E1.08294
G1 X159.352 Y114.205 E.00495
G1 X159.315 Y114.28 E.00495
G1 X150.147 Y130.147 E1.08294
G1 X134.205 Y139.352 E1.08788
G1 X115.879 Y139.357 E1.08294
G1 X115.795 Y139.352 E.00495
G1 X115.72 Y139.315 E.00495
G1 X99.853 Y130.147 E1.08294
G1 X90.648 Y114.205 E1.08788
G1 X90.643 Y95.879 E1.08294
M73 P5 R28
M73 Q5 S28
G1 X90.648 Y95.795 E.00495
G1 X90.685 Y95.72 E.00495
G1 X99.853 Y79.853 E1.08294
G1 X115.581 Y70.765 E1.07346
G1 X115.621 Y70.552 F4200
; stop printing object OV-PAM_n_12_1F.stl id:0 copy 0
;LAYER_CHANGE
;Z:1.4
;HEIGHT:0.2
;BEFORE_LAYER_CHANGE
G92 E0.0
;1.4


M73 P6 R28
M73 Q6 S28
G1 E-1 F2400
G1 Z1.4 F720
;AFTER_LAYER_CHANGE
;1.4
; printing object OV-PAM_n_12_1F.stl id:0 copy 0
G1 X115.626 Y70.839 F4200
G1 E1 F1500
;WIDTH:0.747746
G1 F1064.093
G1 X115.819 Y70.735 E.01409
G1 X115.91 Y70.729 E.00589
G1 X134.09 Y70.729 E1.17202
G1 X134.181 Y70.735 E.00589
G1 X134.263 Y70.776 E.00589
G1 X150.084 Y79.916 E1.1779
G1 X159.265 Y95.819 E1.18378
G1 X159.265 Y114.181 E1.18378
G1 X150.134 Y130.008 E1.1779
G1 X150.084 Y130.084 E.00589
G1 X150.008 Y130.134 E.00589
G1 X134.181 Y139.265 E1.1779
G1 X115.819 Y139.265 E1.18378
G1 X99.992 Y130.134 E1.1779
G1 X99.916 Y130.084 E.00589
G1 X99.866 Y130.008 E.00589
G1 X90.735 Y114.181 E1.1779
G1 X90.729 Y95.91 E1.1779
G1 X90.735 Y95.819 E.00589
G1 X90.776 Y95.737 E.00589
G1 X99.916 Y79.916 E1.1779
G1 X115.575 Y70.869 E1.16582
G1 X115.611 Y70.621 F4200
; stop printing object OV-PAM_n_12_1F.stl id:0 copy 0
;LAYER_CHANGE
;Z:1.6
;HEIGHT:0.2
;BEFORE_LAYER_CHANGE
G92 E0.0
;1.6


G1 E-1 F2400
G1 Z1.6 F720
;AFTER_LAYER_CHANGE
;1.6
; printing object OV-PAM_n_12_1F.stl id:0 copy 0
G1 X115.627 Y70.972 F4200
G1 E1 F1500
;WIDTH:0.754132
G1 F1054.539
G1 X115.828 Y70.854 E.01517
G1 X115.941 Y70.845 E.00737
G1 X134.13 Y70.843 E1.18322
G1 X134.232 Y70.891 E.00737
G1 X149.985 Y79.984 E1.18322
G1 X159.146 Y95.828 E1.19056
G1 X159.157 Y114.13 E1.19056
G1 X159.109 Y114.232 E.00737
G1 X150.016 Y129.985 E1.18322
G1 X134.172 Y139.146 E1.19056
G1 X115.87 Y139.157 E1.19056
M73 P7 R28
M73 Q7 S28
G1 X115.768 Y139.109 E.00737
G1 X100.015 Y130.016 E1.18322
G1 X90.854 Y114.172 E1.19056
G1 X90.843 Y95.87 E1.19056
G1 X90.891 Y95.768 E.00737
G1 X99.984 Y80.015 E1.18322
G1 X115.575 Y71.002 E1.17148
G1 X115.839 Y71.07 F4200
; stop printing object OV-PAM_n_12_1F.stl id:0 copy 0
;LAYER_CHANGE
;Z:1.8
;HEIGHT:0.2
;BEFORE_LAYER_CHANGE
G92 E0.0
;1.8


G1 E-1 F2400
G1 Z1.8 F720
;AFTER_LAYER_CHANGE
;1.8
; printing object OV-PAM_n_12_1F.stl id:0 copy 0
G1 X115.606 Y71.117 F4200
G1 E1 F1500
;WIDTH:0.777418
G1 F1021.105
G1 X115.802 Y70.981 E.01602
G1 X115.972 Y70.96 E.0115
G1 X133.874 Y70.96 E1.20272
G1 X134.044 Y70.94 E.01146
G1 X134.201 Y71.007 E.0115
G1 X149.705 Y79.958 E1.20272
G1 X149.862 Y80.025 E.01146
G1 X149.965 Y80.161 E.0115
G1 X158.917 Y95.666 E1.20272
G1 X159.019 Y95.802 E.01146
G1 X159.04 Y95.972 E.0115
G1 X159.04 Y113.874 E1.20272
G1 X159.06 Y114.044 E.01146
G1 X158.993 Y114.201 E.0115
G1 X150.042 Y129.705 E1.20272
G1 X149.975 Y129.862 E.01146
G1 X149.839 Y129.965 E.0115
G1 X134.334 Y138.917 E1.20272
G1 X134.198 Y139.019 E.01146
G1 X134.028 Y139.04 E.0115
G1 X116.126 Y139.04 E1.20272
G1 X115.956 Y139.06 E.01146
G1 X115.799 Y138.993 E.0115
G1 X100.295 Y130.042 E1.20272
G1 X100.138 Y129.975 E.01146
G1 X100.035 Y129.839 E.0115
G1 X91.083 Y114.334 E1.20272
G1 X90.981 Y114.198 E.01146
G1 X90.96 Y114.028 E.0115
G1 X90.96 Y96.126 E1.20272
G1 X90.94 Y95.956 E.01146
G1 X91.007 Y95.799 E.0115
G1 X99.958 Y80.295 E1.20272
G1 X100.025 Y80.138 E.01146
M73 P8 R28
M73 Q8 S28
G1 X100.161 Y80.035 E.0115
G1 X115.555 Y71.147 E1.1941
G1 X115.819 Y71.225 F4200
; stop printing object OV-PAM_n_12_1F.stl id:0 copy 0
;LAYER_CHANGE
;Z:2
;HEIGHT:0.2
;BEFORE_LAYER_CHANGE
G92 E0.0
;2


G1 E-1 F2400
G1 Z2 F720
;AFTER_LAYER_CHANGE
;2
; printing object OV-PAM_n_12_1F.stl id:0 copy 0
G1 X115.579 Y71.267 F4200
G1 E1 F1500
;WIDTH:0.735742
G1 F1082.53
G1 X115.671 Y71.191 E.00753
;WIDTH:0.814996
G1 F971.407
G1 X115.762 Y71.115 E.00839
G1 X116.003 Y71.076 E.01723
;WIDTH:0.73574
G1 F1082.532
G1 X133.708 Y71.076 E1.12195
G1 X133.825 Y71.056 E.00753
;WIDTH:0.814994
G1 F971.409
G1 X133.942 Y71.036 E.00839
G1 X134.17 Y71.122 E.01723
;WIDTH:0.735738
G1 F1082.535
G1 X149.503 Y79.974 E1.12195
G1 X149.615 Y80.016 E.00753
;WIDTH:0.814997
G1 F971.406
G1 X149.726 Y80.057 E.00839
G1 X149.881 Y80.246 E.01723
;WIDTH:0.735742
G1 F1082.53
G1 X158.733 Y95.579 E1.12195
G1 X158.809 Y95.671 E.00753
;WIDTH:0.814996
G1 F971.407
G1 X158.885 Y95.762 E.00839
G1 X158.924 Y96.003 E.01723
;WIDTH:0.73574
G1 F1082.532
G1 X158.924 Y113.708 E1.12195
G1 X158.944 Y113.825 E.00753
;WIDTH:0.814994
G1 F971.409
G1 X158.964 Y113.942 E.00839
;WIDTH:0.814996
G1 X158.878 Y114.17 E.01723
;WIDTH:0.735743
G1 F1082.528
G1 X150.026 Y129.503 E1.12195
G1 X149.984 Y129.615 E.00753
;WIDTH:0.814997
G1 F971.406
G1 X149.943 Y129.726 E.00839
G1 X149.754 Y129.881 E.01723
;WIDTH:0.735742
G1 F1082.53
G1 X134.421 Y138.733 E1.12195
G1 X134.329 Y138.809 E.00753
;WIDTH:0.814996
G1 F971.407
G1 X134.238 Y138.885 E.00839
G1 X133.997 Y138.924 E.01723
;WIDTH:0.73574
G1 F1082.532
G1 X116.292 Y138.924 E1.12195
G1 X116.175 Y138.944 E.00753
;WIDTH:0.814994
G1 F971.409
G1 X116.058 Y138.964 E.00839
G1 X115.83 Y138.878 E.01723
;WIDTH:0.735743
G1 F1082.528
G1 X100.497 Y130.026 E1.12195
G1 X100.385 Y129.984 E.00753
;WIDTH:0.814997
G1 F971.406
G1 X100.274 Y129.943 E.00839
G1 X100.119 Y129.754 E.01723
;WIDTH:0.735742
G1 F1082.53
G1 X91.267 Y114.421 E1.12195
G1 X91.191 Y114.329 E.00753
;WIDTH:0.814996
G1 F971.407
G1 X91.115 Y114.238 E.00839
G1 X91.076 Y113.997 E.01723
;WIDTH:0.73574
G1 F1082.532
G1 X91.076 Y96.292 E1.12195
G1 X91.056 Y96.175 E.00753
;WIDTH:0.814994
G1 F971.409
G1 X91.036 Y96.058 E.00839
G1 X91.122 Y95.83 E.01723
;WIDTH:0.735743
G1 F1082.528
G1 X99.974 Y80.497 E1.12195
G1 X100.016 Y80.385 E.00753
;WIDTH:0.814997
G1 F971.406
G1 X100.057 Y80.274 E.00839
G1 X100.246 Y80.119 E.01723
;WIDTH:0.735742
G1 F1082.53
G1 X115.527 Y71.297 E1.11815
; stop printing object OV-PAM_n_12_1F.stl id:0 copy 0
;LAYER_CHANGE
;Z:2.2
;HEIGHT:0.2
;BEFORE_LAYER_CHANGE
G92 E0.0
;2.2


G1 E-1 F2400
G1 Z2.2 F720
;AFTER_LAYER_CHANGE
;2.2
; printing object OV-PAM_n_12_1F.stl id:0 copy 0
G1 X115.48 Y71.216 F4200
G1 X134.52 Y71.216
G1 X149.044 Y79.601
G1 X149.097 Y79.632
G1 X149.166 Y79.513
G1 E1 F1500
;WIDTH:0.776358
G1 F1022.582
G1 X149.796 Y80.331 E.06924
G1 X158.55 Y95.492 E1.17447
G1 X158.616 Y95.566 E.00664
;WIDTH:0.857596
G1 F920.611
G1 X158.748 Y95.714 E.01475
G1 X158.793 Y95.665 E.00494
;WIDTH:0.767042
G1 F1035.737
G1 X158.884 Y95.568 E.00878
;WIDTH:0.676488
G1 F1183.773
G1 X158.974 Y95.471 E.00768
;WIDTH:0.585934
G1 F1200
G1 X159.065 Y95.374 E.00659
;WIDTH:0.49538
G1 X159.155 Y95.278 E.00549
G1 X158.672 Y95.011 F4200
;WIDTH:0.776359
G1 F1022.58
G1 X158.809 Y96.034 E.06924
G1 X158.809 Y113.541 E1.17447
G1 X158.829 Y113.638 E.00664
;WIDTH:0.857597
G1 F920.611
G1 X158.87 Y113.832 E.01475
G1 X158.933 Y113.812 E.00494
