; generated by PrusaSlicer 2.5.2+win64 on 2023-08-31 at 05:37:45 UTC


;
;
; 

; external perimeters extrusion width = 0.60mm
; perimeters extrusion width = 0.60mm
; infill extrusion width = 0.60mm
; solid infill extrusion width = 0.60mm
; top infill extrusion width = 0.60mm
; first layer extrusion width = 0.60mm

M73 P0 R30
M73 Q0 S30
M201 X1000 Y1000 Z200 E5000 ; sets maximum accelerations, mm/sec^2
M203 X200 Y200 Z12 E120 ; sets maximum feedrates, mm / sec
M204 P1250 R1250 T1250 ; sets acceleration (P, T) and retract acceleration (R), mm/sec^2
M205 X8.00 Y8.00 Z0.40 E4.50 ; sets the jerk limits, mm/sec
M205 S0 T0 ; sets the minimum extruding and travel feed rate, mm/sec
M107
;TYPE:Custom
M862.3 P "MK3S" ; printer model check
M862.1 P0.4 ; nozzle diameter check
M115 U3.12.2 ; tell printer latest fw version
G90 ; use absolute coordinates
M83 ; extruder relative mode
M104 S240 ; set extruder temp
M140 S50 ; set bed temp
M190 S50 ; wait for bed temp
M109 S240 ; wait for extruder temp
G28 W ; home all without mesh bed level
G80 ; mesh bed leveling

G1 Z0.2 F720
G1 Y-3 F1000 ; go outside print area
G92 E0
G1 X60 E9 F1000 ; intro line
G1 X100 E12.5 F1000 ; intro line

G92 E0
M221 S95

; Don't change E values below. Excessive value can damage the printer.
M907 E430 ; set extruder motor current
G21 ; set units to millimeters
G90 ; use absolute coordinates
M83 ; use relative distances for extrusion
M900 K0 ; Filament gcode
M107
;LAYER_CHANGE
;Z:0.2
;HEIGHT:0.2
;BEFORE_LAYER_CHANGE
G92 E0.0
;0.2


G1 E-1 F2400
G1 Z.2 F720
;AFTER_LAYER_CHANGE
;0.2
G1 X89.093 Y88.653 F4200
G1 E1 F1500
M204 S300
;TYPE:Skirt/Brim
;WIDTH:0.6
G1 F1200
G1 X108.653 Y69.093 E1.40951
G1 X110.083 Y68.221 E.08535
M73 P0 R29
M73 Q0 S29
G1 X111.169 Y68.051 E.05597
G1 X138.831 Y68.051 E1.40951
G1 X140.459 Y68.445 E.08535
G1 X141.347 Y69.093 E.05597
G1 X160.907 Y88.653 E1.40951
G1 X161.779 Y90.083 E.08535
G1 X161.949 Y91.169 E.05597
G1 X161.949 Y118.831 E1.40951
G1 X161.555 Y120.459 E.08535
G1 X160.907 Y121.347 E.05597
G1 X141.347 Y140.907 E1.40951
G1 X139.917 Y141.779 E.08535
G1 X138.831 Y141.949 E.05597
G1 X111.169 Y141.949 E1.40951
G1 X109.541 Y141.555 E.08535
G1 X108.653 Y140.907 E.05597
G1 X89.093 Y121.347 E1.40951
G1 X88.221 Y119.917 E.08535
M73 P1 R29
M73 Q1 S29
G1 X88.051 Y118.831 E.05597
G1 X88.051 Y91.169 E1.40951
G1 X88.445 Y89.541 E.08535
G1 X89.058 Y88.702 E.05291
; printing object OV-PAM_n_8_standard_1F.stl id:0 copy 0
G1 E-1 F2400
G1 X157.987 Y118.554 F4200
G1 E1 F1500
;TYPE:External perimeter
;WIDTH:0.874574
G1 F901.818
G1 X157.976 Y118.659 E.00806
G1 X157.875 Y118.783 E.01216
G1 X138.783 Y137.875 E2.05382
G1 X138.659 Y137.976 E.01216
G1 X138.5 Y137.992 E.01216
G1 X111.5 Y137.992 E2.05382
G1 X111.341 Y137.976 E.01216
G1 X111.217 Y137.875 E.01216
G1 X92.125 Y118.783 E2.05382
G1 X92.024 Y118.659 E.01216
G1 X92.008 Y118.5 E.01216
G1 X92.008 Y91.5 E2.05382
G1 X92.024 Y91.341 E.01216
G1 X92.125 Y91.217 E.01216
G1 X111.217 Y72.125 E2.05382
G1 X111.341 Y72.024 E.01216
G1 X111.5 Y72.008 E.01216
G1 X138.5 Y72.008 E2.05382
G1 X138.659 Y72.024 E.01216
G1 X138.783 Y72.125 E.01216
G1 X157.875 Y91.217 E2.05382
G1 X157.976 Y91.341 E.01216
G1 X157.992 Y91.5 E.01216
G1 X157.992 Y118.494 E2.05336
G1 X158.075 Y118.613 F4200
; stop printing object OV-PAM_n_8_standard_1F.stl id:0 copy 0
;LAYER_CHANGE
;Z:0.4
;HEIGHT:0.2
;BEFORE_LAYER_CHANGE
G92 E0.0
;0.4


G1 E-1 F2400
G1 Z.4 F720
;AFTER_LAYER_CHANGE
;0.4
G1 X161.807 Y119.418 F4200
G1 E1 F1500
;TYPE:Skirt/Brim
;WIDTH:0.6
G1 F1346.307
M73 P2 R29
M73 Q2 S29
G1 X161.555 Y120.459 E.05459
G1 X160.907 Y121.347 E.05597
G1 X141.347 Y140.907 E1.40951
G1 X139.917 Y141.779 E.08535
G1 X138.831 Y141.949 E.05597
G1 X111.169 Y141.949 E1.40951
G1 X109.541 Y141.555 E.08535
G1 X108.653 Y140.907 E.05597
G1 X89.093 Y121.347 E1.40951
G1 X88.221 Y119.917 E.08535
G1 X88.051 Y118.831 E.05597
G1 X88.051 Y91.169 E1.40951
G1 X88.445 Y89.541 E.08535
G1 X89.093 Y88.653 E.05597
G1 X108.653 Y69.093 E1.40951
G1 X110.083 Y68.221 E.08535
G1 X111.169 Y68.051 E.05597
G1 X138.831 Y68.051 E1.40951
G1 X140.459 Y68.445 E.08535
G1 X141.347 Y69.093 E.05597
G1 X160.907 Y88.653 E1.40951
G1 X161.779 Y90.083 E.08535
G1 X161.949 Y91.169 E.05597
G1 X161.949 Y118.831 E1.40951
G1 X161.821 Y119.36 E.0277
; printing object OV-PAM_n_8_standard_1F.stl id:0 copy 0
G1 E-1 F2400
G1 X158.187 Y118.584 F4200
G1 X158.189 Y118.555
G1 X157.988 Y118.54
G1 E1 F1500
;TYPE:External perimeter
;WIDTH:0.874574
G1 F901.818
G1 X157.976 Y118.659 E.00914
G1 X157.875 Y118.783 E.01216
G1 X138.783 Y137.875 E2.05382
G1 X138.659 Y137.976 E.01216
G1 X138.5 Y137.992 E.01216
G1 X111.5 Y137.992 E2.05382
G1 X111.341 Y137.976 E.01216
G1 X111.217 Y137.875 E.01216
G1 X92.125 Y118.783 E2.05382
G1 X92.024 Y118.659 E.01216
G1 X92.008 Y118.5 E.01216
G1 X92.008 Y91.5 E2.05382
G1 X92.024 Y91.341 E.01216
M73 P3 R29
M73 Q3 S29
G1 X92.125 Y91.217 E.01216
G1 X111.217 Y72.125 E2.05382
G1 X111.341 Y72.024 E.01216
G1 X111.5 Y72.008 E.01216
G1 X138.5 Y72.008 E2.05382
G1 X138.659 Y72.024 E.01216
G1 X138.783 Y72.125 E.01216
G1 X157.875 Y91.217 E2.05382
G1 X157.976 Y91.341 E.01216
G1 X157.992 Y91.5 E.01216
G1 X157.992 Y118.48 E2.05228
G1 X158.088 Y118.606 F4200
; stop printing object OV-PAM_n_8_standard_1F.stl id:0 copy 0
;LAYER_CHANGE
;Z:0.6
;HEIGHT:0.2
;BEFORE_LAYER_CHANGE
G92 E0.0
;0.6


G1 E-1 F2400
G1 Z.6 F720
;AFTER_LAYER_CHANGE
;0.6
G1 X161.81 Y119.405 F4200
G1 E1 F1500
;TYPE:Skirt/Brim
;WIDTH:0.6
G1 F1346.307
G1 X161.555 Y120.459 E.05529
G1 X160.907 Y121.347 E.05597
G1 X141.347 Y140.907 E1.40951
G1 X139.917 Y141.779 E.08535
G1 X138.831 Y141.949 E.05597
G1 X111.169 Y141.949 E1.40951
G1 X109.541 Y141.555 E.08535
G1 X108.653 Y140.907 E.05597
G1 X89.093 Y121.347 E1.40951
G1 X88.221 Y119.917 E.08535
G1 X88.051 Y118.831 E.05597
G1 X88.051 Y91.169 E1.40951
G1 X88.445 Y89.541 E.08535
G1 X89.093 Y88.653 E.05597
G1 X108.653 Y69.093 E1.40951
G1 X110.083 Y68.221 E.08535
M73 P3 R28
M73 Q3 S28
G1 X111.169 Y68.051 E.05597
G1 X138.831 Y68.051 E1.40951
G1 X140.459 Y68.445 E.08535
G1 X141.347 Y69.093 E.05597
G1 X160.907 Y88.653 E1.40951
G1 X161.779 Y90.083 E.08535
G1 X161.949 Y91.169 E.05597
G1 X161.949 Y118.831 E1.40951
G1 X161.824 Y119.346 E.027
; printing object OV-PAM_n_8_standard_1F.stl id:0 copy 0
M73 P4 R28
M73 Q4 S28
G1 E-1 F2400
G1 X158.189 Y118.568 F4200
G1 X158.191 Y118.539
G1 X157.99 Y118.523
G1 E1 F1500
;TYPE:External perimeter
;WIDTH:0.874574
G1 F901.818
G1 X157.976 Y118.659 E.01037
G1 X157.875 Y118.783 E.01216
G1 X138.783 Y137.875 E2.05382
G1 X138.659 Y137.976 E.01216
G1 X138.5 Y137.992 E.01216
G1 X111.5 Y137.992 E2.05382
G1 X111.341 Y137.976 E.01216
G1 X111.217 Y137.875 E.01216
G1 X92.125 Y118.783 E2.05382
G1 X92.024 Y118.659 E.01216
G1 X92.008 Y118.5 E.01216
G1 X92.008 Y91.5 E2.05382
G1 X92.024 Y91.341 E.01216
G1 X92.125 Y91.217 E.01216
G1 X111.217 Y72.125 E2.05382
G1 X111.341 Y72.024 E.01216
G1 X111.5 Y72.008 E.01216
G1 X138.5 Y72.008 E2.05382
G1 X138.659 Y72.024 E.01216
G1 X138.783 Y72.125 E.01216
G1 X157.875 Y91.217 E2.05382
G1 X157.976 Y91.341 E.01216
G1 X157.992 Y91.5 E.01216
G1 X157.992 Y118.464 E2.05105
G1 X158.103 Y118.599 F4200
; stop printing object OV-PAM_n_8_standard_1F.stl id:0 copy 0
;LAYER_CHANGE
;Z:0.8
;HEIGHT:0.2
;BEFORE_LAYER_CHANGE
G92 E0.0
;0.8


G1 E-1 F2400
G1 Z.8 F720
;AFTER_LAYER_CHANGE
;0.8
; printing object OV-PAM_n_8_standard_1F.stl id:0 copy 0
G1 X157.991 Y118.505 F4200
G1 E1 F1500
G1 F901.818
G1 X157.976 Y118.659 E.01176
G1 X157.875 Y118.783 E.01216
G1 X138.783 Y137.875 E2.05382
G1 X138.659 Y137.976 E.01216
G1 X138.5 Y137.992 E.01216
G1 X111.5 Y137.992 E2.05382
G1 X111.341 Y137.976 E.01216
M73 P5 R28
M73 Q5 S28
G1 X111.217 Y137.875 E.01216
G1 X92.125 Y118.783 E2.05382
G1 X92.024 Y118.659 E.01216
G1 X92.008 Y118.5 E.01216
G1 X92.008 Y91.5 E2.05382
G1 X92.024 Y91.341 E.01216
G1 X92.125 Y91.217 E.01216
G1 X111.217 Y72.125 E2.05382
G1 X111.341 Y72.024 E.01216
G1 X111.5 Y72.008 E.01216
G1 X138.5 Y72.008 E2.05382
G1 X138.659 Y72.024 E.01216
G1 X138.783 Y72.125 E.01216
G1 X157.875 Y91.217 E2.05382
G1 X157.976 Y91.341 E.01216
G1 X157.992 Y91.5 E.01216
G1 X157.992 Y118.445 E2.04966
G1 X158.12 Y118.591 F4200
; stop printing object OV-PAM_n_8_standard_1F.stl id:0 copy 0
;LAYER_CHANGE
;Z:1
;HEIGHT:0.2
;BEFORE_LAYER_CHANGE
G92 E0.0
;1


G1 E-1 F2400
G1 Z1 F720
;AFTER_LAYER_CHANGE
;1
; printing object OV-PAM_n_8_standard_1F.stl id:0 copy 0
G1 X157.992 Y118.479 F4200
G1 E1 F1500
G1 F901.818
G1 X157.976 Y118.659 E.01376
G1 X157.875 Y118.783 E.01216
G1 X138.783 Y137.875 E2.05382
G1 X138.659 Y137.976 E.01216
G1 X138.5 Y137.992 E.01216
G1 X111.5 Y137.992 E2.05382
G1 X111.341 Y137.976 E.01216
G1 X111.217 Y137.875 E.01216
G1 X92.125 Y118.783 E2.05382
G1 X92.024 Y118.659 E.01216
G1 X92.008 Y118.5 E.01216
M73 P6 R28
M73 Q6 S28
G1 X92.008 Y91.5 E2.05382
G1 X92.024 Y91.341 E.01216
G1 X92.125 Y91.217 E.01216
G1 X111.217 Y72.125 E2.05382
G1 X111.341 Y72.024 E.01216
G1 X111.5 Y72.008 E.01216
G1 X138.5 Y72.008 E2.05382
G1 X138.659 Y72.024 E.01216
G1 X138.783 Y72.125 E.01216
G1 X157.875 Y91.217 E2.05382
G1 X157.976 Y91.341 E.01216
G1 X157.992 Y91.5 E.01216
G1 X157.992 Y118.419 E2.04766
G1 X158.143 Y118.578 F4200
; stop printing object OV-PAM_n_8_standard_1F.stl id:0 copy 0
;LAYER_CHANGE
;Z:1.2
;HEIGHT:0.2
;BEFORE_LAYER_CHANGE
G92 E0.0
;1.2


G1 E-1 F2400
G1 Z1.2 F720
;AFTER_LAYER_CHANGE
;1.2
; printing object OV-PAM_n_8_standard_1F.stl id:0 copy 0
G1 X157.974 Y118.443 F4200
G1 E1 F1500
;WIDTH:0.911047
G1 F863.93
G1 X157.958 Y118.652 E.01657
G1 X157.852 Y118.781 E.01325
G1 X138.781 Y137.852 E2.14159
G1 X138.652 Y137.958 E.01325
G1 X138.485 Y137.974 E.01325
G1 X111.515 Y137.974 E2.14159
G1 X111.348 Y137.958 E.01325
G1 X111.219 Y137.852 E.01325
G1 X92.148 Y118.781 E2.14159
G1 X92.042 Y118.652 E.01325
G1 X92.026 Y118.485 E.01325
G1 X92.026 Y91.515 E2.14159
G1 X92.042 Y91.348 E.01325
G1 X92.148 Y91.219 E.01325
G1 X111.219 Y72.148 E2.14159
G1 X111.348 Y72.042 E.01325
M73 P7 R28
M73 Q7 S28
G1 X111.515 Y72.026 E.01325
G1 X138.485 Y72.026 E2.14159
G1 X138.652 Y72.042 E.01325
M73 P7 R27
M73 Q7 S27
G1 X138.781 Y72.148 E.01325
G1 X157.852 Y91.219 E2.14159
G1 X157.958 Y91.348 E.01325
G1 X157.974 Y91.515 E.01325
G1 X157.974 Y118.383 E2.13349
G1 X158.149 Y118.557 F4200
; stop printing object OV-PAM_n_8_standard_1F.stl id:0 copy 0
;LAYER_CHANGE
;Z:1.4
;HEIGHT:0.2
;BEFORE_LAYER_CHANGE
G92 E0.0
;1.4


G1 E-1 F2400
G1 Z1.4 F720
;AFTER_LAYER_CHANGE
;1.4
; printing object OV-PAM_n_8_standard_1F.stl id:0 copy 0
G1 X157.788 Y118.388 F4200
G1 E1 F1500
;WIDTH:0.763154
G1 F1041.328
G1 X157.774 Y118.575 E.01241
G1 X157.686 Y118.683 E.00912
G1 X138.683 Y137.686 E1.77045
G1 X138.575 Y137.774 E.00912
G1 X138.438 Y137.788 E.00912
G1 X111.562 Y137.788 E1.77045
G1 X111.425 Y137.774 E.00912
G1 X111.317 Y137.686 E.00912
G1 X92.314 Y118.683 E1.77045
G1 X92.226 Y118.575 E.00912
G1 X92.212 Y118.438 E.00912
G1 X92.212 Y91.562 E1.77045
G1 X92.226 Y91.425 E.00912
G1 X92.314 Y91.317 E.00912
G1 X111.317 Y72.314 E1.77045
G1 X111.425 Y72.226 E.00912
G1 X111.562 Y72.212 E.00912
G1 X138.438 Y72.212 E1.77045
G1 X138.575 Y72.226 E.00912
G1 X138.683 Y72.314 E.00912
G1 X157.686 Y91.317 E1.77045
G1 X157.774 Y91.425 E.00912
G1 X157.788 Y91.562 E.00912
G1 X157.788 Y118.328 E1.7632
G1 X157.946 Y118.49 F4200
; stop printing object OV-PAM_n_8_standard_1F.stl id:0 copy 0
;LAYER_CHANGE
;Z:1.6
;HEIGHT:0.2
;BEFORE_LAYER_CHANGE
G92 E0.0
;1.6


M73 P8 R27
M73 Q8 S27
G1 E-1 F2400
G1 Z1.6 F720
;AFTER_LAYER_CHANGE
;1.6
; printing object OV-PAM_n_8_standard_1F.stl id:0 copy 0
G1 X157.672 Y118.329 F4200
G1 E1 F1500
;WIDTH:0.763718
G1 F1040.514
G1 X157.659 Y118.526 E.01305
G1 X157.571 Y118.635 E.00922
G1 X138.635 Y137.571 E1.76553
G1 X138.529 Y137.658 E.00905
G1 X138.39 Y137.672 E.00922
G1 X111.61 Y137.672 E1.76553
G1 X111.474 Y137.659 E.00905
G1 X111.365 Y137.571 E.00922
G1 X92.429 Y118.635 E1.76553
G1 X92.342 Y118.529 E.00905
G1 X92.328 Y118.39 E.00922
G1 X92.328 Y91.61 E1.76553
G1 X92.341 Y91.474 E.00905
G1 X92.429 Y91.365 E.00922
G1 X111.365 Y72.429 E1.76553
G1 X111.471 Y72.342 E.00905
G1 X111.61 Y72.328 E.00922
G1 X138.39 Y72.328 E1.76553
G1 X138.526 Y72.341 E.00905
G1 X138.635 Y72.429 E.00922
G1 X157.571 Y91.365 E1.76553
G1 X157.658 Y91.471 E.00905
G1 X157.672 Y91.61 E.00922
G1 X157.672 Y118.269 E1.75755
G1 X157.497 Y118.42 F4200
; stop printing object OV-PAM_n_8_standard_1F.stl id:0 copy 0
;LAYER_CHANGE
;Z:1.8
;HEIGHT:0.2
;BEFORE_LAYER_CHANGE
G92 E0.0
;1.8


G1 E-1 F2400
G1 Z1.8 F720
;AFTER_LAYER_CHANGE
;1.8
; printing object OV-PAM_n_8_standard_1F.stl id:0 copy 0
G1 X157.557 Y118.262 F4200
G1 E1 F1500
;WIDTH:0.775407
G1 F1023.91
G1 X157.559 Y118.456 E.013
G1 X157.455 Y118.587 E.01119
G1 X138.508 Y137.537 E1.79537
G1 X138.342 Y137.557 E.01119
G1 X111.544 Y137.559 E1.79537
G1 X111.413 Y137.455 E.01119
G1 X92.463 Y118.508 E1.79537
G1 X92.443 Y118.342 E.01119
M73 P9 R27
M73 Q9 S27
G1 X92.441 Y91.544 E1.79537
G1 X92.545 Y91.413 E.01119
G1 X111.492 Y72.463 E1.79537
G1 X111.658 Y72.443 E.01119
G1 X138.456 Y72.441 E1.79537
G1 X138.587 Y72.545 E.01119
G1 X157.537 Y91.492 E1.79537
G1 X157.557 Y91.658 E.01119
G1 X157.557 Y118.202 E1.77835
G1 X157.389 Y118.36 F4200
; stop printing object OV-PAM_n_8_standard_1F.stl id:0 copy 0
;LAYER_CHANGE
;Z:2
;HEIGHT:0.2
;BEFORE_LAYER_CHANGE
G92 E0.0
;2


G1 E-1 F2400
G1 Z2 F720
;AFTER_LAYER_CHANGE
;2
; printing object OV-PAM_n_8_standard_1F.stl id:0 copy 0
G1 X157.445 Y118.2 F4200
G1 E1 F1500
;WIDTH:0.735742
G1 F1082.529
G1 X157.453 Y118.294 E.00599
;WIDTH:0.800532
G1 F989.953
G1 X157.467 Y118.366 E.00509
;WIDTH:0.80053
G1 X157.34 Y118.539 E.01485
;WIDTH:0.735739
G1 F1082.534
G1 X138.548 Y137.348 E1.68487
;WIDTH:0.800532
G1 F989.954
G1 X138.506 Y137.409 E.00509
G1 X138.294 Y137.441 E.01485
;WIDTH:0.735742
G1 F1082.529
G1 X111.706 Y137.453 E1.68488
;WIDTH:0.800532
G1 F989.953
G1 X111.634 Y137.467 E.00509
G1 X111.461 Y137.34 E.01485
;WIDTH:0.735739
G1 F1082.534
G1 X92.652 Y118.548 E1.68487
;WIDTH:0.800532
G1 F989.954
G1 X92.591 Y118.506 E.00509
G1 X92.559 Y118.294 E.01485
;WIDTH:0.735742
G1 F1082.529
G1 X92.547 Y91.706 E1.68488
;WIDTH:0.800532
G1 F989.953
G1 X92.533 Y91.634 E.00509
G1 X92.66 Y91.461 E.01485
;WIDTH:0.735739
G1 F1082.534
G1 X111.452 Y72.652 E1.68487
;WIDTH:0.800532
G1 F989.954
G1 X111.494 Y72.591 E.00509
G1 X111.706 Y72.559 E.01485
;WIDTH:0.735742
G1 F1082.529
G1 X138.294 Y72.547 E1.68488
;WIDTH:0.800532
G1 F989.953
G1 X138.366 Y72.533 E.00509
G1 X138.539 Y72.66 E.01485
;WIDTH:0.735739
G1 F1082.534
G1 X157.348 Y91.452 E1.68487
;WIDTH:0.800532
G1 F989.954
M73 P10 R27
M73 Q10 S27
G1 X157.409 Y91.494 E.00509
G1 X157.441 Y91.706 E.01485
;WIDTH:0.735742
G1 F1082.529
G1 X157.441 Y118.14 E1.67512
; stop printing object OV-PAM_n_8_standard_1F.stl id:0 copy 0
;LAYER_CHANGE
;Z:2.2
;HEIGHT:0.2
;BEFORE_LAYER_CHANGE
G92 E0.0
;2.2


G1 E-1 F2400
G1 Z2.2 F720
;AFTER_LAYER_CHANGE
;2.2
; printing object OV-PAM_n_8_standard_1F.stl id:0 copy 0
G1 X157.35 Y118.132 F4200
G1 E1 F1500
;WIDTH:0.824366
G1 F959.759
G1 X157.377 Y118.266 E.00975
;WIDTH:0.839059
G1 F942.047
G1 X157.275 Y118.416 E.01323
;WIDTH:0.77018
G1 F1031.268
G1 X157.224 Y118.491 E.00604
G1 X138.666 Y137.049 E1.74578
G1 X138.595 Y137.152 E.00837
;WIDTH:0.824364
G1 F959.762
G1 X138.514 Y137.274 E.01044
G1 X138.336 Y137.309 E.01298
;WIDTH:0.770181
G1 F1031.267
G1 X138.246 Y137.326 E.00604
G1 X112.001 Y137.326 E1.74579
G1 X111.878 Y137.348 E.00837
;WIDTH:0.824366
G1 F959.759
G1 X111.734 Y137.377 E.01044
G1 X111.584 Y137.275 E.01298
;WIDTH:0.77018
G1 F1031.268
G1 X111.509 Y137.224 E.00604
G1 X92.951 Y118.666 E1.74578
G1 X92.848 Y118.595 E.00837
;WIDTH:0.824364
G1 F959.762
G1 X92.726 Y118.514 E.01044
G1 X92.691 Y118.336 E.01298
;WIDTH:0.770181
G1 F1031.267
G1 X92.674 Y118.246 E.00604
G1 X92.674 Y92.001 E1.74579
G1 X92.652 Y91.878 E.00837
;WIDTH:0.824366
M73 P10 R26
M73 Q10 S26
G1 F959.759
G1 X92.623 Y91.734 E.01044
G1 X92.725 Y91.584 E.01298
;WIDTH:0.77018
G1 F1031.268
G1 X92.776 Y91.509 E.00604
G1 X111.334 Y72.951 E1.74578
G1 X111.405 Y72.848 E.00837
;WIDTH:0.824364
G1 F959.762
G1 X111.486 Y72.726 E.01044
G1 X111.664 Y72.691 E.01298
;WIDTH:0.770181
G1 F1031.267
