; generated by PrusaSlicer 2.5.2+win64 on 2023-10-26 at 06:18:21 UTC


;
;
; 

; external perimeters extrusion width = 0.40mm
; perimeters extrusion width = 0.40mm
; infill extrusion width = 0.40mm
; solid infill extrusion width = 0.40mm
; top infill extrusion width = 0.40mm
; first layer extrusion width = 0.40mm

M73 P0 R23
M73 Q0 S23
M201 X1000 Y1000 Z200 E5000 ; sets maximum accelerations, mm/sec^2
M203 X200 Y200 Z12 E120 ; sets maximum feedrates, mm / sec
M204 P1250 R1250 T1250 ; sets acceleration (P, T) and retract acceleration (R), mm/sec^2
M205 X8.00 Y8.00 Z0.40 E4.50 ; sets the jerk limits, mm/sec
M205 S0 T0 ; sets the minimum extruding and travel feed rate, mm/sec
M107
;TYPE:Custom
M862.3 P "MK3S" ; printer model check
M862.1 P0.4 ; nozzle diameter check
M115 U3.12.2 ; tell printer latest fw version
G90 ; use absolute coordinates
M83 ; extruder relative mode
M104 S240 ; set extruder temp
M140 S60 ; set bed temp
M190 S60 ; wait for bed temp
M109 S240 ; wait for extruder temp
G28 W ; home all without mesh bed level
G80 ; mesh bed leveling

G1 Z0.2 F720
G1 Y-3 F1000 ; go outside print area
G92 E0
G1 X60 E9 F1000 ; intro line
G1 X100 E12.5 F1000 ; intro line

G92 E0
M221 S95

; Don't change E values below. Excessive value can damage the printer.
M907 E430 ; set extruder motor current
G21 ; set units to millimeters
G90 ; use absolute coordinates
M83 ; use relative distances for extrusion
M900 K0 ; Filament gcode
M107
;LAYER_CHANGE
;Z:0.2
;HEIGHT:0.2
;BEFORE_LAYER_CHANGE
G92 E0.0
;0.2


G1 E-1 F2400
G1 Z.2 F720
;AFTER_LAYER_CHANGE
;0.2
G1 X89.234 Y88.795 F4200
G1 E1 F1500
M204 S300
;TYPE:Skirt/Brim
;WIDTH:0.4
G1 F1200
G1 X108.795 Y69.234 E.90348
G1 X110.189 Y68.397 E.05312
G1 X111.169 Y68.251 E.03234
G1 X138.831 Y68.251 E.90348
G1 X140.409 Y68.645 E.05312
G1 X141.205 Y69.234 E.03234
G1 X160.766 Y88.795 E.90348
G1 X161.603 Y90.189 E.05312
G1 X161.749 Y91.169 E.03234
G1 X161.749 Y118.831 E.90348
G1 X161.355 Y120.409 E.05312
G1 X160.766 Y121.205 E.03234
G1 X141.205 Y140.766 E.90348
G1 X139.811 Y141.603 E.05312
M73 P1 R23
M73 Q1 S23
G1 X138.831 Y141.749 E.03234
G1 X111.169 Y141.749 E.90348
G1 X109.591 Y141.355 E.05312
G1 X108.795 Y140.766 E.03234
G1 X89.234 Y121.205 E.90348
G1 X88.397 Y119.811 E.05312
G1 X88.251 Y118.831 E.03234
G1 X88.251 Y91.169 E.90348
G1 X88.645 Y89.591 E.05312
G1 X89.199 Y88.843 E.03038
; printing object OV-PAM_q_3mm_1F.stl id:0 copy 0
M73 P1 R22
M73 Q1 S22
G1 E-1 F2400
G1 X111.298 Y71.92 F4200
G1 E1 F1500
;TYPE:External perimeter
;WIDTH:0.666659
G1 F1200
G1 X138.702 Y71.92 E1.56343
G1 X158.08 Y91.298 E1.56343
G1 X158.08 Y118.702 E1.56343
G1 X138.702 Y138.08 E1.56343
G1 X111.298 Y138.08 E1.56343
G1 X91.92 Y118.702 E1.56343
G1 X91.92 Y91.298 E1.56343
M73 P2 R22
M73 Q2 S22
G1 X111.251 Y71.958 E1.56003
G1 X111.35 Y71.523 F4200
; stop printing object OV-PAM_q_3mm_1F.stl id:0 copy 0
;LAYER_CHANGE
;Z:0.4
;HEIGHT:0.2
;BEFORE_LAYER_CHANGE
G92 E0.0
;0.4


G1 E-1 F2400
G1 Z.4 F720
;AFTER_LAYER_CHANGE
;0.4
G1 X109.398 Y68.872 F4200
G1 E1 F1500
;TYPE:Skirt/Brim
;WIDTH:0.4
G1 F1200
G1 X110.189 Y68.397 E.03013
G1 X111.169 Y68.251 E.03234
G1 X138.831 Y68.251 E.90348
G1 X140.409 Y68.645 E.05312
G1 X141.205 Y69.234 E.03234
G1 X160.766 Y88.795 E.90348
G1 X161.603 Y90.189 E.05312
G1 X161.749 Y91.169 E.03234
G1 X161.749 Y118.831 E.90348
G1 X161.355 Y120.409 E.05312
G1 X160.766 Y121.205 E.03234
G1 X141.205 Y140.766 E.90348
G1 X139.811 Y141.603 E.05312
G1 X138.831 Y141.749 E.03234
G1 X111.169 Y141.749 E.90348
G1 X109.591 Y141.355 E.05312
G1 X108.795 Y140.766 E.03234
G1 X89.234 Y121.205 E.90348
G1 X88.397 Y119.811 E.05312
G1 X88.251 Y118.831 E.03234
G1 X88.251 Y91.169 E.90348
G1 X88.645 Y89.591 E.05312
M73 P3 R22
M73 Q3 S22
G1 X89.234 Y88.795 E.03234
G1 X108.795 Y69.234 E.90348
G1 X109.347 Y68.903 E.02104
; printing object OV-PAM_q_3mm_1F.stl id:0 copy 0
G1 E-1 F2400
G1 X111.348 Y72.042 F4200
G1 X111.348 Y72.042
G1 X111.298 Y71.92
G1 E1 F1500
;TYPE:External perimeter
;WIDTH:0.666659
G1 F1200
G1 X138.702 Y71.92 E1.56343
G1 X158.08 Y91.298 E1.56343
G1 X158.08 Y118.702 E1.56343
G1 X138.702 Y138.08 E1.56343
G1 X111.298 Y138.08 E1.56343
G1 X91.92 Y118.702 E1.56343
G1 X91.92 Y91.298 E1.56343
G1 X111.251 Y71.958 E1.56003
G1 X111.35 Y71.523 F4200
; stop printing object OV-PAM_q_3mm_1F.stl id:0 copy 0
;LAYER_CHANGE
;Z:0.6
;HEIGHT:0.2
;BEFORE_LAYER_CHANGE
G92 E0.0
;0.6


G1 E-1 F2400
G1 Z.6 F720
;AFTER_LAYER_CHANGE
;0.6
G1 X109.398 Y68.872 F4200
G1 E1 F1500
;TYPE:Skirt/Brim
;WIDTH:0.4
G1 F1200
G1 X110.189 Y68.397 E.03013
G1 X111.169 Y68.251 E.03234
M73 P4 R22
M73 Q4 S22
G1 X138.831 Y68.251 E.90348
G1 X140.409 Y68.645 E.05312
G1 X141.205 Y69.234 E.03234
G1 X160.766 Y88.795 E.90348
G1 X161.603 Y90.189 E.05312
G1 X161.749 Y91.169 E.03234
G1 X161.749 Y118.831 E.90348
G1 X161.355 Y120.409 E.05312
G1 X160.766 Y121.205 E.03234
G1 X141.205 Y140.766 E.90348
G1 X139.811 Y141.603 E.05312
G1 X138.831 Y141.749 E.03234
G1 X111.169 Y141.749 E.90348
G1 X109.591 Y141.355 E.05312
G1 X108.795 Y140.766 E.03234
G1 X89.234 Y121.205 E.90348
G1 X88.397 Y119.811 E.05312
G1 X88.251 Y118.831 E.03234
G1 X88.251 Y91.169 E.90348
G1 X88.645 Y89.591 E.05312
G1 X89.234 Y88.795 E.03234
G1 X108.795 Y69.234 E.90348
G1 X109.347 Y68.903 E.02104
; printing object OV-PAM_q_3mm_1F.stl id:0 copy 0
G1 E-1 F2400
G1 X111.348 Y72.042 F4200
G1 X111.348 Y72.042
G1 X111.298 Y71.92
G1 E1 F1500
;TYPE:External perimeter
;WIDTH:0.666659
G1 F1200
G1 X138.702 Y71.92 E1.56343
G1 X158.08 Y91.298 E1.56343
G1 X158.08 Y118.702 E1.56343
M73 P5 R22
M73 Q5 S22
G1 X138.702 Y138.08 E1.56343
G1 X111.298 Y138.08 E1.56343
G1 X91.92 Y118.702 E1.56343
G1 X91.92 Y91.298 E1.56343
G1 X111.251 Y71.958 E1.56003
G1 X111.35 Y71.523 F4200
; stop printing object OV-PAM_q_3mm_1F.stl id:0 copy 0
;LAYER_CHANGE
;Z:0.8
;HEIGHT:0.2
;BEFORE_LAYER_CHANGE
G92 E0.0
;0.8


G1 E-1 F2400
G1 Z.8 F720
;AFTER_LAYER_CHANGE
;0.8
; printing object OV-PAM_q_3mm_1F.stl id:0 copy 0
G1 X111.298 Y71.92 F4200
G1 E1 F1500
G1 F1200
G1 X138.702 Y71.92 E1.56343
G1 X158.08 Y91.298 E1.56343
M73 P5 R21
M73 Q5 S21
G1 X158.08 Y118.702 E1.56343
G1 X138.702 Y138.08 E1.56343
G1 X111.298 Y138.08 E1.56343
M73 P6 R21
M73 Q6 S21
G1 X91.92 Y118.702 E1.56343
G1 X91.92 Y91.298 E1.56343
G1 X111.251 Y71.958 E1.56003
G1 X111.35 Y71.523 F4200
; stop printing object OV-PAM_q_3mm_1F.stl id:0 copy 0
;LAYER_CHANGE
;Z:1
;HEIGHT:0.2
;BEFORE_LAYER_CHANGE
G92 E0.0
;1


G1 E-1 F2400
G1 Z1 F720
;AFTER_LAYER_CHANGE
;1
; printing object OV-PAM_q_3mm_1F.stl id:0 copy 0
G1 X111.288 Y71.928 F4200
G1 E1 F1500
G1 F1200
G1 X111.417 Y71.908 E.00743
G1 X138.702 Y71.92 E1.55662
G1 X158.08 Y91.298 E1.56343
G1 X158.08 Y118.702 E1.56343
G1 X138.702 Y138.08 E1.56343
G1 X111.298 Y138.08 E1.56343
G1 X91.92 Y118.702 E1.56343
G1 X91.92 Y91.298 E1.56343
M73 P7 R21
M73 Q7 S21
G1 X111.242 Y71.966 E1.55934
G1 X111.292 Y71.798 F4200
; stop printing object OV-PAM_q_3mm_1F.stl id:0 copy 0
;LAYER_CHANGE
;Z:1.2
;HEIGHT:0.2
;BEFORE_LAYER_CHANGE
G92 E0.0
;1.2


G1 E-1 F2400
G1 Z1.2 F720
;AFTER_LAYER_CHANGE
;1.2
; printing object OV-PAM_q_3mm_1F.stl id:0 copy 0
G1 X111.279 Y71.938 F4200
G1 E1 F1500
;WIDTH:0.670967
G1 F1194.179
G1 X111.419 Y71.91 E.00816
G1 X138.701 Y71.922 E1.56723
G1 X158.078 Y91.299 E1.57413
G1 X158.078 Y118.701 E1.57413
G1 X138.701 Y138.078 E1.57413
G1 X111.299 Y138.078 E1.57413
G1 X91.922 Y118.701 E1.57413
G1 X91.922 Y91.299 E1.57413
G1 X111.233 Y71.976 E1.56928
M73 P8 R21
M73 Q8 S21
G1 X111.279 Y71.796 F4200
; stop printing object OV-PAM_q_3mm_1F.stl id:0 copy 0
;LAYER_CHANGE
;Z:1.4
;HEIGHT:0.2
;BEFORE_LAYER_CHANGE
G92 E0.0
;1.4


G1 E-1 F2400
G1 Z1.4 F720
;AFTER_LAYER_CHANGE
;1.4
; printing object OV-PAM_q_3mm_1F.stl id:0 copy 0
G1 X111.364 Y72.114 F4200
G1 E1 F1500
;WIDTH:0.523643
G1 F1200
G1 X111.467 Y72.097 E.00456
G1 X138.624 Y72.105 E1.19409
G1 X157.894 Y91.374 E1.1982
G1 X157.895 Y118.624 E1.19817
G1 X138.627 Y137.894 E1.19819
G1 X111.376 Y137.895 E1.19819
G1 X92.106 Y118.627 E1.19819
G1 X92.105 Y91.376 E1.19819
G1 X111.318 Y72.152 E1.19505
G1 X111.367 Y72.01 F4200
; stop printing object OV-PAM_q_3mm_1F.stl id:0 copy 0
;LAYER_CHANGE
;Z:1.6
;HEIGHT:0.2
;BEFORE_LAYER_CHANGE
G92 E0.0
;1.6


G1 E-1 F2400
G1 Z1.6 F720
;AFTER_LAYER_CHANGE
;1.6
; printing object OV-PAM_q_3mm_1F.stl id:0 copy 0
G1 X111.428 Y72.221 F4200
G1 E1 F1500
;WIDTH:0.524801
G1 F1200
G1 X138.574 Y72.219 E1.19644
G1 X157.778 Y91.418 E1.19688
M73 P9 R21
M73 Q9 S21
G1 X157.781 Y118.574 E1.19688
G1 X138.582 Y137.778 E1.19688
G1 X111.426 Y137.781 E1.19688
G1 X92.222 Y118.582 E1.19688
G1 X92.219 Y91.426 E1.19688
G1 X111.38 Y72.254 E1.19469
G1 X111.481 Y71.825 F4200
; stop printing object OV-PAM_q_3mm_1F.stl id:0 copy 0
;LAYER_CHANGE
;Z:1.8
;HEIGHT:0.2
;BEFORE_LAYER_CHANGE
G92 E0.0
;1.8


G1 E-1 F2400
G1 Z1.8 F720
;AFTER_LAYER_CHANGE
;1.8
; printing object OV-PAM_q_3mm_1F.stl id:0 copy 0
G1 X111.473 Y72.337 F4200
G1 E1 F1500
;WIDTH:0.525993
G1 F1200
G1 X138.524 Y72.333 E1.1952
G1 X157.662 Y91.463 E1.19564
G1 X157.667 Y118.524 E1.19563
G1 X138.537 Y137.662 E1.19563
M73 P10 R20
M73 Q10 S20
G1 X111.476 Y137.667 E1.19563
G1 X92.338 Y118.537 E1.19563
G1 X92.333 Y91.476 E1.19563
G1 X111.425 Y72.37 E1.19343
G1 X111.525 Y71.941 F4200
; stop printing object OV-PAM_q_3mm_1F.stl id:0 copy 0
;LAYER_CHANGE
;Z:2
;HEIGHT:0.2
;BEFORE_LAYER_CHANGE
G92 E0.0
;2


G1 E-1 F2400
G1 Z2 F720
;AFTER_LAYER_CHANGE
;2
; printing object OV-PAM_q_3mm_1F.stl id:0 copy 0
G1 X111.519 Y72.453 F4200
G1 E1 F1500
;WIDTH:0.527215
G1 F1200
G1 X138.473 Y72.447 E1.19398
G1 X157.546 Y91.509 E1.19444
G1 X157.553 Y118.473 E1.19444
G1 X138.492 Y137.546 E1.19444
G1 X111.527 Y137.553 E1.19444
G1 X92.454 Y118.492 E1.19444
M73 P11 R20
M73 Q11 S20
G1 X92.447 Y91.527 E1.19444
G1 X111.47 Y72.486 E1.19225
G1 X111.571 Y72.057 F4200
; stop printing object OV-PAM_q_3mm_1F.stl id:0 copy 0
;LAYER_CHANGE
;Z:2.2
;HEIGHT:0.2
;BEFORE_LAYER_CHANGE
G92 E0.0
;2.2


G1 E-1 F2400
G1 Z2.2 F720
;AFTER_LAYER_CHANGE
;2.2
; printing object OV-PAM_q_3mm_1F.stl id:0 copy 0
G1 X111.565 Y72.569 F4200
G1 E1 F1500
;WIDTH:0.528467
G1 F1200
G1 X138.423 Y72.561 E1.19281
G1 X157.43 Y91.554 E1.1933
G1 X157.439 Y118.423 E1.19329
G1 X138.446 Y137.43 E1.19329
G1 X111.577 Y137.439 E1.19329
G1 X92.57 Y118.446 E1.19329
G1 X92.561 Y91.577 E1.19329
G1 X111.516 Y72.602 E1.19113
G1 X111.617 Y72.173 F4200
; stop printing object OV-PAM_q_3mm_1F.stl id:0 copy 0
;LAYER_CHANGE
;Z:2.4
;HEIGHT:0.2
;BEFORE_LAYER_CHANGE
G92 E0.0
;2.4


M73 P12 R20
M73 Q12 S20
G1 E-1 F2400
G1 Z2.4 F720
;AFTER_LAYER_CHANGE
;2.4
; printing object OV-PAM_q_3mm_1F.stl id:0 copy 0
G1 X111.611 Y72.685 F4200
G1 E1 F1500
;WIDTH:0.529752
G1 F1200
G1 X138.373 Y72.675 E1.19167
G1 X157.31 Y91.605 E1.19231
G1 X157.325 Y118.373 E1.19194
G1 X138.401 Y137.313 E1.19221
G1 X111.627 Y137.325 E1.19221
G1 X92.687 Y118.401 E1.19221
G1 X92.675 Y91.627 E1.19221
G1 X111.562 Y72.718 E1.19008
G1 X111.663 Y72.289 F4200
; stop printing object OV-PAM_q_3mm_1F.stl id:0 copy 0
;LAYER_CHANGE
;Z:2.6
;HEIGHT:0.2
;BEFORE_LAYER_CHANGE
G92 E0.0
;2.6


G1 E-1 F2400
G1 Z2.6 F720
;AFTER_LAYER_CHANGE
;2.6
; printing object OV-PAM_q_3mm_1F.stl id:0 copy 0
G1 X111.658 Y72.802 F4200
G1 E1 F1500
;WIDTH:0.523073
G1 F1200
G1 X111.754 Y72.79 E.00425
G1 X138.338 Y72.799 E1.16752
G1 X157.201 Y91.662 E1.17156
G1 X157.201 Y118.338 E1.17156
M73 P13 R20
M73 Q13 S20
G1 X138.338 Y137.201 E1.17156
G1 X111.662 Y137.201 E1.17156
G1 X92.799 Y118.338 E1.17156
G1 X92.799 Y91.662 E1.17156
G1 X111.611 Y72.84 E1.1687
G1 X111.662 Y72.705 F4200
; stop printing object OV-PAM_q_3mm_1F.stl id:0 copy 0
;LAYER_CHANGE
;Z:2.8
;HEIGHT:0.2
;BEFORE_LAYER_CHANGE
G92 E0.0
;2.8


G1 E-1 F2400
G1 Z2.8 F720
;AFTER_LAYER_CHANGE
;2.8
; printing object OV-PAM_q_3mm_1F.stl id:0 copy 0
G1 X111.715 Y72.914 F4200
G1 E1 F1500
;WIDTH:0.523074
G1 F1200
G1 X138.29 Y72.914 E1.16712
G1 X157.086 Y91.71 E1.16736
G1 X157.086 Y118.29 E1.16736
G1 X138.29 Y137.086 E1.16736
G1 X111.71 Y137.086 E1.16736
M73 P14 R20
M73 Q14 S20
G1 X92.914 Y118.29 E1.16736
G1 X92.914 Y91.71 E1.16736
G1 X111.667 Y72.949 E1.16497
M73 P14 R19
M73 Q14 S19
G1 X111.767 Y72.517 F4200
; stop printing object OV-PAM_q_3mm_1F.stl id:0 copy 0
;LAYER_CHANGE
;Z:3
;HEIGHT:0.2
;BEFORE_LAYER_CHANGE
G92 E0.0
;3


G1 E-1 F2400
G1 Z3 F720
;AFTER_LAYER_CHANGE
;3
; printing object OV-PAM_q_3mm_1F.stl id:0 copy 0
G1 X111.763 Y73.029 F4200
G1 E1 F1500
G1 F1200
G1 X138.243 Y73.03 E1.16292
G1 X156.97 Y91.757 E1.16316
G1 X156.97 Y118.243 E1.16316
G1 X138.243 Y136.97 E1.16316
G1 X111.757 Y136.97 E1.16316
G1 X93.03 Y118.243 E1.16316
G1 X93.03 Y91.757 E1.16316
M73 P15 R19
M73 Q15 S19
G1 X111.715 Y73.064 E1.16078
G1 X111.815 Y72.633 F4200
; stop printing object OV-PAM_q_3mm_1F.stl id:0 copy 0
;LAYER_CHANGE
;Z:3.2
;HEIGHT:0.2
;BEFORE_LAYER_CHANGE
G92 E0.0
;3.2


G1 E-1 F2400
G1 Z3.2 F720
;AFTER_LAYER_CHANGE
;3.2
; printing object OV-PAM_q_3mm_1F.stl id:0 copy 0
G1 X111.811 Y73.145 F4200
G1 E1 F1500
G1 F1200
G1 X138.195 Y73.145 E1.15871
G1 X156.855 Y91.805 E1.15896
G1 X156.855 Y118.195 E1.15896
G1 X138.195 Y136.855 E1.15896
G1 X111.805 Y136.855 E1.15896
G1 X93.145 Y118.195 E1.15896
G1 X93.145 Y91.805 E1.15896
G1 X111.763 Y73.18 E1.15658
G1 X111.863 Y72.748 F4200
; stop printing object OV-PAM_q_3mm_1F.stl id:0 copy 0
;LAYER_CHANGE
;Z:3.4
;HEIGHT:0.2
;BEFORE_LAYER_CHANGE
G92 E0.0
;3.4


M73 P16 R19
M73 Q16 S19
G1 E-1 F2400
G1 Z3.4 F720
;AFTER_LAYER_CHANGE
;3.4
; printing object OV-PAM_q_3mm_1F.stl id:0 copy 0
G1 X111.859 Y73.26 F4200
G1 E1 F1500
G1 F1200
G1 X138.147 Y73.261 E1.1545
G1 X156.739 Y91.853 E1.15476
G1 X156.739 Y118.147 E1.15475
G1 X138.147 Y136.739 E1.15476
G1 X111.853 Y136.739 E1.15475
G1 X93.261 Y118.147 E1.15476
G1 X93.261 Y91.853 E1.15475
G1 X111.811 Y73.295 E1.15238
G1 X111.911 Y72.863 F4200
; stop printing object OV-PAM_q_3mm_1F.stl id:0 copy 0
;LAYER_CHANGE
;Z:3.6
;HEIGHT:0.2
;BEFORE_LAYER_CHANGE
G92 E0.0
;3.6


G1 E-1 F2400
G1 Z3.6 F720
;AFTER_LAYER_CHANGE
;3.6
; printing object OV-PAM_q_3mm_1F.stl id:0 copy 0
G1 X111.907 Y73.376 F4200
G1 E1 F1500
G1 F1200
G1 X138.099 Y73.376 E1.15031
G1 X156.624 Y91.901 E1.15055
G1 X156.624 Y118.099 E1.15055
M73 P17 R19
M73 Q17 S19
G1 X138.099 Y136.624 E1.15055
G1 X111.901 Y136.624 E1.15055
G1 X93.376 Y118.099 E1.15055
G1 X93.376 Y91.901 E1.15055
G1 X111.859 Y73.411 E1.14818
G1 X111.959 Y72.979 F4200
; stop printing object OV-PAM_q_3mm_1F.stl id:0 copy 0
;LAYER_CHANGE
;Z:3.8
;HEIGHT:0.2
;BEFORE_LAYER_CHANGE
G92 E0.0
;3.8


G1 E-1 F2400
G1 Z3.8 F720
;AFTER_LAYER_CHANGE
;3.8
; printing object OV-PAM_q_3mm_1F.stl id:0 copy 0
G1 X111.954 Y73.491 F4200
G1 E1 F1500
G1 F1200
G1 X138.051 Y73.492 E1.14612
G1 X156.508 Y91.949 E1.14635
G1 X156.508 Y118.051 E1.14635
G1 X138.051 Y136.508 E1.14635
G1 X111.949 Y136.508 E1.14635
G1 X93.492 Y118.051 E1.14635
M73 P18 R19
M73 Q18 S19
G1 X93.492 Y91.949 E1.14635
G1 X111.906 Y73.526 E1.14396
G1 X112.006 Y73.094 F4200
; stop printing object OV-PAM_q_3mm_1F.stl id:0 copy 0
;LAYER_CHANGE
;Z:4
;HEIGHT:0.2
;BEFORE_LAYER_CHANGE
G92 E0.0
;4


G1 E-1 F2400
G1 Z4 F720
;AFTER_LAYER_CHANGE
;4
; printing object OV-PAM_q_3mm_1F.stl id:0 copy 0
G1 X112.001 Y73.607 F4200
G1 E1 F1500
;WIDTH:0.523072
G1 F1200
G1 X138.003 Y73.607 E1.14194
G1 X156.393 Y91.997 E1.14215
G1 X156.393 Y118.003 E1.14215
G1 X138.003 Y136.393 E1.14215
M73 P18 R18
M73 Q18 S18
G1 X111.997 Y136.393 E1.14215
G1 X93.607 Y118.003 E1.14215
G1 X93.607 Y91.997 E1.14215
G1 X111.954 Y73.642 E1.13973
M73 P19 R18
M73 Q19 S18
G1 X112.053 Y73.21 F4200
; stop printing object OV-PAM_q_3mm_1F.stl id:0 copy 0
;LAYER_CHANGE
;Z:4.2
;HEIGHT:0.2
;BEFORE_LAYER_CHANGE
G92 E0.0
;4.2


G1 E-1 F2400
G1 Z4.2 F720
;AFTER_LAYER_CHANGE
;4.2
; printing object OV-PAM_q_3mm_1F.stl id:0 copy 0
G1 X112.048 Y73.722 F4200
G1 E1 F1500
;WIDTH:0.523074
G1 F1200
G1 X137.956 Y73.723 E1.13779
G1 X156.277 Y92.044 E1.13795
G1 X156.277 Y117.956 E1.13795
G1 X137.956 Y136.277 E1.13795
G1 X112.044 Y136.277 E1.13795
G1 X93.723 Y117.956 E1.13795
G1 X93.723 Y92.044 E1.13795
G1 X112.001 Y73.758 E1.13549
G1 X112.1 Y73.326 F4200
; stop printing object OV-PAM_q_3mm_1F.stl id:0 copy 0
;LAYER_CHANGE
;Z:4.4
;HEIGHT:0.2
;BEFORE_LAYER_CHANGE
G92 E0.0
;4.4


G1 E-1 F2400
