; generated by PrusaSlicer 2.5.2+win64 on 2023-10-26 at 06:17:50 UTC


;
;
; 

; external perimeters extrusion width = 0.40mm
; perimeters extrusion width = 0.40mm
; infill extrusion width = 0.40mm
; solid infill extrusion width = 0.40mm
; top infill extrusion width = 0.40mm
; first layer extrusion width = 0.40mm

M73 P0 R39
M73 Q0 S39
M201 X1000 Y1000 Z200 E5000 ; sets maximum accelerations, mm/sec^2
M203 X200 Y200 Z12 E120 ; sets maximum feedrates, mm / sec
M204 P1250 R1250 T1250 ; sets acceleration (P, T) and retract acceleration (R), mm/sec^2
M205 X8.00 Y8.00 Z0.40 E4.50 ; sets the jerk limits, mm/sec
M205 S0 T0 ; sets the minimum extruding and travel feed rate, mm/sec
M107
;TYPE:Custom
M862.3 P "MK3S" ; printer model check
M862.1 P0.4 ; nozzle diameter check
M115 U3.12.2 ; tell printer latest fw version
G90 ; use absolute coordinates
M83 ; extruder relative mode
M104 S240 ; set extruder temp
M140 S60 ; set bed temp
M190 S60 ; wait for bed temp
M109 S240 ; wait for extruder temp
G28 W ; home all without mesh bed level
G80 ; mesh bed leveling

G1 Z0.2 F720
G1 Y-3 F1000 ; go outside print area
G92 E0
G1 X60 E9 F1000 ; intro line
G1 X100 E12.5 F1000 ; intro line

G92 E0
M221 S95

; Don't change E values below. Excessive value can damage the printer.
M907 E430 ; set extruder motor current
G21 ; set units to millimeters
G90 ; use absolute coordinates
M83 ; use relative distances for extrusion
M900 K0 ; Filament gcode
M107
;LAYER_CHANGE
;Z:0.2
;HEIGHT:0.2
;BEFORE_LAYER_CHANGE
G92 E0.0
;0.2


G1 E-1 F2400
G1 Z.2 F720
;AFTER_LAYER_CHANGE
;0.2
G1 X89.234 Y88.795 F4200
G1 E1 F1500
M204 S300
;TYPE:Skirt/Brim
;WIDTH:0.4
G1 F1200
G1 X108.795 Y69.234 E.90348
G1 X110.189 Y68.397 E.05312
G1 X111.169 Y68.251 E.03234
G1 X138.831 Y68.251 E.90348
G1 X140.409 Y68.645 E.05312
G1 X141.205 Y69.234 E.03234
G1 X160.766 Y88.795 E.90348
G1 X161.603 Y90.189 E.05312
G1 X161.749 Y91.169 E.03234
G1 X161.749 Y118.831 E.90348
G1 X161.355 Y120.409 E.05312
G1 X160.766 Y121.205 E.03234
G1 X141.205 Y140.766 E.90348
G1 X139.811 Y141.603 E.05312
G1 X138.831 Y141.749 E.03234
G1 X111.169 Y141.749 E.90348
G1 X109.591 Y141.355 E.05312
G1 X108.795 Y140.766 E.03234
G1 X89.234 Y121.205 E.90348
G1 X88.397 Y119.811 E.05312
G1 X88.251 Y118.831 E.03234
G1 X88.251 Y91.169 E.90348
G1 X88.645 Y89.591 E.05312
G1 X89.199 Y88.843 E.03038
; printing object OV-PAM_h_42mm_1F.stl id:0 copy 0
G1 E-1 F2400
G1 X111.205 Y138.004 F4200
G1 E1 F1500
;TYPE:External perimeter
;WIDTH:0.666659
G1 F1200
G1 X91.92 Y118.702 E1.55663
G1 X91.92 Y91.298 E1.56343
G1 X111.298 Y71.92 E1.56343
M73 P1 R39
M73 Q1 S39
G1 X138.702 Y71.92 E1.56343
G1 X158.08 Y91.298 E1.56343
G1 X158.08 Y118.702 E1.56343
G1 X138.702 Y138.08 E1.56343
M73 P1 R38
M73 Q1 S38
G1 X111.417 Y138.092 E1.55662
G1 X111.298 Y138.08 E.00684
G1 X111.251 Y138.042 E.00342
G1 X110.835 Y138.157 F4200
; stop printing object OV-PAM_h_42mm_1F.stl id:0 copy 0
;LAYER_CHANGE
;Z:0.4
;HEIGHT:0.2
;BEFORE_LAYER_CHANGE
G92 E0.0
;0.4


G1 E-1 F2400
G1 Z.4 F720
;AFTER_LAYER_CHANGE
;0.4
G1 X110.375 Y141.551 F4200
G1 E1 F1500
;TYPE:Skirt/Brim
;WIDTH:0.4
G1 F1200
G1 X109.591 Y141.355 E.02642
G1 X108.795 Y140.766 E.03234
G1 X89.234 Y121.205 E.90348
G1 X88.397 Y119.811 E.05312
G1 X88.251 Y118.831 E.03234
G1 X88.251 Y91.169 E.90348
G1 X88.645 Y89.591 E.05312
G1 X89.234 Y88.795 E.03234
G1 X108.795 Y69.234 E.90348
G1 X110.189 Y68.397 E.05312
G1 X111.169 Y68.251 E.03234
G1 X138.831 Y68.251 E.90348
G1 X140.409 Y68.645 E.05312
G1 X141.205 Y69.234 E.03234
G1 X160.766 Y88.795 E.90348
G1 X161.603 Y90.189 E.05312
G1 X161.749 Y91.169 E.03234
G1 X161.749 Y118.831 E.90348
G1 X161.355 Y120.409 E.05312
G1 X160.766 Y121.205 E.03234
G1 X141.205 Y140.766 E.90348
G1 X139.811 Y141.603 E.05312
G1 X138.831 Y141.749 E.03234
G1 X111.169 Y141.749 E.90348
G1 X110.434 Y141.565 E.02475
; printing object OV-PAM_h_42mm_1F.stl id:0 copy 0
G1 E-1 F2400
G1 X111.201 Y138.172 F4200
G1 X111.12 Y138.104
G1 X111.204 Y138.003
G1 E1 F1500
;TYPE:External perimeter
;WIDTH:0.666659
G1 F1200
G1 X91.92 Y118.702 E1.55656
G1 X91.92 Y91.298 E1.56343
G1 X111.298 Y71.92 E1.56343
M73 P2 R38
M73 Q2 S38
G1 X138.702 Y71.92 E1.56343
G1 X158.08 Y91.298 E1.56343
G1 X158.08 Y118.702 E1.56343
G1 X138.702 Y138.08 E1.56343
G1 X111.417 Y138.092 E1.55662
G1 X111.298 Y138.08 E.00684
G1 X111.251 Y138.041 E.00349
G1 X110.834 Y138.156 F4200
; stop printing object OV-PAM_h_42mm_1F.stl id:0 copy 0
;LAYER_CHANGE
;Z:0.6
;HEIGHT:0.2
;BEFORE_LAYER_CHANGE
G92 E0.0
;0.6


G1 E-1 F2400
G1 Z.6 F720
;AFTER_LAYER_CHANGE
;0.6
G1 X110.374 Y141.551 F4200
G1 E1 F1500
;TYPE:Skirt/Brim
;WIDTH:0.4
G1 F1200
G1 X109.591 Y141.355 E.02638
G1 X108.795 Y140.766 E.03234
G1 X89.234 Y121.205 E.90348
G1 X88.397 Y119.811 E.05312
G1 X88.251 Y118.831 E.03234
G1 X88.251 Y91.169 E.90348
G1 X88.645 Y89.591 E.05312
G1 X89.234 Y88.795 E.03234
G1 X108.795 Y69.234 E.90348
G1 X110.189 Y68.397 E.05312
G1 X111.169 Y68.251 E.03234
G1 X138.831 Y68.251 E.90348
G1 X140.409 Y68.645 E.05312
G1 X141.205 Y69.234 E.03234
G1 X160.766 Y88.795 E.90348
G1 X161.603 Y90.189 E.05312
G1 X161.749 Y91.169 E.03234
G1 X161.749 Y118.831 E.90348
G1 X161.355 Y120.409 E.05312
G1 X160.766 Y121.205 E.03234
G1 X141.205 Y140.766 E.90348
G1 X139.811 Y141.603 E.05312
G1 X138.831 Y141.749 E.03234
G1 X111.169 Y141.749 E.90348
G1 X110.432 Y141.565 E.02478
; printing object OV-PAM_h_42mm_1F.stl id:0 copy 0
G1 E-1 F2400
G1 X111.198 Y138.169 F4200
G1 X111.115 Y138.1
G1 X111.2 Y137.999
G1 E1 F1500
;TYPE:External perimeter
;WIDTH:0.666659
G1 F1200
G1 X91.92 Y118.702 E1.5562
G1 X91.92 Y91.298 E1.56343
G1 X111.298 Y71.92 E1.56343
M73 P3 R38
M73 Q3 S38
G1 X138.702 Y71.92 E1.56343
G1 X158.08 Y91.298 E1.56343
G1 X158.08 Y118.702 E1.56343
G1 X138.702 Y138.08 E1.56343
G1 X111.417 Y138.092 E1.55662
G1 X111.298 Y138.08 E.00684
G1 X111.246 Y138.037 E.00385
G1 X110.83 Y138.15 F4200
; stop printing object OV-PAM_h_42mm_1F.stl id:0 copy 0
;LAYER_CHANGE
;Z:0.8
;HEIGHT:0.2
;BEFORE_LAYER_CHANGE
G92 E0.0
;0.8


G1 E-1 F2400
G1 Z.8 F720
;AFTER_LAYER_CHANGE
;0.8
; printing object OV-PAM_h_42mm_1F.stl id:0 copy 0
G1 X111.195 Y137.994 F4200
G1 E1 F1500
G1 F1200
G1 X91.92 Y118.702 E1.55581
G1 X91.92 Y91.298 E1.56343
G1 X111.298 Y71.92 E1.56343
G1 X138.702 Y71.92 E1.56343
G1 X158.08 Y91.298 E1.56343
G1 X158.08 Y118.702 E1.56343
G1 X138.702 Y138.08 E1.56343
G1 X111.417 Y138.092 E1.55662
M73 P3 R37
M73 Q3 S37
G1 X111.298 Y138.08 E.00684
G1 X111.24 Y138.033 E.00423
G1 X110.824 Y138.144 F4200
; stop printing object OV-PAM_h_42mm_1F.stl id:0 copy 0
;LAYER_CHANGE
;Z:1
;HEIGHT:0.2
;BEFORE_LAYER_CHANGE
G92 E0.0
;1


G1 E-1 F2400
G1 Z1 F720
;AFTER_LAYER_CHANGE
;1
; printing object OV-PAM_h_42mm_1F.stl id:0 copy 0
G1 X111.19 Y137.989 F4200
G1 E1 F1500
G1 F1200
G1 X91.92 Y118.702 E1.55541
G1 X91.92 Y91.298 E1.56343
G1 X111.298 Y71.92 E1.56343
G1 X138.702 Y71.92 E1.56343
M73 P4 R37
M73 Q4 S37
G1 X158.08 Y91.298 E1.56343
G1 X158.08 Y118.702 E1.56343
G1 X138.702 Y138.08 E1.56343
G1 X111.417 Y138.092 E1.55662
G1 X111.298 Y138.08 E.00684
G1 X111.235 Y138.028 E.00464
G1 X110.819 Y138.138 F4200
; stop printing object OV-PAM_h_42mm_1F.stl id:0 copy 0
;LAYER_CHANGE
;Z:1.2
;HEIGHT:0.2
;BEFORE_LAYER_CHANGE
G92 E0.0
;1.2


G1 E-1 F2400
G1 Z1.2 F720
;AFTER_LAYER_CHANGE
;1.2
; printing object OV-PAM_h_42mm_1F.stl id:0 copy 0
G1 X111.185 Y137.982 F4200
G1 E1 F1500
;WIDTH:0.670967
G1 F1194.179
G1 X91.922 Y118.701 E1.56562
G1 X91.922 Y91.299 E1.57413
G1 X111.299 Y71.922 E1.57413
G1 X138.701 Y71.922 E1.57413
G1 X158.078 Y91.299 E1.57413
G1 X158.078 Y118.701 E1.57413
G1 X138.701 Y138.078 E1.57413
G1 X111.419 Y138.09 E1.56723
G1 X111.299 Y138.078 E.00694
G1 X111.23 Y138.022 E.0051
G1 X110.814 Y138.129 F4200
; stop printing object OV-PAM_h_42mm_1F.stl id:0 copy 0
;LAYER_CHANGE
;Z:1.4
;HEIGHT:0.2
;BEFORE_LAYER_CHANGE
G92 E0.0
;1.4


G1 E-1 F2400
G1 Z1.4 F720
;AFTER_LAYER_CHANGE
;1.4
; printing object OV-PAM_h_42mm_1F.stl id:0 copy 0
G1 X111.294 Y137.826 F4200
G1 E1 F1500
;WIDTH:0.523073
G1 F1200
G1 X92.106 Y118.625 E1.19213
G1 X92.106 Y91.375 E1.19676
G1 X111.375 Y72.106 E1.19676
G1 X138.625 Y72.106 E1.19676
G1 X157.894 Y91.375 E1.19676
M73 P5 R37
M73 Q5 S37
G1 X157.894 Y118.625 E1.19676
G1 X138.625 Y137.894 E1.19676
G1 X111.467 Y137.903 E1.19273
G1 X111.375 Y137.894 E.00405
G1 X111.339 Y137.865 E.00202
G1 X110.923 Y137.976 F4200
; stop printing object OV-PAM_h_42mm_1F.stl id:0 copy 0
;LAYER_CHANGE
;Z:1.6
;HEIGHT:0.2
;BEFORE_LAYER_CHANGE
G92 E0.0
;1.6


G1 E-1 F2400
G1 Z1.6 F720
;AFTER_LAYER_CHANGE
;1.6
; printing object OV-PAM_h_42mm_1F.stl id:0 copy 0
G1 X111.356 Y137.724 F4200
G1 E1 F1500
;WIDTH:0.523072
G1 F1200
G1 X92.221 Y118.577 E1.18878
G1 X92.221 Y91.423 E1.19256
G1 X111.423 Y72.221 E1.19256
G1 X138.577 Y72.221 E1.19256
G1 X157.779 Y91.423 E1.19256
G1 X157.779 Y118.577 E1.19256
G1 X138.577 Y137.779 E1.19256
G1 X111.515 Y137.788 E1.18853
G1 X111.402 Y137.762 E.00506
G1 X111.009 Y137.923 F4200
; stop printing object OV-PAM_h_42mm_1F.stl id:0 copy 0
;LAYER_CHANGE
;Z:1.8
;HEIGHT:0.2
;BEFORE_LAYER_CHANGE
G92 E0.0
;1.8


G1 E-1 F2400
G1 Z1.8 F720
;AFTER_LAYER_CHANGE
;1.8
; printing object OV-PAM_h_42mm_1F.stl id:0 copy 0
G1 X111.415 Y137.618 F4200
G1 E1 F1500
;WIDTH:0.523439
G1 F1200
G1 X92.337 Y118.53 E1.18609
G1 X92.336 Y91.471 E1.18927
G1 X111.47 Y72.337 E1.18927
G1 X138.529 Y72.336 E1.18927
G1 X157.663 Y91.47 E1.18927
G1 X157.664 Y118.529 E1.18927
M73 P6 R37
M73 Q6 S37
G1 X138.53 Y137.663 E1.18927
G1 X111.562 Y137.672 E1.18527
G1 X111.461 Y137.656 E.0045
G1 X111.415 Y137.218 F4200
; stop printing object OV-PAM_h_42mm_1F.stl id:0 copy 0
;LAYER_CHANGE
;Z:2
;HEIGHT:0.2
;BEFORE_LAYER_CHANGE
G92 E0.0
;2


G1 E-1 F2400
G1 Z2 F720
;AFTER_LAYER_CHANGE
;2
; printing object OV-PAM_h_42mm_1F.stl id:0 copy 0
G1 X111.475 Y137.512 F4200
G1 E1 F1500
;WIDTH:0.52698
G1 F1200
G1 X92.454 Y118.491 E1.19095
G1 X92.447 Y91.526 E1.19386
M73 P6 R36
M73 Q6 S36
G1 X111.509 Y72.454 E1.19386
G1 X138.474 Y72.447 E1.19386
G1 X157.546 Y91.509 E1.19386
G1 X157.553 Y118.474 E1.19386
G1 X138.491 Y137.546 E1.19386
G1 X111.522 Y137.549 E1.19406
G1 X111.423 Y137.115 F4200
; stop printing object OV-PAM_h_42mm_1F.stl id:0 copy 0
;LAYER_CHANGE
;Z:2.2
;HEIGHT:0.2
;BEFORE_LAYER_CHANGE
G92 E0.0
;2.2


G1 E-1 F2400
G1 Z2.2 F720
;AFTER_LAYER_CHANGE
;2.2
; printing object OV-PAM_h_42mm_1F.stl id:0 copy 0
G1 X111.536 Y137.406 F4200
G1 E1 F1500
;WIDTH:0.533781
G1 F1200
G1 X92.573 Y118.458 E1.20354
G1 X92.559 Y118.342 E.00523
G1 X92.555 Y91.587 E1.20122
G1 X92.626 Y91.495 E.00523
G1 X111.542 Y72.573 E1.20122
G1 X111.658 Y72.559 E.00523
G1 X138.413 Y72.555 E1.20122
G1 X138.505 Y72.626 E.00523
G1 X157.427 Y91.542 E1.20122
G1 X157.441 Y91.658 E.00523
G1 X157.445 Y118.413 E1.20122
G1 X157.374 Y118.505 E.00523
M73 P7 R36
M73 Q7 S36
G1 X138.458 Y137.427 E1.20122
G1 X138.342 Y137.441 E.00523
G1 X111.583 Y137.442 E1.20139
G1 X111.536 Y137.006 F4200
; stop printing object OV-PAM_h_42mm_1F.stl id:0 copy 0
;LAYER_CHANGE
;Z:2.4
;HEIGHT:0.2
;BEFORE_LAYER_CHANGE
G92 E0.0
;2.4


G1 E-1 F2400
G1 Z2.4 F720
;AFTER_LAYER_CHANGE
;2.4
; printing object OV-PAM_h_42mm_1F.stl id:0 copy 0
G1 X111.598 Y137.299 F4200
G1 E1 F1500
;WIDTH:0.543757
G1 F1200
G1 X92.791 Y118.507 E1.21794
G1 X92.694 Y118.428 E.00572
G1 X92.674 Y118.294 E.00621
G1 X92.674 Y91.775 E1.21481
G1 X92.661 Y91.651 E.00572
G1 X92.742 Y91.543 E.00621
G1 X111.493 Y72.791 E1.21481
G1 X111.572 Y72.694 E.00572
G1 X111.706 Y72.674 E.00621
G1 X138.225 Y72.674 E1.21481
G1 X138.349 Y72.661 E.00572
G1 X138.457 Y72.742 E.00621
G1 X157.209 Y91.493 E1.21481
G1 X157.306 Y91.572 E.00572
G1 X157.326 Y91.706 E.00621
G1 X157.326 Y118.225 E1.21481
G1 X157.339 Y118.349 E.00572
G1 X157.258 Y118.457 E.00621
G1 X138.507 Y137.209 E1.21481
G1 X138.428 Y137.306 E.00572
G1 X138.294 Y137.326 E.00621
G1 X111.646 Y137.335 E1.22073
G1 X111.598 Y136.899 F4200
; stop printing object OV-PAM_h_42mm_1F.stl id:0 copy 0
;LAYER_CHANGE
;Z:2.6
;HEIGHT:0.2
;BEFORE_LAYER_CHANGE
G92 E0.0
;2.6


G1 E-1 F2400
G1 Z2.6 F720
;AFTER_LAYER_CHANGE
;2.6
; printing object OV-PAM_h_42mm_1F.stl id:0 copy 0
G1 X111.754 Y137.225 F4200
G1 E1 F1500
;WIDTH:0.556947
G1 F1200
G1 X111.719 Y137.234 E.0017
G1 X111.59 Y137.143 E.0074
;WIDTH:0.5048
G1 X92.94 Y118.492 E1.11427
G1 X92.847 Y118.42 E.00498
;WIDTH:0.556947
G1 X92.816 Y118.402 E.0017
G1 X92.79 Y118.246 E.0074
;WIDTH:0.5048
G1 X92.79 Y91.871 E1.11427
G1 X92.775 Y91.754 E.00498
;WIDTH:0.556947
G1 X92.766 Y91.719 E.0017
G1 X92.857 Y91.59 E.0074
;WIDTH:0.5048
G1 X111.508 Y72.94 E1.11427
G1 X111.58 Y72.847 E.00498
;WIDTH:0.556947
G1 X111.598 Y72.816 E.0017
G1 X111.754 Y72.79 E.0074
;WIDTH:0.5048
G1 X138.129 Y72.79 E1.11427
G1 X138.246 Y72.775 E.00498
;WIDTH:0.556947
G1 X138.281 Y72.766 E.0017
G1 X138.41 Y72.857 E.0074
;WIDTH:0.5048
G1 X157.06 Y91.508 E1.11427
G1 X157.153 Y91.58 E.00498
;WIDTH:0.556947
G1 X157.184 Y91.598 E.0017
G1 X157.21 Y91.754 E.0074
;WIDTH:0.5048
G1 X157.21 Y118.129 E1.11427
G1 X157.225 Y118.246 E.00498
;WIDTH:0.556947
G1 X157.234 Y118.281 E.0017
;WIDTH:0.556947
G1 X157.143 Y118.41 E.0074
;WIDTH:0.5048
G1 X138.492 Y137.06 E1.11427
G1 X138.42 Y137.153 E.00498
;WIDTH:0.556947
M73 P8 R36
M73 Q8 S36
G1 X138.402 Y137.184 E.0017
G1 X138.246 Y137.21 E.0074
;WIDTH:0.5048
G1 X111.813 Y137.218 E1.11669
; stop printing object OV-PAM_h_42mm_1F.stl id:0 copy 0
;LAYER_CHANGE
;Z:2.8
;HEIGHT:0.2
;BEFORE_LAYER_CHANGE
G92 E0.0
;2.8


G1 E-1 F2400
G1 Z2.8 F720
;AFTER_LAYER_CHANGE
;2.8
; printing object OV-PAM_h_42mm_1F.stl id:0 copy 0
G1 X111.822 Y137.121 F4200
G1 E1 F1500
;WIDTH:0.563206
G1 F1200
G1 X111.788 Y137.129 E.00163
G1 X111.638 Y137.027 E.00862
;WIDTH:0.504801
G1 X93.089 Y118.478 E1.10823
G1 X93.02 Y118.43 E.00352
;WIDTH:0.563207
G1 X92.939 Y118.376 E.00463
G1 X92.905 Y118.198 E.00862
;WIDTH:0.5048
G1 X92.905 Y91.966 E1.10823
G1 X92.89 Y91.884 E.00352
;WIDTH:0.563206
G1 X92.871 Y91.788 E.00463
G1 X92.973 Y91.638 E.00862
;WIDTH:0.504801
G1 X111.522 Y73.089 E1.10823
G1 X111.57 Y73.02 E.00352
;WIDTH:0.563207
G1 X111.624 Y72.939 E.00463
G1 X111.802 Y72.905 E.00862
;WIDTH:0.5048
G1 X138.034 Y72.905 E1.10823
G1 X138.116 Y72.89 E.00352
;WIDTH:0.563206
G1 X138.212 Y72.871 E.00463
G1 X138.362 Y72.973 E.00862
;WIDTH:0.504799
G1 X156.911 Y91.522 E1.10823
G1 X156.98 Y91.57 E.00352
;WIDTH:0.563207
G1 X157.061 Y91.624 E.00463
G1 X157.095 Y91.802 E.00862
;WIDTH:0.5048
G1 X157.095 Y118.034 E1.10823
G1 X157.11 Y118.116 E.00352
;WIDTH:0.563206
G1 X157.129 Y118.212 E.00463
;WIDTH:0.573318
G1 X157.027 Y118.362 E.00879
;WIDTH:0.504801
G1 X138.478 Y136.911 E1.10823
G1 X138.43 Y136.98 E.00352
;WIDTH:0.563207
G1 X138.376 Y137.061 E.00463
G1 X138.198 Y137.095 E.00862
;WIDTH:0.5048
G1 X111.966 Y137.095 E1.10823
G1 X111.884 Y137.11 E.00352
;WIDTH:0.563206
G1 X111.881 Y137.11 E.00015
; stop printing object OV-PAM_h_42mm_1F.stl id:0 copy 0
;LAYER_CHANGE
;Z:3
;HEIGHT:0.2
;BEFORE_LAYER_CHANGE
G92 E0.0
;3


G1 E-1 F2400
G1 Z3 F720
;AFTER_LAYER_CHANGE
;3
; printing object OV-PAM_h_42mm_1F.stl id:0 copy 0
G1 X111.894 Y137.016 F4200
G1 E1 F1500
;WIDTH:0.59258
G1 F1200
G1 X111.849 Y137.019 E.00227
G1 X111.686 Y136.912 E.00982
;WIDTH:0.504802
G1 X93.238 Y118.464 E1.10219
G1 X93.151 Y118.408 E.00435
;WIDTH:0.59258
G1 X93.064 Y118.352 E.00518
G1 X93.021 Y118.151 E.01037
;WIDTH:0.5048
G1 X93.021 Y92.061 E1.10218
G1 X92.999 Y91.96 E.00435
;WIDTH:0.59258
G1 X92.977 Y91.86 E.00518
G1 X93.088 Y91.686 E.01037
;WIDTH:0.504802
G1 X111.536 Y73.238 E1.10219
G1 X111.592 Y73.151 E.00435
;WIDTH:0.59258
G1 X111.648 Y73.064 E.00518
G1 X111.849 Y73.021 E.01037
;WIDTH:0.5048
G1 X137.939 Y73.021 E1.10218
G1 X138.04 Y72.999 E.00435
;WIDTH:0.59258
G1 X138.14 Y72.977 E.00518
G1 X138.314 Y73.088 E.01037
;WIDTH:0.5048
G1 X156.762 Y91.536 E1.10219
G1 X156.849 Y91.592 E.00435
;WIDTH:0.59258
M73 P8 R35
M73 Q8 S35
G1 X156.936 Y91.648 E.00518
G1 X156.979 Y91.849 E.01037
;WIDTH:0.5048
G1 X156.979 Y117.939 E1.10218
G1 X157.001 Y118.04 E.00435
;WIDTH:0.59258
G1 X157.023 Y118.14 E.00518
;WIDTH:0.592581
G1 X156.912 Y118.314 E.01037
;WIDTH:0.504802
G1 X138.464 Y136.762 E1.10219
G1 X138.408 Y136.849 E.00435
;WIDTH:0.59258
G1 X138.352 Y136.936 E.00518
G1 X138.151 Y136.979 E.01037
;WIDTH:0.5048
