; generated by PrusaSlicer 2.5.2+win64 on 2023-10-26 at 06:16:54 UTC


;
;
; 

; external perimeters extrusion width = 0.40mm
; perimeters extrusion width = 0.40mm
; infill extrusion width = 0.40mm
; solid infill extrusion width = 0.40mm
; top infill extrusion width = 0.40mm
; first layer extrusion width = 0.40mm

M73 P0 R26
M73 Q0 S26
M201 X1000 Y1000 Z200 E5000 ; sets maximum accelerations, mm/sec^2
M203 X200 Y200 Z12 E120 ; sets maximum feedrates, mm / sec
M204 P1250 R1250 T1250 ; sets acceleration (P, T) and retract acceleration (R), mm/sec^2
M205 X8.00 Y8.00 Z0.40 E4.50 ; sets the jerk limits, mm/sec
M205 S0 T0 ; sets the minimum extruding and travel feed rate, mm/sec
M107
;TYPE:Custom
M862.3 P "MK3S" ; printer model check
M862.1 P0.4 ; nozzle diameter check
M115 U3.12.2 ; tell printer latest fw version
G90 ; use absolute coordinates
M83 ; extruder relative mode
M104 S240 ; set extruder temp
M140 S60 ; set bed temp
M190 S60 ; wait for bed temp
M109 S240 ; wait for extruder temp
G28 W ; home all without mesh bed level
G80 ; mesh bed leveling

G1 Z0.2 F720
G1 Y-3 F1000 ; go outside print area
G92 E0
G1 X60 E9 F1000 ; intro line
G1 X100 E12.5 F1000 ; intro line

G92 E0
M221 S95

; Don't change E values below. Excessive value can damage the printer.
M907 E430 ; set extruder motor current
G21 ; set units to millimeters
G90 ; use absolute coordinates
M83 ; use relative distances for extrusion
M900 K0 ; Filament gcode
M107
;LAYER_CHANGE
;Z:0.2
;HEIGHT:0.2
;BEFORE_LAYER_CHANGE
G92 E0.0
;0.2


G1 E-1 F2400
G1 Z.2 F720
;AFTER_LAYER_CHANGE
;0.2
G1 X89.234 Y88.795 F4200
G1 E1 F1500
M204 S300
;TYPE:Skirt/Brim
;WIDTH:0.4
G1 F1200
G1 X108.795 Y69.234 E.90348
G1 X110.189 Y68.397 E.05312
G1 X111.169 Y68.251 E.03234
G1 X138.831 Y68.251 E.90348
G1 X140.409 Y68.645 E.05312
G1 X141.205 Y69.234 E.03234
G1 X160.766 Y88.795 E.90348
G1 X161.603 Y90.189 E.05312
G1 X161.749 Y91.169 E.03234
G1 X161.749 Y118.831 E.90348
G1 X161.355 Y120.409 E.05312
G1 X160.766 Y121.205 E.03234
G1 X141.205 Y140.766 E.90348
G1 X139.811 Y141.603 E.05312
G1 X138.831 Y141.749 E.03234
G1 X111.169 Y141.749 E.90348
G1 X109.591 Y141.355 E.05312
M73 P1 R26
M73 Q1 S26
G1 X108.795 Y140.766 E.03234
G1 X89.234 Y121.205 E.90348
G1 X88.397 Y119.811 E.05312
G1 X88.251 Y118.831 E.03234
G1 X88.251 Y91.169 E.90348
G1 X88.645 Y89.591 E.05312
G1 X89.199 Y88.843 E.03038
; printing object OV-PAM_h_24mm_standard_1F.stl id:0 copy 0
G1 E-1 F2400
G1 X158.087 Y118.63 F4200
G1 E1 F1500
;TYPE:External perimeter
;WIDTH:0.666659
G1 F1200
G1 X158.08 Y118.702 E.00416
G1 X158.004 Y118.795 E.00684
G1 X138.702 Y138.08 E1.55663
G1 X111.298 Y138.08 E1.56343
G1 X91.92 Y118.702 E1.56343
G1 X91.92 Y91.298 E1.56343
G1 X111.298 Y71.92 E1.56343
G1 X138.702 Y71.92 E1.56343
G1 X158.08 Y91.298 E1.56343
G1 X158.092 Y118.57 E1.55589
G1 X158.153 Y118.662 F4200
; stop printing object OV-PAM_h_24mm_standard_1F.stl id:0 copy 0
;LAYER_CHANGE
;Z:0.4
;HEIGHT:0.2
;BEFORE_LAYER_CHANGE
G92 E0.0
;0.4


M73 P2 R26
M73 Q2 S26
G1 E-1 F2400
G1 Z.4 F720
;AFTER_LAYER_CHANGE
;0.4
G1 X161.596 Y119.445 F4200
G1 E1 F1500
;TYPE:Skirt/Brim
;WIDTH:0.4
G1 F1200
G1 X161.355 Y120.409 E.03247
G1 X160.766 Y121.205 E.03234
G1 X141.205 Y140.766 E.90348
G1 X139.811 Y141.603 E.05312
G1 X138.831 Y141.749 E.03234
G1 X111.169 Y141.749 E.90348
G1 X109.591 Y141.355 E.05312
G1 X108.795 Y140.766 E.03234
G1 X89.234 Y121.205 E.90348
G1 X88.397 Y119.811 E.05312
G1 X88.251 Y118.831 E.03234
G1 X88.251 Y91.169 E.90348
G1 X88.645 Y89.591 E.05312
G1 X89.234 Y88.795 E.03234
G1 X108.795 Y69.234 E.90348
G1 X110.189 Y68.397 E.05312
G1 X111.169 Y68.251 E.03234
G1 X138.831 Y68.251 E.90348
G1 X140.409 Y68.645 E.05312
G1 X141.205 Y69.234 E.03234
G1 X160.766 Y88.795 E.90348
G1 X161.603 Y90.189 E.05312
G1 X161.749 Y91.169 E.03234
G1 X161.749 Y118.831 E.90348
G1 X161.61 Y119.387 E.01869
; printing object OV-PAM_h_24mm_standard_1F.stl id:0 copy 0
G1 E-1 F2400
G1 X157.958 Y118.645 F4200
G1 X157.958 Y118.615
G1 X158.089 Y118.615
G1 E1 F1500
;TYPE:External perimeter
;WIDTH:0.666659
G1 F1200
G1 X158.08 Y118.702 E.00502
G1 X158.004 Y118.795 E.00684
G1 X138.702 Y138.08 E1.55663
G1 X111.298 Y138.08 E1.56343
G1 X91.92 Y118.702 E1.56343
G1 X91.92 Y91.298 E1.56343
M73 P3 R26
M73 Q3 S26
G1 X111.298 Y71.92 E1.56343
G1 X138.702 Y71.92 E1.56343
G1 X158.08 Y91.298 E1.56343
M73 P3 R25
M73 Q3 S25
G1 X158.092 Y118.555 E1.55503
G1 X158.168 Y118.654 F4200
; stop printing object OV-PAM_h_24mm_standard_1F.stl id:0 copy 0
;LAYER_CHANGE
;Z:0.6
;HEIGHT:0.2
;BEFORE_LAYER_CHANGE
G92 E0.0
;0.6


G1 E-1 F2400
G1 Z.6 F720
;AFTER_LAYER_CHANGE
;0.6
G1 X161.599 Y119.431 F4200
G1 E1 F1500
;TYPE:Skirt/Brim
;WIDTH:0.4
G1 F1200
G1 X161.355 Y120.409 E.03295
G1 X160.766 Y121.205 E.03234
G1 X141.205 Y140.766 E.90348
G1 X139.811 Y141.603 E.05312
G1 X138.831 Y141.749 E.03234
G1 X111.169 Y141.749 E.90348
G1 X109.591 Y141.355 E.05312
G1 X108.795 Y140.766 E.03234
G1 X89.234 Y121.205 E.90348
G1 X88.397 Y119.811 E.05312
G1 X88.251 Y118.831 E.03234
G1 X88.251 Y91.169 E.90348
G1 X88.645 Y89.591 E.05312
G1 X89.234 Y88.795 E.03234
G1 X108.795 Y69.234 E.90348
G1 X110.189 Y68.397 E.05312
G1 X111.169 Y68.251 E.03234
G1 X138.831 Y68.251 E.90348
G1 X140.409 Y68.645 E.05312
M73 P4 R25
M73 Q4 S25
G1 X141.205 Y69.234 E.03234
G1 X160.766 Y88.795 E.90348
G1 X161.603 Y90.189 E.05312
G1 X161.749 Y91.169 E.03234
G1 X161.749 Y118.831 E.90348
G1 X161.614 Y119.372 E.01821
; printing object OV-PAM_h_24mm_standard_1F.stl id:0 copy 0
G1 E-1 F2400
G1 X158.22 Y118.627 F4200
G1 X158.221 Y118.61
G1 X158.09 Y118.598
G1 E1 F1500
;TYPE:External perimeter
;WIDTH:0.666659
G1 F1200
G1 X158.08 Y118.702 E.006
G1 X158.004 Y118.795 E.00684
G1 X138.702 Y138.08 E1.55663
G1 X111.298 Y138.08 E1.56343
G1 X91.92 Y118.702 E1.56343
G1 X91.92 Y91.298 E1.56343
G1 X111.298 Y71.92 E1.56343
G1 X138.702 Y71.92 E1.56343
G1 X158.08 Y91.298 E1.56343
G1 X158.092 Y118.538 E1.55404
G1 X158.185 Y118.644 F4200
; stop printing object OV-PAM_h_24mm_standard_1F.stl id:0 copy 0
;LAYER_CHANGE
;Z:0.8
;HEIGHT:0.2
;BEFORE_LAYER_CHANGE
G92 E0.0
;0.8


G1 E-1 F2400
G1 Z.8 F720
;AFTER_LAYER_CHANGE
;0.8
; printing object OV-PAM_h_24mm_standard_1F.stl id:0 copy 0
G1 X158.092 Y118.574 F4200
G1 E1 F1500
G1 F1200
G1 X158.08 Y118.702 E.00733
G1 X158.004 Y118.795 E.00684
G1 X138.702 Y138.08 E1.55663
G1 X111.298 Y138.08 E1.56343
M73 P5 R25
M73 Q5 S25
G1 X91.92 Y118.702 E1.56343
G1 X91.92 Y91.298 E1.56343
G1 X111.298 Y71.92 E1.56343
G1 X138.702 Y71.92 E1.56343
G1 X158.08 Y91.298 E1.56343
G1 X158.092 Y118.514 E1.55271
G1 X158.207 Y118.631 F4200
; stop printing object OV-PAM_h_24mm_standard_1F.stl id:0 copy 0
;LAYER_CHANGE
;Z:1
;HEIGHT:0.2
;BEFORE_LAYER_CHANGE
G92 E0.0
;1


G1 E-1 F2400
G1 Z1 F720
;AFTER_LAYER_CHANGE
;1
; printing object OV-PAM_h_24mm_standard_1F.stl id:0 copy 0
G1 X158.092 Y118.549 F4200
G1 E1 F1500
G1 F1200
G1 X158.08 Y118.702 E.00876
G1 X158.004 Y118.795 E.00684
G1 X138.702 Y138.08 E1.55663
G1 X111.298 Y138.08 E1.56343
G1 X91.92 Y118.702 E1.56343
G1 X91.92 Y91.298 E1.56343
G1 X111.298 Y71.92 E1.56343
M73 P6 R25
M73 Q6 S25
G1 X138.702 Y71.92 E1.56343
G1 X158.08 Y91.298 E1.56343
G1 X158.092 Y118.489 E1.55127
G1 X158.231 Y118.615 F4200
; stop printing object OV-PAM_h_24mm_standard_1F.stl id:0 copy 0
;LAYER_CHANGE
;Z:1.2
;HEIGHT:0.2
;BEFORE_LAYER_CHANGE
G92 E0.0
;1.2


G1 E-1 F2400
G1 Z1.2 F720
;AFTER_LAYER_CHANGE
;1.2
; printing object OV-PAM_h_24mm_standard_1F.stl id:0 copy 0
G1 X158.09 Y118.52 F4200
G1 E1 F1500
;WIDTH:0.670967
G1 F1194.179
G1 X158.078 Y118.701 E.01043
G1 X158.001 Y118.795 E.00694
G1 X138.701 Y138.078 E1.56723
G1 X111.299 Y138.078 E1.57413
G1 X91.922 Y118.701 E1.57413
G1 X91.922 Y91.299 E1.57413
G1 X111.299 Y71.922 E1.57413
G1 X138.701 Y71.922 E1.57413
G1 X158.078 Y91.299 E1.57413
G1 X158.09 Y118.46 E1.56027
M73 P6 R24
M73 Q6 S24
G1 X158.254 Y118.597 F4200
; stop printing object OV-PAM_h_24mm_standard_1F.stl id:0 copy 0
;LAYER_CHANGE
;Z:1.4
;HEIGHT:0.2
;BEFORE_LAYER_CHANGE
G92 E0.0
;1.4


M73 P7 R24
M73 Q7 S24
G1 E-1 F2400
G1 Z1.4 F720
;AFTER_LAYER_CHANGE
;1.4
; printing object OV-PAM_h_24mm_standard_1F.stl id:0 copy 0
G1 X157.903 Y118.464 F4200
G1 E1 F1500
;WIDTH:0.523073
G1 F1200
G1 X157.894 Y118.625 E.00711
G1 X157.836 Y118.697 E.00405
G1 X138.625 Y137.894 E1.19273
G1 X111.375 Y137.894 E1.19676
G1 X92.106 Y118.625 E1.19676
G1 X92.106 Y91.375 E1.19676
G1 X111.375 Y72.106 E1.19676
G1 X138.625 Y72.106 E1.19676
G1 X157.894 Y91.375 E1.19676
G1 X157.903 Y118.404 E1.18703
G1 X158.05 Y118.531 F4200
; stop printing object OV-PAM_h_24mm_standard_1F.stl id:0 copy 0
;LAYER_CHANGE
;Z:1.6
;HEIGHT:0.2
;BEFORE_LAYER_CHANGE
G92 E0.0
;1.6


G1 E-1 F2400
G1 Z1.6 F720
;AFTER_LAYER_CHANGE
;1.6
; printing object OV-PAM_h_24mm_standard_1F.stl id:0 copy 0
G1 X157.788 Y118.404 F4200
G1 E1 F1500
;WIDTH:0.528442
G1 F1200
G1 X157.786 Y118.567 E.00722
G1 X157.72 Y118.649 E.00467
G1 X138.59 Y137.776 E1.20134
G1 X111.433 Y137.786 E1.20598
G1 X92.224 Y118.59 E1.20598
G1 X92.214 Y91.433 E1.20598
M73 P8 R24
M73 Q8 S24
G1 X111.41 Y72.224 E1.20598
G1 X138.567 Y72.214 E1.20598
G1 X157.776 Y91.41 E1.20598
G1 X157.788 Y118.344 E1.19609
G1 X157.658 Y118.502 F4200
; stop printing object OV-PAM_h_24mm_standard_1F.stl id:0 copy 0
;LAYER_CHANGE
;Z:1.8
;HEIGHT:0.2
;BEFORE_LAYER_CHANGE
G92 E0.0
;1.8


G1 E-1 F2400
G1 Z1.8 F720
;AFTER_LAYER_CHANGE
;1.8
; printing object OV-PAM_h_24mm_standard_1F.stl id:0 copy 0
G1 X157.672 Y118.283 F4200
G1 E1 F1500
;WIDTH:0.55358
G1 F1200
G1 X157.694 Y118.478 E.00914
G1 X157.605 Y118.601 E.0071
G1 X138.676 Y137.53 E1.25034
G1 X138.588 Y137.648 E.00688
G1 X138.438 Y137.672 E.0071
G1 X111.668 Y137.672 E1.25034
G1 X111.522 Y137.694 E.00688
G1 X111.399 Y137.605 E.0071
G1 X92.47 Y118.676 E1.25034
G1 X92.352 Y118.588 E.00688
G1 X92.328 Y118.438 E.0071
G1 X92.328 Y91.668 E1.25034
G1 X92.306 Y91.522 E.00688
G1 X92.395 Y91.399 E.0071
G1 X111.324 Y72.47 E1.25034
G1 X111.412 Y72.352 E.00688
G1 X111.562 Y72.328 E.0071
G1 X138.332 Y72.328 E1.25034
G1 X138.478 Y72.306 E.00688
G1 X138.601 Y72.395 E.0071
G1 X157.53 Y91.324 E1.25034
G1 X157.648 Y91.412 E.00688
M73 P9 R24
M73 Q9 S24
G1 X157.672 Y91.562 E.0071
G1 X157.672 Y118.223 E1.24526
G1 X157.51 Y118.393 F4200
; stop printing object OV-PAM_h_24mm_standard_1F.stl id:0 copy 0
;LAYER_CHANGE
;Z:2
;HEIGHT:0.2
;BEFORE_LAYER_CHANGE
G92 E0.0
;2


G1 E-1 F2400
G1 Z2 F720
;AFTER_LAYER_CHANGE
;2
; printing object OV-PAM_h_24mm_standard_1F.stl id:0 copy 0
G1 X157.557 Y118.143 F4200
G1 E1 F1500
;WIDTH:0.544421
G1 F1200
G1 X157.58 Y118.269 E.00587
;WIDTH:0.598124
G1 X157.603 Y118.373 E.0054
;WIDTH:0.598125
G1 X157.543 Y118.471 E.00588
;WIDTH:0.544422
G1 X157.489 Y118.553 E.00448
G1 X138.712 Y137.33 E1.21808
G1 X138.655 Y137.42 E.00488
;WIDTH:0.598125
G1 X138.598 Y137.51 E.0054
G1 X138.485 Y137.537 E.00588
;WIDTH:0.544421
G1 X138.39 Y137.557 E.00448
G1 X111.835 Y137.557 E1.21808
G1 X111.731 Y137.58 E.00488
;WIDTH:0.598124
G1 X111.627 Y137.603 E.0054
G1 X111.529 Y137.543 E.00588
;WIDTH:0.544422
G1 X111.447 Y137.489 E.00448
G1 X92.67 Y118.712 E1.21808
G1 X92.58 Y118.655 E.00488
;WIDTH:0.598125
G1 X92.49 Y118.598 E.0054
G1 X92.463 Y118.485 E.00588
;WIDTH:0.544421
G1 X92.443 Y118.39 E.00448
G1 X92.443 Y91.835 E1.21808
G1 X92.42 Y91.731 E.00488
;WIDTH:0.598124
G1 X92.397 Y91.627 E.0054
G1 X92.457 Y91.529 E.00588
;WIDTH:0.544422
G1 X92.511 Y91.447 E.00448
G1 X111.288 Y72.67 E1.21808
G1 X111.345 Y72.58 E.00488
;WIDTH:0.598125
G1 X111.402 Y72.49 E.0054
G1 X111.515 Y72.463 E.00588
;WIDTH:0.544421
G1 X111.61 Y72.443 E.00448
G1 X138.165 Y72.443 E1.21808
G1 X138.269 Y72.42 E.00488
;WIDTH:0.598124
G1 X138.373 Y72.397 E.0054
G1 X138.471 Y72.457 E.00588
;WIDTH:0.544423
G1 X138.553 Y72.511 E.00448
G1 X157.33 Y91.288 E1.21808
G1 X157.42 Y91.345 E.00488
;WIDTH:0.598125
G1 X157.51 Y91.402 E.0054
G1 X157.537 Y91.515 E.00588
;WIDTH:0.544421
G1 X157.557 Y91.61 E.00448
G1 X157.557 Y118.083 E1.21432
G1 X157.455 Y118.22 F4200
; stop printing object OV-PAM_h_24mm_standard_1F.stl id:0 copy 0
;LAYER_CHANGE
;Z:2.2
;HEIGHT:0.2
;BEFORE_LAYER_CHANGE
G92 E0.0
;2.2


G1 E-1 F2400
G1 Z2.2 F720
;AFTER_LAYER_CHANGE
;2.2
; printing object OV-PAM_h_24mm_standard_1F.stl id:0 copy 0
G1 X157.498 Y118.301 F4200
G1 E1 F1500
;WIDTH:0.652325
G1 F1200
G1 X157.481 Y118.342 E.00249
;WIDTH:0.584048
G1 X157.374 Y118.505 E.00967
;WIDTH:0.504802
G1 X138.748 Y137.131 E1.11279
G1 X138.704 Y137.21 E.00382
;WIDTH:0.603148
G1 X138.616 Y137.368 E.00927
G1 X138.438 Y137.422 E.00953
;WIDTH:0.544423
G1 X138.342 Y137.441 E.00448
G1 X112.001 Y137.441 E1.20824
G1 X111.914 Y137.466 E.00415
;WIDTH:0.603148
M73 P10 R24
M73 Q10 S24
G1 X111.74 Y137.515 E.00927
G1 X111.576 Y137.427 E.00953
;WIDTH:0.544424
G1 X111.495 Y137.374 E.00448
G1 X92.869 Y118.748 E1.20824
G1 X92.79 Y118.704 E.00415
;WIDTH:0.603148
G1 X92.632 Y118.616 E.00927
G1 X92.578 Y118.438 E.00953
;WIDTH:0.544423
G1 X92.559 Y118.342 E.00448
G1 X92.559 Y92.001 E1.20824
G1 X92.534 Y91.914 E.00415
;WIDTH:0.603148
G1 X92.485 Y91.74 E.00927
G1 X92.573 Y91.576 E.00953
;WIDTH:0.544424
G1 X92.626 Y91.495 E.00448
G1 X111.252 Y72.869 E1.20824
G1 X111.296 Y72.79 E.00415
;WIDTH:0.603148
G1 X111.384 Y72.632 E.00927
G1 X111.562 Y72.578 E.00953
;WIDTH:0.544423
G1 X111.658 Y72.559 E.00448
G1 X137.999 Y72.559 E1.20824
G1 X138.086 Y72.534 E.00415
;WIDTH:0.603148
G1 X138.26 Y72.485 E.00927
G1 X138.424 Y72.573 E.00953
;WIDTH:0.544424
G1 X138.505 Y72.626 E.00448
G1 X157.131 Y91.252 E1.20824
G1 X157.21 Y91.296 E.00415
;WIDTH:0.603148
G1 X157.368 Y91.384 E.00927
G1 X157.422 Y91.562 E.00953
;WIDTH:0.544423
G1 X157.441 Y91.658 E.00448
G1 X157.441 Y117.999 E1.20824
G1 X157.466 Y118.086 E.00415
;WIDTH:0.603148
G1 X157.511 Y118.245 E.00848
; stop printing object OV-PAM_h_24mm_standard_1F.stl id:0 copy 0
;LAYER_CHANGE
;Z:2.4
;HEIGHT:0.2
;BEFORE_LAYER_CHANGE
G92 E0.0
;2.4


G1 E-1 F2400
G1 Z2.4 F720
;AFTER_LAYER_CHANGE
;2.4
; printing object OV-PAM_h_24mm_standard_1F.stl id:0 copy 0
G1 X138.784 Y136.931 F4200
G1 E1 F1500
;WIDTH:0.504802
G1 F1200
G1 X157.095 Y118.621 E1.09397
G1 X157.295 Y118.032 F4200
;WIDTH:0.4
G1 F1200
G1 X157.728 Y118.032 E.01413
G1 X157.295 Y118.465 E.01998
G1 X157.295 Y118.092 E.01217
G1 X157.095 Y118.378 F4200
G1 X157.326 Y117.832
;WIDTH:0.5048
G1 F1200
G1 X157.326 Y91.937 E1.09396
G1 X157.051 Y91.379 F4200
;WIDTH:0.4
M73 P10 R23
M73 Q10 S23
G1 F1200
G1 X157.357 Y91.073 E.01413
G1 X157.357 Y91.685 E.01998
G1 X157.093 Y91.421 E.01217
G1 X157.154 Y91.765 F4200
G1 X156.931 Y91.216
;WIDTH:0.504803
G1 F1200
G1 X138.621 Y72.905 E1.09397
G1 X138.032 Y72.272 F4200
;WIDTH:0.4
G1 F1200
G1 X138.465 Y72.705 E.01998
G1 X138.032 Y72.705 E.01413
G1 X138.032 Y72.332 E.01217
G1 X137.645 Y72.376 F4200
G1 X137.832 Y72.674
;WIDTH:0.5048
G1 F1200
G1 X111.937 Y72.674 E1.09396
G1 X111.379 Y72.949 F4200
;WIDTH:0.4
G1 F1200
G1 X111.073 Y72.643 E.01413
G1 X111.685 Y72.643 E.01998
G1 X111.421 Y72.907 E.01217
G1 X111.765 Y72.846 F4200
G1 X111.216 Y73.069
;WIDTH:0.504802
G1 F1200
G1 X92.905 Y91.379 E1.09397
G1 X92.705 Y91.968 F4200
;WIDTH:0.4
M73 P11 R23
M73 Q11 S23
G1 F1200
G1 X92.272 Y91.968 E.01413
G1 X92.705 Y91.535 E.01998
G1 X92.705 Y91.908 E.01217
G1 X92.905 Y91.622 F4200
G1 X92.674 Y92.168
;WIDTH:0.5048
G1 F1200
G1 X92.674 Y118.063 E1.09396
G1 X92.949 Y118.621 F4200
;WIDTH:0.4
G1 F1200
G1 X92.643 Y118.927 E.01413
G1 X92.643 Y118.315 E.01998
G1 X92.907 Y118.579 E.01217
G1 X92.846 Y118.235 F4200
G1 X93.069 Y118.784
;WIDTH:0.504802
G1 F1200
G1 X111.379 Y137.095 E1.09397
G1 X111.968 Y137.295 F4200
;WIDTH:0.4
G1 F1200
G1 X111.968 Y137.728 E.01413
G1 X111.535 Y137.295 E.01998
G1 X111.908 Y137.295 E.01217
G1 X111.622 Y137.095 F4200
G1 X112.168 Y137.326
;WIDTH:0.5048
G1 F1200
G1 X138.063 Y137.326 E1.09396
G1 X138.621 Y137.051 F4200
;WIDTH:0.4
G1 F1200
G1 X138.927 Y137.357 E.01413
G1 X138.315 Y137.357 E.01998
G1 X138.579 Y137.093 E.01217
G1 X138.235 Y137.154 F4200
; stop printing object OV-PAM_h_24mm_standard_1F.stl id:0 copy 0
;LAYER_CHANGE
;Z:2.6
;HEIGHT:0.2
;BEFORE_LAYER_CHANGE
G92 E0.0
;2.6


G1 E-1 F2400
G1 Z2.6 F720
;AFTER_LAYER_CHANGE
;2.6
; printing object OV-PAM_h_24mm_standard_1F.stl id:0 copy 0
G1 X138.821 Y136.732 F4200
G1 E1 F1500
;WIDTH:0.504803
