; generated by PrusaSlicer 2.5.2+win64 on 2023-10-26 at 05:59:30 UTC


;
;
; 

; external perimeters extrusion width = 0.50mm
; perimeters extrusion width = 0.50mm
; infill extrusion width = 0.50mm
; solid infill extrusion width = 0.50mm
; top infill extrusion width = 0.50mm
; first layer extrusion width = 0.50mm

M73 P0 R31
M73 Q0 S31
M201 X1000 Y1000 Z200 E5000 ; sets maximum accelerations, mm/sec^2
M203 X200 Y200 Z12 E120 ; sets maximum feedrates, mm / sec
M204 P1250 R1250 T1250 ; sets acceleration (P, T) and retract acceleration (R), mm/sec^2
M205 X8.00 Y8.00 Z0.40 E4.50 ; sets the jerk limits, mm/sec
M205 S0 T0 ; sets the minimum extruding and travel feed rate, mm/sec
M107
;TYPE:Custom
M862.3 P "MK3S" ; printer model check
M862.1 P0.4 ; nozzle diameter check
M115 U3.12.2 ; tell printer latest fw version
G90 ; use absolute coordinates
M83 ; extruder relative mode
M104 S240 ; set extruder temp
M140 S60 ; set bed temp
M190 S60 ; wait for bed temp
M109 S240 ; wait for extruder temp
G28 W ; home all without mesh bed level
G80 ; mesh bed leveling

G1 Z0.2 F720
G1 Y-3 F1000 ; go outside print area
G92 E0
G1 X60 E9 F1000 ; intro line
G1 X100 E12.5 F1000 ; intro line

G92 E0
M221 S95

; Don't change E values below. Excessive value can damage the printer.
M907 E430 ; set extruder motor current
G21 ; set units to millimeters
G90 ; use absolute coordinates
M83 ; use relative distances for extrusion
M900 K0 ; Filament gcode
M107
;LAYER_CHANGE
;Z:0.2
;HEIGHT:0.2
;BEFORE_LAYER_CHANGE
G92 E0.0
;0.2


G1 E-1 F2400
G1 Z.2 F720
;AFTER_LAYER_CHANGE
;0.2
G1 X89.164 Y88.724 F4200
G1 E1 F1500
M204 S300
;TYPE:Skirt/Brim
;WIDTH:0.5
G1 F1200
G1 X108.724 Y69.164 E1.1565
G1 X110.136 Y68.309 E.06902
G1 X111.169 Y68.151 E.04365
G1 X138.831 Y68.151 E1.1565
G1 X140.435 Y68.545 E.06902
G1 X141.276 Y69.164 E.04365
G1 X160.836 Y88.724 E1.1565
G1 X161.691 Y90.136 E.06902
G1 X161.849 Y91.169 E.04365
G1 X161.849 Y118.831 E1.1565
G1 X161.455 Y120.435 E.06902
G1 X160.836 Y121.276 E.04365
G1 X141.276 Y140.836 E1.1565
G1 X139.864 Y141.691 E.06902
G1 X138.831 Y141.849 E.04365
G1 X111.169 Y141.849 E1.1565
G1 X109.565 Y141.455 E.06902
G1 X108.724 Y140.836 E.04365
G1 X89.164 Y121.276 E1.1565
G1 X88.309 Y119.864 E.06902
G1 X88.151 Y118.831 E.04365
G1 X88.151 Y91.169 E1.1565
G1 X88.545 Y89.565 E.06902
M73 P1 R31
M73 Q1 S31
G1 X89.128 Y88.772 E.04114
; printing object OV-PAM_h_30mm_1F.stl id:0 copy 0
G1 E-1 F2400
G1 X92.024 Y118.744 F4200
G1 E1 F1500
;TYPE:External perimeter
;WIDTH:0.770616
G1 F1030.65
G1 X91.972 Y118.681 E.00549
G1 X91.958 Y118.541 E.00931
G1 X91.958 Y91.459 E1.80261
G1 X91.972 Y91.319 E.00931
G1 X92.061 Y91.211 E.00931
G1 X111.211 Y72.061 E1.80261
G1 X111.319 Y71.972 E.00931
G1 X111.459 Y71.958 E.00931
G1 X138.541 Y71.958 E1.80261
G1 X138.681 Y71.972 E.00931
G1 X138.789 Y72.061 E.00931
G1 X157.939 Y91.211 E1.80261
G1 X158.028 Y91.319 E.00931
G1 X158.042 Y91.459 E.00931
G1 X158.042 Y118.541 E1.80261
G1 X158.028 Y118.681 E.00931
G1 X157.939 Y118.789 E.00931
G1 X138.789 Y137.939 E1.80261
G1 X138.681 Y138.028 E.00931
G1 X138.541 Y138.042 E.00931
G1 X111.459 Y138.042 E1.80261
G1 X111.319 Y138.028 E.00931
G1 X111.211 Y137.939 E.00931
G1 X92.062 Y118.791 E1.80244
G1 X91.943 Y118.761 F4200
; stop printing object OV-PAM_h_30mm_1F.stl id:0 copy 0
;LAYER_CHANGE
;Z:0.4
;HEIGHT:0.2
;BEFORE_LAYER_CHANGE
G92 E0.0
;0.4


G1 E-1 F2400
G1 Z.4 F720
;AFTER_LAYER_CHANGE
;0.4
G1 X88.84 Y120.741 F4200
G1 E1 F1500
;TYPE:Skirt/Brim
;WIDTH:0.5
G1 F1200
G1 X88.309 Y119.864 E.04289
G1 X88.151 Y118.831 E.04365
G1 X88.151 Y91.169 E1.1565
G1 X88.545 Y89.565 E.06902
G1 X89.164 Y88.724 E.04365
G1 X108.724 Y69.164 E1.1565
G1 X110.136 Y68.309 E.06902
G1 X111.169 Y68.151 E.04365
G1 X138.831 Y68.151 E1.1565
G1 X140.435 Y68.545 E.06902
M73 P2 R31
M73 Q2 S31
G1 X141.276 Y69.164 E.04365
G1 X160.836 Y88.724 E1.1565
G1 X161.691 Y90.136 E.06902
G1 X161.849 Y91.169 E.04365
G1 X161.849 Y118.831 E1.1565
G1 X161.455 Y120.435 E.06902
G1 X160.836 Y121.276 E.04365
G1 X141.276 Y140.836 E1.1565
G1 X139.864 Y141.691 E.06902
G1 X138.831 Y141.849 E.04365
G1 X111.169 Y141.849 E1.1565
G1 X109.565 Y141.455 E.06902
M73 P2 R30
M73 Q2 S30
G1 X108.724 Y140.836 E.04365
G1 X89.164 Y121.276 E1.1565
G1 X88.871 Y120.793 E.02362
; printing object OV-PAM_h_30mm_1F.stl id:0 copy 0
G1 E-1 F2400
G1 X91.881 Y118.834 F4200
G1 X91.906 Y118.863
G1 X92.033 Y118.755
G1 E1 F1500
;TYPE:External perimeter
;WIDTH:0.770616
G1 F1030.65
G1 X91.972 Y118.681 E.00643
G1 X91.958 Y118.541 E.00931
G1 X91.958 Y91.459 E1.80261
G1 X91.972 Y91.319 E.00931
G1 X92.061 Y91.211 E.00931
G1 X111.211 Y72.061 E1.80261
G1 X111.319 Y71.972 E.00931
G1 X111.459 Y71.958 E.00931
G1 X138.541 Y71.958 E1.80261
G1 X138.681 Y71.972 E.00931
G1 X138.789 Y72.061 E.00931
G1 X157.939 Y91.211 E1.80261
G1 X158.028 Y91.319 E.00931
G1 X158.042 Y91.459 E.00931
G1 X158.042 Y118.541 E1.80261
G1 X158.028 Y118.681 E.00931
G1 X157.939 Y118.789 E.00931
G1 X138.789 Y137.939 E1.80261
G1 X138.681 Y138.028 E.00931
G1 X138.541 Y138.042 E.00931
G1 X111.459 Y138.042 E1.80261
G1 X111.319 Y138.028 E.00931
M73 P3 R30
M73 Q3 S30
G1 X111.211 Y137.939 E.00931
G1 X92.072 Y118.801 E1.80149
G1 X91.938 Y118.774 F4200
; stop printing object OV-PAM_h_30mm_1F.stl id:0 copy 0
;LAYER_CHANGE
;Z:0.6
;HEIGHT:0.2
;BEFORE_LAYER_CHANGE
G92 E0.0
;0.6


G1 E-1 F2400
G1 Z.6 F720
;AFTER_LAYER_CHANGE
;0.6
G1 X88.847 Y120.753 F4200
G1 E1 F1500
;TYPE:Skirt/Brim
;WIDTH:0.5
G1 F1200
G1 X88.309 Y119.864 E.04347
G1 X88.151 Y118.831 E.04365
G1 X88.151 Y91.169 E1.1565
G1 X88.545 Y89.565 E.06902
G1 X89.164 Y88.724 E.04365
G1 X108.724 Y69.164 E1.1565
G1 X110.136 Y68.309 E.06902
G1 X111.169 Y68.151 E.04365
G1 X138.831 Y68.151 E1.1565
G1 X140.435 Y68.545 E.06902
G1 X141.276 Y69.164 E.04365
G1 X160.836 Y88.724 E1.1565
G1 X161.691 Y90.136 E.06902
G1 X161.849 Y91.169 E.04365
G1 X161.849 Y118.831 E1.1565
G1 X161.455 Y120.435 E.06902
G1 X160.836 Y121.276 E.04365
G1 X141.276 Y140.836 E1.1565
G1 X139.864 Y141.691 E.06902
G1 X138.831 Y141.849 E.04365
G1 X111.169 Y141.849 E1.1565
G1 X109.565 Y141.455 E.06902
G1 X108.724 Y140.836 E.04365
G1 X89.164 Y121.276 E1.1565
G1 X88.878 Y120.804 E.02305
; printing object OV-PAM_h_30mm_1F.stl id:0 copy 0
G1 E-1 F2400
G1 X91.89 Y118.845 F4200
G1 X91.916 Y118.875
G1 X92.043 Y118.768
G1 E1 F1500
;TYPE:External perimeter
;WIDTH:0.770616
G1 F1030.65
G1 X91.972 Y118.681 E.00748
G1 X91.958 Y118.541 E.00931
G1 X91.958 Y91.459 E1.80261
G1 X91.972 Y91.319 E.00931
G1 X92.061 Y91.211 E.00931
G1 X111.211 Y72.061 E1.80261
G1 X111.319 Y71.972 E.00931
G1 X111.459 Y71.958 E.00931
G1 X138.541 Y71.958 E1.80261
G1 X138.681 Y71.972 E.00931
M73 P4 R30
M73 Q4 S30
G1 X138.789 Y72.061 E.00931
G1 X157.939 Y91.211 E1.80261
G1 X158.028 Y91.319 E.00931
G1 X158.042 Y91.459 E.00931
G1 X158.042 Y118.541 E1.80261
G1 X158.028 Y118.681 E.00931
G1 X157.939 Y118.789 E.00931
G1 X138.789 Y137.939 E1.80261
G1 X138.681 Y138.028 E.00931
G1 X138.541 Y138.042 E.00931
G1 X111.459 Y138.042 E1.80261
G1 X111.319 Y138.028 E.00931
G1 X111.211 Y137.939 E.00931
G1 X92.084 Y118.812 E1.80044
G1 X91.933 Y118.79 F4200
; stop printing object OV-PAM_h_30mm_1F.stl id:0 copy 0
;LAYER_CHANGE
;Z:0.8
;HEIGHT:0.2
;BEFORE_LAYER_CHANGE
G92 E0.0
;0.8


G1 E-1 F2400
G1 Z.8 F720
;AFTER_LAYER_CHANGE
;0.8
; printing object OV-PAM_h_30mm_1F.stl id:0 copy 0
G1 X92.054 Y118.781 F4200
G1 E1 F1500
G1 F1030.65
G1 X91.972 Y118.681 E.00865
G1 X91.958 Y118.541 E.00931
G1 X91.958 Y91.459 E1.80261
G1 X91.972 Y91.319 E.00931
G1 X92.061 Y91.211 E.00931
G1 X111.211 Y72.061 E1.80261
G1 X111.319 Y71.972 E.00931
G1 X111.459 Y71.958 E.00931
G1 X138.541 Y71.958 E1.80261
G1 X138.681 Y71.972 E.00931
G1 X138.789 Y72.061 E.00931
G1 X157.939 Y91.211 E1.80261
G1 X158.028 Y91.319 E.00931
G1 X158.042 Y91.459 E.00931
G1 X158.042 Y118.541 E1.80261
G1 X158.028 Y118.681 E.00931
G1 X157.939 Y118.789 E.00931
G1 X138.789 Y137.939 E1.80261
G1 X138.681 Y138.028 E.00931
G1 X138.541 Y138.042 E.00931
G1 X111.459 Y138.042 E1.80261
G1 X111.319 Y138.028 E.00931
M73 P5 R30
M73 Q5 S30
G1 X111.211 Y137.939 E.00931
G1 X92.096 Y118.824 E1.79928
G1 X91.927 Y118.806 F4200
; stop printing object OV-PAM_h_30mm_1F.stl id:0 copy 0
;LAYER_CHANGE
;Z:1
;HEIGHT:0.2
;BEFORE_LAYER_CHANGE
G92 E0.0
;1


G1 E-1 F2400
G1 Z1 F720
;AFTER_LAYER_CHANGE
;1
; printing object OV-PAM_h_30mm_1F.stl id:0 copy 0
G1 X92.071 Y118.799 F4200
G1 E1 F1500
G1 F1030.65
G1 X91.972 Y118.681 E.01028
G1 X91.958 Y118.541 E.00931
G1 X91.958 Y91.459 E1.80261
G1 X91.972 Y91.319 E.00931
G1 X92.061 Y91.211 E.00931
G1 X111.211 Y72.061 E1.80261
G1 X111.319 Y71.972 E.00931
G1 X111.459 Y71.958 E.00931
G1 X138.541 Y71.958 E1.80261
G1 X138.681 Y71.972 E.00931
G1 X138.789 Y72.061 E.00931
G1 X157.939 Y91.211 E1.80261
G1 X158.028 Y91.319 E.00931
M73 P5 R29
M73 Q5 S29
G1 X158.042 Y91.459 E.00931
G1 X158.042 Y118.541 E1.80261
G1 X158.028 Y118.681 E.00931
G1 X157.939 Y118.789 E.00931
G1 X138.789 Y137.939 E1.80261
G1 X138.681 Y138.028 E.00931
G1 X138.541 Y138.042 E.00931
G1 X111.459 Y138.042 E1.80261
G1 X111.319 Y138.028 E.00931
G1 X111.211 Y137.939 E.00931
G1 X92.113 Y118.842 E1.79764
G1 X91.92 Y118.83 F4200
; stop printing object OV-PAM_h_30mm_1F.stl id:0 copy 0
;LAYER_CHANGE
;Z:1.2
;HEIGHT:0.2
;BEFORE_LAYER_CHANGE
G92 E0.0
;1.2


G1 E-1 F2400
G1 Z1.2 F720
;AFTER_LAYER_CHANGE
;1.2
; printing object OV-PAM_h_30mm_1F.stl id:0 copy 0
G1 X92.099 Y118.813 F4200
G1 E1 F1500
;WIDTH:0.791007
G1 F1002.558
G1 X91.982 Y118.676 E.0123
G1 X91.968 Y118.533 E.00984
G1 X91.968 Y91.467 E1.85201
G1 X91.982 Y91.324 E.00984
G1 X92.073 Y91.212 E.00984
G1 X111.212 Y72.073 E1.85201
G1 X111.324 Y71.982 E.00984
G1 X111.467 Y71.968 E.00984
G1 X138.533 Y71.968 E1.85201
G1 X138.676 Y71.982 E.00984
M73 P6 R29
M73 Q6 S29
G1 X138.788 Y72.073 E.00984
G1 X157.927 Y91.212 E1.85201
G1 X158.018 Y91.324 E.00984
G1 X158.032 Y91.467 E.00984
G1 X158.032 Y118.533 E1.85201
G1 X158.018 Y118.676 E.00984
G1 X157.927 Y118.788 E.00984
G1 X138.788 Y137.927 E1.85201
G1 X138.676 Y138.018 E.00984
G1 X138.533 Y138.032 E.00984
G1 X111.467 Y138.032 E1.85201
G1 X111.324 Y138.018 E.00984
G1 X111.212 Y137.927 E.00984
G1 X92.141 Y118.856 E1.84544
G1 X91.923 Y118.85 F4200
; stop printing object OV-PAM_h_30mm_1F.stl id:0 copy 0
;LAYER_CHANGE
;Z:1.4
;HEIGHT:0.2
;BEFORE_LAYER_CHANGE
G92 E0.0
;1.4


G1 E-1 F2400
G1 Z1.4 F720
;AFTER_LAYER_CHANGE
;1.4
; printing object OV-PAM_h_30mm_1F.stl id:0 copy 0
G1 X92.268 Y118.719 F4200
G1 E1 F1500
;WIDTH:0.643113
G1 F1200
G1 X92.166 Y118.6 E.00857
G1 X92.155 Y118.485 E.00634
G1 X92.166 Y91.4 E1.48692
G1 X111.4 Y72.166 E1.49323
G1 X138.6 Y72.166 E1.49323
G1 X157.834 Y91.4 E1.49323
G1 X157.834 Y118.6 E1.49323
G1 X138.6 Y137.834 E1.49323
G1 X111.4 Y137.834 E1.49323
G1 X92.31 Y118.761 E1.48138
M73 P7 R29
M73 Q7 S29
G1 X92.121 Y118.771 F4200
; stop printing object OV-PAM_h_30mm_1F.stl id:0 copy 0
;LAYER_CHANGE
;Z:1.6
;HEIGHT:0.2
;BEFORE_LAYER_CHANGE
G92 E0.0
;1.6


G1 E-1 F2400
G1 Z1.6 F720
;AFTER_LAYER_CHANGE
;1.6
; printing object OV-PAM_h_30mm_1F.stl id:0 copy 0
G1 X92.388 Y118.676 F4200
G1 E1 F1500
;WIDTH:0.643128
G1 F1200
G1 X92.281 Y118.553 E.00895
G1 X92.27 Y118.438 E.00634
G1 X92.281 Y91.448 E1.48171
G1 X111.447 Y72.281 E1.48801
G1 X138.552 Y72.281 E1.48801
G1 X157.719 Y91.447 E1.48801
G1 X157.719 Y118.552 E1.48801
G1 X138.553 Y137.719 E1.48801
G1 X111.448 Y137.719 E1.48801
G1 X92.431 Y118.718 E1.47579
G1 X92.417 Y118.515 F4200
; stop printing object OV-PAM_h_30mm_1F.stl id:0 copy 0
;LAYER_CHANGE
;Z:1.8
;HEIGHT:0.2
;BEFORE_LAYER_CHANGE
G92 E0.0
;1.8


G1 E-1 F2400
G1 Z1.8 F720
;AFTER_LAYER_CHANGE
;1.8
; printing object OV-PAM_h_30mm_1F.stl id:0 copy 0
G1 X92.51 Y118.634 F4200
G1 E1 F1500
;WIDTH:0.648716
G1 F1200
G1 X92.4 Y118.518 E.00887
G1 X92.385 Y118.39 E.00714
G1 X92.389 Y91.507 E1.48957
G1 X92.47 Y91.406 E.00714
G1 X111.482 Y72.4 E1.48957
G1 X111.61 Y72.385 E.00714
G1 X138.493 Y72.389 E1.48957
G1 X138.594 Y72.47 E.00714
G1 X157.6 Y91.482 E1.48957
G1 X157.615 Y91.61 E.00714
G1 X157.611 Y118.493 E1.48957
G1 X157.53 Y118.594 E.00714
M73 P8 R29
M73 Q8 S29
G1 X138.518 Y137.6 E1.48957
G1 X138.39 Y137.615 E.00714
G1 X111.507 Y137.611 E1.48957
G1 X111.406 Y137.53 E.00714
G1 X92.552 Y118.676 E1.47738
G1 X92.554 Y118.48 F4200
; stop printing object OV-PAM_h_30mm_1F.stl id:0 copy 0
;LAYER_CHANGE
;Z:2
;HEIGHT:0.2
;BEFORE_LAYER_CHANGE
G92 E0.0
;2


G1 E-1 F2400
G1 Z2 F720
;AFTER_LAYER_CHANGE
;2
; printing object OV-PAM_h_30mm_1F.stl id:0 copy 0
G1 X92.656 Y118.617 F4200
G1 E1 F1500
;WIDTH:0.662859
G1 F1200
G1 X92.522 Y118.499 E.01013
G1 X92.501 Y118.342 E.00897
G1 X92.49 Y91.58 E1.51749
G1 X92.585 Y91.454 E.00897
G1 X111.501 Y72.522 E1.51749
G1 X111.658 Y72.501 E.00897
G1 X138.42 Y72.49 E1.51749
G1 X138.546 Y72.585 E.00897
G1 X157.478 Y91.501 E1.51749
G1 X157.499 Y91.658 E.00897
G1 X157.51 Y118.42 E1.51749
G1 X157.415 Y118.546 E.00897
M73 P8 R28
M73 Q8 S28
G1 X138.499 Y137.478 E1.51749
G1 X138.342 Y137.499 E.00897
G1 X111.58 Y137.51 E1.51749
G1 X111.454 Y137.415 E.00897
G1 X92.699 Y118.659 E1.50398
G1 X92.695 Y118.443 F4200
; stop printing object OV-PAM_h_30mm_1F.stl id:0 copy 0
;LAYER_CHANGE
;Z:2.2
;HEIGHT:0.2
;BEFORE_LAYER_CHANGE
G92 E0.0
;2.2


G1 E-1 F2400
G1 Z2.2 F720
;AFTER_LAYER_CHANGE
;2.2
; printing object OV-PAM_h_30mm_1F.stl id:0 copy 0
G1 X92.813 Y118.611 F4200
G1 E1 F1500
;WIDTH:0.620272
G1 F1200
G1 X92.688 Y118.511 E.00844
;WIDTH:0.685321
G1 F1167.495
G1 X92.649 Y118.488 E.00267
G1 X92.616 Y118.294 E.01155
;WIDTH:0.62027
G1 F1200
G1 X92.616 Y91.851 E1.39637
G1 X92.598 Y91.706 E.00775
;WIDTH:0.685321
G1 F1167.495
G1 X92.587 Y91.662 E.00267
G1 X92.701 Y91.502 E.01155
;WIDTH:0.620272
G1 F1200
G1 X111.399 Y72.804 E1.39638
G1 X111.489 Y72.688 E.00775
;WIDTH:0.685321
G1 F1167.495
G1 X111.512 Y72.649 E.00267
G1 X111.706 Y72.616 E.01155
;WIDTH:0.62027
G1 F1200
G1 X138.149 Y72.616 E1.39637
G1 X138.294 Y72.598 E.00775
;WIDTH:0.685321
M73 P9 R28
M73 Q9 S28
G1 F1167.495
G1 X138.338 Y72.587 E.00267
G1 X138.498 Y72.701 E.01155
;WIDTH:0.620269
G1 F1200
G1 X157.196 Y91.399 E1.39637
G1 X157.312 Y91.489 E.00775
;WIDTH:0.685321
G1 F1167.495
G1 X157.351 Y91.512 E.00267
G1 X157.384 Y91.706 E.01155
;WIDTH:0.62027
G1 F1200
G1 X157.384 Y118.149 E1.39637
G1 X157.402 Y118.294 E.00775
;WIDTH:0.685321
G1 F1167.495
G1 X157.413 Y118.338 E.00267
;WIDTH:0.685321
G1 X157.299 Y118.498 E.01155
;WIDTH:0.620272
G1 F1200
G1 X138.601 Y137.196 E1.39638
G1 X138.511 Y137.312 E.00775
;WIDTH:0.685321
G1 F1167.495
G1 X138.488 Y137.351 E.00267
G1 X138.294 Y137.384 E.01155
;WIDTH:0.62027
G1 F1200
G1 X111.851 Y137.384 E1.39637
G1 X111.706 Y137.402 E.00775
;WIDTH:0.685321
G1 F1167.495
G1 X111.662 Y137.413 E.00267
G1 X111.502 Y137.299 E.01155
;WIDTH:0.620272
G1 F1200
G1 X92.856 Y118.653 E1.39251
; stop printing object OV-PAM_h_30mm_1F.stl id:0 copy 0
;LAYER_CHANGE
;Z:2.4
;HEIGHT:0.2
;BEFORE_LAYER_CHANGE
G92 E0.0
;2.4


G1 E-1 F2400
G1 Z2.4 F720
;AFTER_LAYER_CHANGE
;2.4
; printing object OV-PAM_h_30mm_1F.stl id:0 copy 0
G1 X92.917 Y118.572 F4200
G1 E1 F1500
;WIDTH:0.620272
G1 F1200
G1 X92.882 Y118.549 E.00226
;WIDTH:0.712794
G1 F1119.615
G1 X92.78 Y118.481 E.00748
G1 X92.732 Y118.246 E.0147
;WIDTH:0.620272
G1 F1200
G1 X92.732 Y91.985 E1.38681
G1 X92.709 Y91.869 E.00622
;WIDTH:0.712794
G1 F1119.613
G1 X92.684 Y91.75 E.00748
G1 X92.816 Y91.55 E.0147
;WIDTH:0.620272
G1 F1200
G1 X111.386 Y72.98 E1.38681
G1 X111.451 Y72.882 E.00622
;WIDTH:0.712794
G1 F1119.615
G1 X111.519 Y72.78 E.00748
G1 X111.754 Y72.732 E.0147
;WIDTH:0.620272
G1 F1200
G1 X138.015 Y72.732 E1.38681
G1 X138.131 Y72.709 E.00622
;WIDTH:0.712794
G1 F1119.613
G1 X138.25 Y72.684 E.00748
G1 X138.45 Y72.816 E.0147
;WIDTH:0.620272
G1 F1200
G1 X157.02 Y91.386 E1.38681
G1 X157.118 Y91.451 E.00622
;WIDTH:0.712794
G1 F1119.615
G1 X157.22 Y91.519 E.00748
G1 X157.268 Y91.754 E.0147
;WIDTH:0.620272
G1 F1200
G1 X157.268 Y118.015 E1.38681
G1 X157.291 Y118.131 E.00622
;WIDTH:0.712794
G1 F1119.613
G1 X157.316 Y118.25 E.00748
;WIDTH:0.716041
G1 F1114.214
G1 X157.184 Y118.45 E.01477
;WIDTH:0.620272
G1 F1200
G1 X138.614 Y137.02 E1.38681
G1 X138.549 Y137.118 E.00622
;WIDTH:0.712794
G1 F1119.615
G1 X138.481 Y137.22 E.00748
G1 X138.246 Y137.268 E.0147
