; generated by PrusaSlicer 2.5.2+win64 on 2023-10-26 at 05:58:23 UTC


;
;
; 

; external perimeters extrusion width = 0.50mm
; perimeters extrusion width = 0.50mm
; infill extrusion width = 0.50mm
; solid infill extrusion width = 0.50mm
; top infill extrusion width = 0.50mm
; first layer extrusion width = 0.50mm

M73 P0 R18
M73 Q0 S18
M201 X1000 Y1000 Z200 E5000 ; sets maximum accelerations, mm/sec^2
M203 X200 Y200 Z12 E120 ; sets maximum feedrates, mm / sec
M204 P1250 R1250 T1250 ; sets acceleration (P, T) and retract acceleration (R), mm/sec^2
M205 X8.00 Y8.00 Z0.40 E4.50 ; sets the jerk limits, mm/sec
M205 S0 T0 ; sets the minimum extruding and travel feed rate, mm/sec
M107
;TYPE:Custom
M862.3 P "MK3S" ; printer model check
M862.1 P0.4 ; nozzle diameter check
M115 U3.12.2 ; tell printer latest fw version
G90 ; use absolute coordinates
M83 ; extruder relative mode
M104 S240 ; set extruder temp
M140 S60 ; set bed temp
M190 S60 ; wait for bed temp
M109 S240 ; wait for extruder temp
G28 W ; home all without mesh bed level
G80 ; mesh bed leveling

G1 Z0.2 F720
G1 Y-3 F1000 ; go outside print area
G92 E0
G1 X60 E9 F1000 ; intro line
G1 X100 E12.5 F1000 ; intro line

G92 E0
M221 S95

; Don't change E values below. Excessive value can damage the printer.
M907 E430 ; set extruder motor current
G21 ; set units to millimeters
G90 ; use absolute coordinates
M83 ; use relative distances for extrusion
M900 K0 ; Filament gcode
M107
;LAYER_CHANGE
;Z:0.2
;HEIGHT:0.2
;BEFORE_LAYER_CHANGE
G92 E0.0
;0.2


G1 E-1 F2400
G1 Z.2 F720
;AFTER_LAYER_CHANGE
;0.2
G1 X89.164 Y88.724 F4200
G1 E1 F1500
M204 S300
;TYPE:Skirt/Brim
;WIDTH:0.5
G1 F1200
G1 X108.724 Y69.164 E1.1565
G1 X110.136 Y68.309 E.06902
G1 X111.169 Y68.151 E.04365
G1 X138.831 Y68.151 E1.1565
G1 X140.435 Y68.545 E.06902
G1 X141.276 Y69.164 E.04365
G1 X160.836 Y88.724 E1.1565
G1 X161.691 Y90.136 E.06902
M73 P1 R18
M73 Q1 S18
G1 X161.849 Y91.169 E.04365
G1 X161.849 Y118.831 E1.1565
G1 X161.455 Y120.435 E.06902
G1 X160.836 Y121.276 E.04365
G1 X141.276 Y140.836 E1.1565
G1 X139.864 Y141.691 E.06902
G1 X138.831 Y141.849 E.04365
G1 X111.169 Y141.849 E1.1565
G1 X109.565 Y141.455 E.06902
G1 X108.724 Y140.836 E.04365
G1 X89.164 Y121.276 E1.1565
G1 X88.309 Y119.864 E.06902
G1 X88.151 Y118.831 E.04365
G1 X88.151 Y91.169 E1.1565
G1 X88.545 Y89.565 E.06902
G1 X89.128 Y88.772 E.04114
; printing object OV-PAM_h_12mm_1F.stl id:0 copy 0
G1 E-1 F2400
G1 X91.972 Y91.319 F4200
G1 E1 F1500
;TYPE:External perimeter
;WIDTH:0.770616
G1 F1030.65
G1 X92.061 Y91.211 E.00931
G1 X111.211 Y72.061 E1.80261
G1 X111.319 Y71.972 E.00931
G1 X111.459 Y71.958 E.00931
G1 X138.541 Y71.958 E1.80261
G1 X138.681 Y71.972 E.00931
M73 P2 R18
M73 Q2 S18
G1 X138.789 Y72.061 E.00931
G1 X157.939 Y91.211 E1.80261
G1 X158.028 Y91.319 E.00931
G1 X158.042 Y91.459 E.00931
G1 X158.042 Y118.541 E1.80261
G1 X158.028 Y118.681 E.00931
G1 X157.939 Y118.789 E.00931
G1 X138.789 Y137.939 E1.80261
G1 X138.681 Y138.028 E.00931
G1 X138.541 Y138.042 E.00931
G1 X111.459 Y138.042 E1.80261
G1 X111.319 Y138.028 E.00931
G1 X111.211 Y137.939 E.00931
G1 X92.061 Y118.789 E1.80261
G1 X91.972 Y118.681 E.00931
G1 X91.958 Y118.541 E.00931
G1 X91.966 Y91.379 E1.8079
G1 X91.894 Y91.203 F4200
; stop printing object OV-PAM_h_12mm_1F.stl id:0 copy 0
;LAYER_CHANGE
;Z:0.4
;HEIGHT:0.2
;BEFORE_LAYER_CHANGE
G92 E0.0
;0.4


G1 E-1 F2400
G1 Z.4 F720
;AFTER_LAYER_CHANGE
;0.4
G1 X88.32 Y90.482 F4200
G1 E1 F1500
;TYPE:Skirt/Brim
;WIDTH:0.5
G1 F1200
G1 X88.545 Y89.565 E.03948
G1 X89.164 Y88.724 E.04365
G1 X108.724 Y69.164 E1.1565
G1 X110.136 Y68.309 E.06902
M73 P3 R18
M73 Q3 S18
G1 X111.169 Y68.151 E.04365
G1 X138.831 Y68.151 E1.1565
G1 X140.435 Y68.545 E.06902
G1 X141.276 Y69.164 E.04365
G1 X160.836 Y88.724 E1.1565
G1 X161.691 Y90.136 E.06902
G1 X161.849 Y91.169 E.04365
G1 X161.849 Y118.831 E1.1565
G1 X161.455 Y120.435 E.06902
G1 X160.836 Y121.276 E.04365
G1 X141.276 Y140.836 E1.1565
G1 X139.864 Y141.691 E.06902
G1 X138.831 Y141.849 E.04365
G1 X111.169 Y141.849 E1.1565
G1 X109.565 Y141.455 E.06902
G1 X108.724 Y140.836 E.04365
G1 X89.164 Y121.276 E1.1565
G1 X88.309 Y119.864 E.06902
G1 X88.151 Y118.831 E.04365
G1 X88.151 Y91.169 E1.1565
G1 X88.305 Y90.541 E.02703
; printing object OV-PAM_h_12mm_1F.stl id:0 copy 0
M73 P4 R18
M73 Q4 S18
G1 E-1 F2400
G1 X91.806 Y91.282 F4200
G1 X91.809 Y91.252
G1 X91.843 Y91.211
G1 X91.972 Y91.319
G1 E1 F1500
;TYPE:External perimeter
;WIDTH:0.770616
G1 F1030.65
G1 X92.061 Y91.211 E.00931
G1 X111.211 Y72.061 E1.80261
G1 X111.319 Y71.972 E.00931
G1 X111.459 Y71.958 E.00931
G1 X138.541 Y71.958 E1.80261
G1 X138.681 Y71.972 E.00931
G1 X138.789 Y72.061 E.00931
G1 X157.939 Y91.211 E1.80261
G1 X158.028 Y91.319 E.00931
G1 X158.042 Y91.459 E.00931
G1 X158.042 Y118.541 E1.80261
G1 X158.028 Y118.681 E.00931
G1 X157.939 Y118.789 E.00931
G1 X138.789 Y137.939 E1.80261
G1 X138.681 Y138.028 E.00931
G1 X138.541 Y138.042 E.00931
G1 X111.459 Y138.042 E1.80261
G1 X111.319 Y138.028 E.00931
G1 X111.211 Y137.939 E.00931
G1 X92.061 Y118.789 E1.80261
G1 X91.972 Y118.681 E.00931
M73 P5 R17
M73 Q5 S17
G1 X91.958 Y118.541 E.00931
G1 X91.966 Y91.379 E1.8079
G1 X91.894 Y91.203 F4200
; stop printing object OV-PAM_h_12mm_1F.stl id:0 copy 0
;LAYER_CHANGE
;Z:0.6
;HEIGHT:0.2
;BEFORE_LAYER_CHANGE
G92 E0.0
;0.6


G1 E-1 F2400
G1 Z.6 F720
;AFTER_LAYER_CHANGE
;0.6
G1 X88.32 Y90.482 F4200
G1 E1 F1500
;TYPE:Skirt/Brim
;WIDTH:0.5
G1 F1200
G1 X88.545 Y89.565 E.03948
G1 X89.164 Y88.724 E.04365
G1 X108.724 Y69.164 E1.1565
G1 X110.136 Y68.309 E.06902
G1 X111.169 Y68.151 E.04365
G1 X138.831 Y68.151 E1.1565
G1 X140.435 Y68.545 E.06902
G1 X141.276 Y69.164 E.04365
G1 X160.836 Y88.724 E1.1565
G1 X161.691 Y90.136 E.06902
G1 X161.849 Y91.169 E.04365
G1 X161.849 Y118.831 E1.1565
G1 X161.455 Y120.435 E.06902
G1 X160.836 Y121.276 E.04365
G1 X141.276 Y140.836 E1.1565
G1 X139.864 Y141.691 E.06902
G1 X138.831 Y141.849 E.04365
G1 X111.169 Y141.849 E1.1565
G1 X109.565 Y141.455 E.06902
G1 X108.724 Y140.836 E.04365
G1 X89.164 Y121.276 E1.1565
G1 X88.309 Y119.864 E.06902
M73 P6 R17
M73 Q6 S17
G1 X88.151 Y118.831 E.04365
G1 X88.151 Y91.169 E1.1565
G1 X88.305 Y90.541 E.02703
; printing object OV-PAM_h_12mm_1F.stl id:0 copy 0
G1 E-1 F2400
G1 X91.806 Y91.282 F4200
G1 X91.809 Y91.252
G1 X91.843 Y91.211
G1 X91.972 Y91.319
G1 E1 F1500
;TYPE:External perimeter
;WIDTH:0.770616
G1 F1030.65
G1 X92.061 Y91.211 E.00931
G1 X111.211 Y72.061 E1.80261
G1 X111.319 Y71.972 E.00931
G1 X111.459 Y71.958 E.00931
G1 X138.541 Y71.958 E1.80261
G1 X138.681 Y71.972 E.00931
G1 X138.789 Y72.061 E.00931
G1 X157.939 Y91.211 E1.80261
G1 X158.028 Y91.319 E.00931
G1 X158.042 Y91.459 E.00931
G1 X158.042 Y118.541 E1.80261
G1 X158.028 Y118.681 E.00931
G1 X157.939 Y118.789 E.00931
G1 X138.789 Y137.939 E1.80261
G1 X138.681 Y138.028 E.00931
G1 X138.541 Y138.042 E.00931
G1 X111.459 Y138.042 E1.80261
G1 X111.319 Y138.028 E.00931
M73 P7 R17
M73 Q7 S17
G1 X111.211 Y137.939 E.00931
G1 X92.061 Y118.789 E1.80261
G1 X91.972 Y118.681 E.00931
G1 X91.958 Y118.541 E.00931
G1 X91.966 Y91.379 E1.8079
G1 X91.894 Y91.203 F4200
; stop printing object OV-PAM_h_12mm_1F.stl id:0 copy 0
;LAYER_CHANGE
;Z:0.8
;HEIGHT:0.2
;BEFORE_LAYER_CHANGE
G92 E0.0
;0.8


G1 E-1 F2400
G1 Z.8 F720
;AFTER_LAYER_CHANGE
;0.8
; printing object OV-PAM_h_12mm_1F.stl id:0 copy 0
G1 X91.964 Y91.397 F4200
G1 E1 F1500
G1 F1030.65
G1 X91.972 Y91.319 E.00516
G1 X92.061 Y91.211 E.00931
G1 X111.211 Y72.061 E1.80261
G1 X111.319 Y71.972 E.00931
G1 X111.459 Y71.958 E.00931
G1 X138.541 Y71.958 E1.80261
G1 X138.681 Y71.972 E.00931
G1 X138.789 Y72.061 E.00931
G1 X157.939 Y91.211 E1.80261
G1 X158.028 Y91.319 E.00931
G1 X158.042 Y91.459 E.00931
G1 X158.042 Y118.541 E1.80261
G1 X158.028 Y118.681 E.00931
G1 X157.939 Y118.789 E.00931
G1 X138.789 Y137.939 E1.80261
G1 X138.681 Y138.028 E.00931
M73 P8 R17
M73 Q8 S17
G1 X138.541 Y138.042 E.00931
G1 X111.459 Y138.042 E1.80261
G1 X111.319 Y138.028 E.00931
G1 X111.211 Y137.939 E.00931
G1 X92.061 Y118.789 E1.80261
G1 X91.972 Y118.681 E.00931
G1 X91.958 Y118.541 E.00931
G1 X91.958 Y91.456 E1.80276
G1 X91.9 Y91.353 F4200
; stop printing object OV-PAM_h_12mm_1F.stl id:0 copy 0
;LAYER_CHANGE
;Z:1
;HEIGHT:0.2
;BEFORE_LAYER_CHANGE
G92 E0.0
;1


G1 E-1 F2400
G1 Z1 F720
;AFTER_LAYER_CHANGE
;1
; printing object OV-PAM_h_12mm_1F.stl id:0 copy 0
G1 X91.958 Y91.491 F4200
G1 E1 F1500
G1 F1030.65
G1 X91.972 Y91.319 E.01148
G1 X92.061 Y91.211 E.00931
G1 X111.211 Y72.061 E1.80261
G1 X111.319 Y71.972 E.00931
G1 X111.459 Y71.958 E.00931
G1 X138.541 Y71.958 E1.80261
G1 X138.681 Y71.972 E.00931
G1 X138.789 Y72.061 E.00931
G1 X157.939 Y91.211 E1.80261
G1 X158.028 Y91.319 E.00931
G1 X158.042 Y91.459 E.00931
G1 X158.042 Y118.541 E1.80261
G1 X158.028 Y118.681 E.00931
M73 P9 R17
M73 Q9 S17
G1 X157.939 Y118.789 E.00931
G1 X138.789 Y137.939 E1.80261
G1 X138.681 Y138.028 E.00931
G1 X138.541 Y138.042 E.00931
G1 X111.459 Y138.042 E1.80261
G1 X111.319 Y138.028 E.00931
G1 X111.211 Y137.939 E.00931
G1 X92.061 Y118.789 E1.80261
G1 X91.972 Y118.681 E.00931
G1 X91.958 Y118.541 E.00931
G1 X91.958 Y91.551 E1.79643
G1 X91.814 Y91.397 F4200
; stop printing object OV-PAM_h_12mm_1F.stl id:0 copy 0
;LAYER_CHANGE
;Z:1.2
;HEIGHT:0.2
;BEFORE_LAYER_CHANGE
G92 E0.0
;1.2


G1 E-1 F2400
G1 Z1.2 F720
;AFTER_LAYER_CHANGE
;1.2
; printing object OV-PAM_h_12mm_1F.stl id:0 copy 0
G1 X91.968 Y91.603 F4200
G1 E1 F1500
;WIDTH:0.791007
G1 F1002.558
G1 X91.982 Y91.324 E.01913
G1 X92.073 Y91.212 E.00984
G1 X111.212 Y72.073 E1.85201
G1 X111.324 Y71.982 E.00984
G1 X111.467 Y71.968 E.00984
G1 X138.533 Y71.968 E1.85201
G1 X138.676 Y71.982 E.00984
M73 Q10 S17
G1 X138.788 Y72.073 E.00984
M73 P10 R17
G1 X157.927 Y91.212 E1.85201
G1 X158.018 Y91.324 E.00984
G1 X158.032 Y91.467 E.00984
G1 X158.032 Y118.533 E1.85201
G1 X158.018 Y118.676 E.00984
M73 P10 R16
M73 Q10 S16
G1 X157.927 Y118.788 E.00984
G1 X138.788 Y137.927 E1.85201
G1 X138.676 Y138.018 E.00984
G1 X138.533 Y138.032 E.00984
G1 X111.467 Y138.032 E1.85201
G1 X111.324 Y138.018 E.00984
G1 X111.212 Y137.927 E.00984
G1 X92.073 Y118.788 E1.85201
G1 X91.982 Y118.676 E.00984
G1 X91.968 Y118.533 E.00984
G1 X91.968 Y91.663 E1.83858
G1 X91.731 Y91.455 F4200
; stop printing object OV-PAM_h_12mm_1F.stl id:0 copy 0
;LAYER_CHANGE
;Z:1.4
;HEIGHT:0.2
;BEFORE_LAYER_CHANGE
G92 E0.0
;1.4


G1 E-1 F2400
G1 Z1.4 F720
;AFTER_LAYER_CHANGE
;1.4
; printing object OV-PAM_h_12mm_1F.stl id:0 copy 0
G1 X92.155 Y91.741 F4200
G1 E1 F1500
;WIDTH:0.643391
G1 F1200
G1 X92.166 Y91.4 E.01871
G1 X92.239 Y91.31 E.00638
G1 X111.399 Y72.166 E1.48758
G1 X138.6 Y72.166 E1.49393
M73 P11 R16
M73 Q11 S16
G1 X157.834 Y91.399 E1.49393
G1 X157.834 Y118.6 E1.49393
G1 X138.601 Y137.834 E1.49393
G1 X111.4 Y137.834 E1.49393
G1 X92.166 Y118.601 E1.49393
G1 X92.155 Y91.801 E1.47193
G1 X92.429 Y91.539 F4200
; stop printing object OV-PAM_h_12mm_1F.stl id:0 copy 0
;LAYER_CHANGE
;Z:1.6
;HEIGHT:0.2
;BEFORE_LAYER_CHANGE
G92 E0.0
;1.6


G1 E-1 F2400
G1 Z1.6 F720
;AFTER_LAYER_CHANGE
;1.6
; printing object OV-PAM_h_12mm_1F.stl id:0 copy 0
G1 X92.27 Y91.937 F4200
G1 E1 F1500
;WIDTH:0.620272
G1 F1200
G1 X92.255 Y91.657 E.01479
;WIDTH:0.682212
G1 F1173.173
G1 X92.231 Y91.538 E.00708
G1 X92.355 Y91.358 E.01275
;WIDTH:0.620272
G1 F1200
G1 X111.225 Y72.488 E1.40923
G1 X111.28 Y72.41 E.00506
;WIDTH:0.68221
G1 F1173.177
G1 X111.348 Y72.31 E.00708
G1 X111.562 Y72.27 E.01275
;WIDTH:0.620272
G1 F1200
G1 X138.249 Y72.27 E1.40924
G1 X138.343 Y72.255 E.00506
;WIDTH:0.682212
M73 P12 R16
M73 Q12 S16
G1 F1173.173
G1 X138.462 Y72.231 E.00708
G1 X138.642 Y72.355 E.01275
;WIDTH:0.620272
G1 F1200
G1 X157.512 Y91.225 E1.40923
G1 X157.59 Y91.28 E.00506
;WIDTH:0.68221
G1 F1173.177
G1 X157.69 Y91.348 E.00708
G1 X157.73 Y91.562 E.01275
;WIDTH:0.620272
G1 F1200
G1 X157.73 Y118.249 E1.40924
G1 X157.745 Y118.343 E.00506
;WIDTH:0.682212
G1 F1173.173
G1 X157.769 Y118.462 E.00708
;WIDTH:0.699938
G1 F1141.521
G1 X157.645 Y118.642 E.01311
;WIDTH:0.620272
G1 F1200
G1 X138.775 Y137.512 E1.40923
G1 X138.72 Y137.59 E.00506
;WIDTH:0.68221
G1 F1173.177
G1 X138.652 Y137.69 E.00708
G1 X138.438 Y137.73 E.01275
;WIDTH:0.620272
G1 F1200
G1 X111.751 Y137.73 E1.40924
G1 X111.657 Y137.745 E.00506
;WIDTH:0.682212
G1 F1173.173
G1 X111.538 Y137.769 E.00708
G1 X111.358 Y137.645 E.01275
;WIDTH:0.620272
G1 F1200
G1 X92.488 Y118.775 E1.40923
G1 X92.41 Y118.72 E.00506
;WIDTH:0.68221
G1 F1173.177
G1 X92.31 Y118.652 E.00708
G1 X92.27 Y118.438 E.01275
;WIDTH:0.620272
G1 F1200
G1 X92.27 Y91.997 E1.39629
; stop printing object OV-PAM_h_12mm_1F.stl id:0 copy 0
;LAYER_CHANGE
;Z:1.8
;HEIGHT:0.2
;BEFORE_LAYER_CHANGE
G92 E0.0
;1.8


G1 E-1 F2400
G1 Z1.8 F720
;AFTER_LAYER_CHANGE
;1.8
; printing object OV-PAM_h_12mm_1F.stl id:0 copy 0
G1 X92.214 Y91.997 F4200
G1 X93.715 Y89.918
G1 X111.801 Y72.214
G1 X138.75 Y72.384
G1 X157.786 Y91.801
G1 X157.786 Y117.897
G1 X157.976 Y117.915
M73 P13 R16
M73 Q13 S16
G1 E1 F1500
;WIDTH:0.719327
G1 F1108.8
G1 X157.53 Y118.594 E.05024
;WIDTH:0.62027
G1 F1200
G1 X138.93 Y137.194 E1.3891
G1 X138.895 Y137.258 E.0038
;WIDTH:0.702799
G1 F1136.573
G1 X138.827 Y137.385 E.0087
;WIDTH:0.785327
G1 F1010.228
G1 X138.758 Y137.511 E.00978
G1 X138.874 Y137.58 E.00912
;WIDTH:0.689968
G1 F1159.112
G1 X138.913 Y137.602 E.00265
G1 X139.334 Y137.607 E.02492
G1 X139.185 Y137.45 F4200
;WIDTH:0.719328
G1 F1108.798
G1 X138.39 Y137.615 E.05024
;WIDTH:0.620272
G1 F1200
G1 X112.085 Y137.615 E1.38911
G1 X112.016 Y137.635 E.0038
;WIDTH:0.7028
G1 F1136.572
G1 X111.878 Y137.676 E.0087
;WIDTH:0.785327
G1 F1010.228
G1 X111.74 Y137.718 E.00978
G1 X111.773 Y137.848 E.00912
;WIDTH:0.689964
G1 F1159.117
G1 X111.784 Y137.891 E.00265
G1 X112.079 Y138.192 E.02492
G1 X112.085 Y137.976 F4200
;WIDTH:0.719327
G1 F1108.8
G1 X111.406 Y137.53 E.05024
;WIDTH:0.62027
G1 F1200
G1 X92.806 Y118.93 E1.3891
G1 X92.742 Y118.895 E.0038
;WIDTH:0.702799
G1 F1136.573
G1 X92.615 Y118.827 E.0087
;WIDTH:0.785327
G1 F1010.228
G1 X92.489 Y118.758 E.00978
G1 X92.42 Y118.874 E.00912
;WIDTH:0.689968
G1 F1159.112
G1 X92.398 Y118.913 E.00265
G1 X92.393 Y119.334 E.02492
G1 X92.55 Y119.185 F4200
;WIDTH:0.719328
G1 F1108.798
G1 X92.385 Y118.39 E.05024
;WIDTH:0.620272
G1 F1200
G1 X92.385 Y92.085 E1.38911
G1 X92.365 Y92.016 E.0038
;WIDTH:0.7028
G1 F1136.572
G1 X92.324 Y91.878 E.0087
;WIDTH:0.785327
G1 F1010.228
G1 X92.282 Y91.74 E.00978
G1 X92.152 Y91.773 E.00912
;WIDTH:0.689964
G1 F1159.117
G1 X92.109 Y91.784 E.00265
G1 X91.808 Y92.079 E.02492
G1 X92.024 Y92.085 F4200
;WIDTH:0.719327
G1 F1108.8
G1 X92.247 Y91.745 E.02512
;WIDTH:0.661534
G1 F1200
G1 X92.47 Y91.406 E.02297
G1 X111.07 Y72.806 E1.48838
G1 X111.105 Y72.742 E.00408
;WIDTH:0.744063
G1 F1069.683
G1 X111.173 Y72.615 E.00924
;WIDTH:0.826592
G1 F957.034
G1 X111.242 Y72.489 E.01033
G1 X111.203 Y72.466 E.00321
;WIDTH:0.735509
G1 F1082.894
G1 X111.126 Y72.42 E.00567
;WIDTH:0.644425
G1 F1200
G1 X111.087 Y72.398 E.00246
G1 X110.666 Y72.393 E.02317
G1 X110.815 Y72.55 F4200
;WIDTH:0.719328
G1 F1108.798
G1 X111.213 Y72.468 E.02512
;WIDTH:0.661536
G1 F1200
G1 X111.61 Y72.385 E.02297
G1 X137.915 Y72.385 E1.48839
G1 X137.984 Y72.365 E.00408
;WIDTH:0.744063
G1 F1069.682
G1 X138.122 Y72.324 E.00924
;WIDTH:0.826591
G1 F957.034
G1 X138.26 Y72.282 E.01033
G1 X138.249 Y72.239 E.00321
;WIDTH:0.735507
G1 F1082.897
G1 X138.227 Y72.152 E.00567
;WIDTH:0.644423
G1 F1200
G1 X138.216 Y72.109 E.00246
G1 X137.921 Y71.808 E.02317
G1 X137.915 Y72.024 F4200
;WIDTH:0.719327
G1 F1108.8
G1 X138.255 Y72.247 E.02512
;WIDTH:0.661534
G1 F1200
G1 X138.594 Y72.47 E.02297
G1 X157.194 Y91.07 E1.48838
G1 X157.258 Y91.105 E.00408
;WIDTH:0.744063
G1 F1069.683
G1 X157.385 Y91.173 E.00924
;WIDTH:0.826592
G1 F957.034
G1 X157.511 Y91.242 E.01033
G1 X157.534 Y91.203 E.00321
;WIDTH:0.735509
G1 F1082.894
G1 X157.58 Y91.126 E.00567
;WIDTH:0.644425
G1 F1200
G1 X157.602 Y91.087 E.00246
G1 X157.607 Y90.666 E.02317
G1 X157.45 Y90.815 F4200
;WIDTH:0.719328
G1 F1108.798
G1 X157.532 Y91.213 E.02512
;WIDTH:0.661536
G1 F1200
G1 X157.615 Y91.61 E.02297
G1 X157.615 Y117.915 E1.48839
G1 X157.635 Y117.984 E.00408
;WIDTH:0.744063
M73 P14 R16
M73 Q14 S16
G1 F1069.682
G1 X157.676 Y118.122 E.00924
;WIDTH:0.826591
G1 F957.034
