; generated by PrusaSlicer 2.5.2+win64 on 2023-10-26 at 06:00:09 UTC


;
;
; 

; external perimeters extrusion width = 0.50mm
; perimeters extrusion width = 0.50mm
; infill extrusion width = 0.50mm
; solid infill extrusion width = 0.50mm
; top infill extrusion width = 0.50mm
; first layer extrusion width = 0.50mm

M73 P0 R42
M73 Q0 S42
M201 X1000 Y1000 Z200 E5000 ; sets maximum accelerations, mm/sec^2
M203 X200 Y200 Z12 E120 ; sets maximum feedrates, mm / sec
M204 P1250 R1250 T1250 ; sets acceleration (P, T) and retract acceleration (R), mm/sec^2
M205 X8.00 Y8.00 Z0.40 E4.50 ; sets the jerk limits, mm/sec
M205 S0 T0 ; sets the minimum extruding and travel feed rate, mm/sec
M107
;TYPE:Custom
M862.3 P "MK3S" ; printer model check
M862.1 P0.4 ; nozzle diameter check
M115 U3.12.2 ; tell printer latest fw version
G90 ; use absolute coordinates
M83 ; extruder relative mode
M104 S240 ; set extruder temp
M140 S60 ; set bed temp
M190 S60 ; wait for bed temp
M109 S240 ; wait for extruder temp
G28 W ; home all without mesh bed level
G80 ; mesh bed leveling

G1 Z0.2 F720
G1 Y-3 F1000 ; go outside print area
G92 E0
G1 X60 E9 F1000 ; intro line
G1 X100 E12.5 F1000 ; intro line

G92 E0
M221 S95

; Don't change E values below. Excessive value can damage the printer.
M907 E430 ; set extruder motor current
G21 ; set units to millimeters
G90 ; use absolute coordinates
M83 ; use relative distances for extrusion
M900 K0 ; Filament gcode
M107
;LAYER_CHANGE
;Z:0.2
;HEIGHT:0.2
;BEFORE_LAYER_CHANGE
G92 E0.0
;0.2


G1 E-1 F2400
G1 Z.2 F720
;AFTER_LAYER_CHANGE
;0.2
G1 X89.164 Y88.724 F4200
G1 E1 F1500
M204 S300
;TYPE:Skirt/Brim
;WIDTH:0.5
G1 F1200
G1 X108.724 Y69.164 E1.1565
G1 X110.136 Y68.309 E.06902
G1 X111.169 Y68.151 E.04365
G1 X138.831 Y68.151 E1.1565
G1 X140.435 Y68.545 E.06902
G1 X141.276 Y69.164 E.04365
G1 X160.836 Y88.724 E1.1565
G1 X161.691 Y90.136 E.06902
G1 X161.849 Y91.169 E.04365
G1 X161.849 Y118.831 E1.1565
G1 X161.455 Y120.435 E.06902
G1 X160.836 Y121.276 E.04365
G1 X141.276 Y140.836 E1.1565
G1 X139.864 Y141.691 E.06902
G1 X138.831 Y141.849 E.04365
G1 X111.169 Y141.849 E1.1565
G1 X109.565 Y141.455 E.06902
G1 X108.724 Y140.836 E.04365
G1 X89.164 Y121.276 E1.1565
G1 X88.309 Y119.864 E.06902
G1 X88.151 Y118.831 E.04365
G1 X88.151 Y91.169 E1.1565
G1 X88.545 Y89.565 E.06902
G1 X89.128 Y88.772 E.04114
; printing object OV-PAM_h_48mm_1F.stl id:0 copy 0
G1 E-1 F2400
G1 X92.052 Y118.779 F4200
G1 E1 F1500
;TYPE:External perimeter
;WIDTH:0.770616
G1 F1030.65
G1 X91.972 Y118.681 E.00844
G1 X91.958 Y118.541 E.00931
G1 X91.958 Y91.459 E1.80261
G1 X91.972 Y91.319 E.00931
G1 X92.061 Y91.211 E.00931
G1 X111.211 Y72.061 E1.80261
G1 X111.319 Y71.972 E.00931
G1 X111.459 Y71.958 E.00931
G1 X138.541 Y71.958 E1.80261
G1 X138.681 Y71.972 E.00931
G1 X138.789 Y72.061 E.00931
G1 X157.939 Y91.211 E1.80261
G1 X158.028 Y91.319 E.00931
M73 P1 R42
M73 Q1 S42
G1 X158.042 Y91.459 E.00931
G1 X158.042 Y118.541 E1.80261
G1 X158.028 Y118.681 E.00931
G1 X157.939 Y118.789 E.00931
G1 X138.789 Y137.939 E1.80261
G1 X138.681 Y138.028 E.00931
G1 X138.541 Y138.042 E.00931
G1 X111.459 Y138.042 E1.80261
G1 X111.319 Y138.028 E.00931
G1 X111.211 Y137.939 E.00931
G1 X92.094 Y118.822 E1.79949
G1 X91.928 Y118.803 F4200
; stop printing object OV-PAM_h_48mm_1F.stl id:0 copy 0
;LAYER_CHANGE
;Z:0.4
;HEIGHT:0.2
;BEFORE_LAYER_CHANGE
G92 E0.0
;0.4


G1 E-1 F2400
G1 Z.4 F720
;AFTER_LAYER_CHANGE
;0.4
G1 X92.18 Y118.736 F4200
G1 X92.177 Y118.733
G1 X88.862 Y120.778
G1 E1 F1500
;TYPE:Skirt/Brim
;WIDTH:0.5
G1 F1200
G1 X88.309 Y119.864 E.04469
G1 X88.151 Y118.831 E.04365
G1 X88.151 Y91.169 E1.1565
G1 X88.545 Y89.565 E.06902
G1 X89.164 Y88.724 E.04365
G1 X108.724 Y69.164 E1.1565
G1 X110.136 Y68.309 E.06902
G1 X111.169 Y68.151 E.04365
G1 X138.831 Y68.151 E1.1565
G1 X140.435 Y68.545 E.06902
G1 X141.276 Y69.164 E.04365
G1 X160.836 Y88.724 E1.1565
G1 X161.691 Y90.136 E.06902
G1 X161.849 Y91.169 E.04365
G1 X161.849 Y118.831 E1.1565
G1 X161.455 Y120.435 E.06902
G1 X160.836 Y121.276 E.04365
G1 X141.276 Y140.836 E1.1565
G1 X139.864 Y141.691 E.06902
G1 X138.831 Y141.849 E.04365
G1 X111.169 Y141.849 E1.1565
G1 X109.565 Y141.455 E.06902
G1 X108.724 Y140.836 E.04365
G1 X89.164 Y121.276 E1.1565
G1 X88.893 Y120.829 E.02182
; printing object OV-PAM_h_48mm_1F.stl id:0 copy 0
G1 E-1 F2400
G1 X91.902 Y118.859 F4200
G1 X91.928 Y118.89
G1 X92.055 Y118.783
G1 E1 F1500
;TYPE:External perimeter
;WIDTH:0.770616
G1 F1030.65
G1 X91.972 Y118.681 E.00877
G1 X91.958 Y118.541 E.00931
G1 X91.958 Y91.459 E1.80261
G1 X91.972 Y91.319 E.00931
M73 P1 R41
M73 Q1 S41
G1 X92.061 Y91.211 E.00931
G1 X111.211 Y72.061 E1.80261
G1 X111.319 Y71.972 E.00931
G1 X111.459 Y71.958 E.00931
G1 X138.541 Y71.958 E1.80261
G1 X138.681 Y71.972 E.00931
G1 X138.789 Y72.061 E.00931
G1 X157.939 Y91.211 E1.80261
G1 X158.028 Y91.319 E.00931
M73 P2 R41
M73 Q2 S41
G1 X158.042 Y91.459 E.00931
G1 X158.042 Y118.541 E1.80261
G1 X158.028 Y118.681 E.00931
G1 X157.939 Y118.789 E.00931
G1 X138.789 Y137.939 E1.80261
G1 X138.681 Y138.028 E.00931
G1 X138.541 Y138.042 E.00931
G1 X111.459 Y138.042 E1.80261
G1 X111.319 Y138.028 E.00931
G1 X111.211 Y137.939 E.00931
G1 X92.097 Y118.826 E1.79916
G1 X91.926 Y118.808 F4200
; stop printing object OV-PAM_h_48mm_1F.stl id:0 copy 0
;LAYER_CHANGE
;Z:0.6
;HEIGHT:0.2
;BEFORE_LAYER_CHANGE
G92 E0.0
;0.6


G1 E-1 F2400
G1 Z.6 F720
;AFTER_LAYER_CHANGE
;0.6
G1 X92.183 Y118.74 F4200
G1 X92.18 Y118.736
G1 X88.865 Y120.782
G1 E1 F1500
;TYPE:Skirt/Brim
;WIDTH:0.5
G1 F1200
G1 X88.309 Y119.864 E.04489
G1 X88.151 Y118.831 E.04365
G1 X88.151 Y91.169 E1.1565
G1 X88.545 Y89.565 E.06902
G1 X89.164 Y88.724 E.04365
G1 X108.724 Y69.164 E1.1565
G1 X110.136 Y68.309 E.06902
G1 X111.169 Y68.151 E.04365
G1 X138.831 Y68.151 E1.1565
G1 X140.435 Y68.545 E.06902
G1 X141.276 Y69.164 E.04365
G1 X160.836 Y88.724 E1.1565
G1 X161.691 Y90.136 E.06902
G1 X161.849 Y91.169 E.04365
G1 X161.849 Y118.831 E1.1565
G1 X161.455 Y120.435 E.06902
G1 X160.836 Y121.276 E.04365
G1 X141.276 Y140.836 E1.1565
G1 X139.864 Y141.691 E.06902
G1 X138.831 Y141.849 E.04365
G1 X111.169 Y141.849 E1.1565
G1 X109.565 Y141.455 E.06902
G1 X108.724 Y140.836 E.04365
G1 X89.164 Y121.276 E1.1565
G1 X88.896 Y120.833 E.02162
; printing object OV-PAM_h_48mm_1F.stl id:0 copy 0
G1 E-1 F2400
G1 X91.905 Y118.863 F4200
G1 X91.932 Y118.894
G1 X92.059 Y118.787
G1 E1 F1500
;TYPE:External perimeter
;WIDTH:0.770616
G1 F1030.65
G1 X91.972 Y118.681 E.00915
G1 X91.958 Y118.541 E.00931
G1 X91.958 Y91.459 E1.80261
G1 X91.972 Y91.319 E.00931
G1 X92.061 Y91.211 E.00931
G1 X111.211 Y72.061 E1.80261
G1 X111.319 Y71.972 E.00931
G1 X111.459 Y71.958 E.00931
G1 X138.541 Y71.958 E1.80261
G1 X138.681 Y71.972 E.00931
G1 X138.789 Y72.061 E.00931
G1 X157.939 Y91.211 E1.80261
G1 X158.028 Y91.319 E.00931
M73 P3 R41
M73 Q3 S41
G1 X158.042 Y91.459 E.00931
G1 X158.042 Y118.541 E1.80261
G1 X158.028 Y118.681 E.00931
G1 X157.939 Y118.789 E.00931
G1 X138.789 Y137.939 E1.80261
G1 X138.681 Y138.028 E.00931
G1 X138.541 Y138.042 E.00931
G1 X111.459 Y138.042 E1.80261
G1 X111.319 Y138.028 E.00931
G1 X111.211 Y137.939 E.00931
G1 X92.101 Y118.83 E1.79878
G1 X91.924 Y118.814 F4200
; stop printing object OV-PAM_h_48mm_1F.stl id:0 copy 0
;LAYER_CHANGE
;Z:0.8
;HEIGHT:0.2
;BEFORE_LAYER_CHANGE
G92 E0.0
;0.8


G1 E-1 F2400
G1 Z.8 F720
;AFTER_LAYER_CHANGE
;0.8
; printing object OV-PAM_h_48mm_1F.stl id:0 copy 0
G1 X92.064 Y118.793 F4200
G1 E1 F1500
G1 F1030.65
G1 X91.972 Y118.681 E.00967
G1 X91.958 Y118.541 E.00931
G1 X91.958 Y91.459 E1.80261
G1 X91.972 Y91.319 E.00931
G1 X92.061 Y91.211 E.00931
G1 X111.211 Y72.061 E1.80261
G1 X111.319 Y71.972 E.00931
G1 X111.459 Y71.958 E.00931
G1 X138.541 Y71.958 E1.80261
G1 X138.681 Y71.972 E.00931
G1 X138.789 Y72.061 E.00931
G1 X157.939 Y91.211 E1.80261
G1 X158.028 Y91.319 E.00931
G1 X158.042 Y91.459 E.00931
G1 X158.042 Y118.541 E1.80261
G1 X158.028 Y118.681 E.00931
G1 X157.939 Y118.789 E.00931
G1 X138.789 Y137.939 E1.80261
G1 X138.681 Y138.028 E.00931
G1 X138.541 Y138.042 E.00931
G1 X111.459 Y138.042 E1.80261
G1 X111.319 Y138.028 E.00931
G1 X111.211 Y137.939 E.00931
G1 X92.107 Y118.835 E1.79825
G1 X91.922 Y118.821 F4200
; stop printing object OV-PAM_h_48mm_1F.stl id:0 copy 0
;LAYER_CHANGE
;Z:1
;HEIGHT:0.2
;BEFORE_LAYER_CHANGE
G92 E0.0
;1


G1 E-1 F2400
G1 Z1 F720
;AFTER_LAYER_CHANGE
;1
; printing object OV-PAM_h_48mm_1F.stl id:0 copy 0
G1 X92.072 Y118.8 F4200
G1 E1 F1500
G1 F1030.65
G1 X91.972 Y118.681 E.01038
G1 X91.958 Y118.541 E.00931
G1 X91.958 Y91.459 E1.80261
G1 X91.972 Y91.319 E.00931
G1 X92.061 Y91.211 E.00931
G1 X111.211 Y72.061 E1.80261
G1 X111.319 Y71.972 E.00931
G1 X111.459 Y71.958 E.00931
G1 X138.541 Y71.958 E1.80261
G1 X138.681 Y71.972 E.00931
G1 X138.789 Y72.061 E.00931
G1 X157.939 Y91.211 E1.80261
G1 X158.028 Y91.319 E.00931
M73 P4 R41
M73 Q4 S41
G1 X158.042 Y91.459 E.00931
G1 X158.042 Y118.541 E1.80261
G1 X158.028 Y118.681 E.00931
G1 X157.939 Y118.789 E.00931
G1 X138.789 Y137.939 E1.80261
G1 X138.681 Y138.028 E.00931
M73 P4 R40
M73 Q4 S40
G1 X138.541 Y138.042 E.00931
G1 X111.459 Y138.042 E1.80261
G1 X111.319 Y138.028 E.00931
G1 X111.211 Y137.939 E.00931
G1 X92.114 Y118.843 E1.79754
G1 X91.919 Y118.832 F4200
; stop printing object OV-PAM_h_48mm_1F.stl id:0 copy 0
;LAYER_CHANGE
;Z:1.2
;HEIGHT:0.2
;BEFORE_LAYER_CHANGE
G92 E0.0
;1.2


G1 E-1 F2400
G1 Z1.2 F720
;AFTER_LAYER_CHANGE
;1.2
; printing object OV-PAM_h_48mm_1F.stl id:0 copy 0
G1 X92.09 Y118.805 F4200
G1 E1 F1500
;WIDTH:0.791007
G1 F1002.558
G1 X91.982 Y118.676 E.01149
G1 X91.968 Y118.533 E.00984
G1 X91.968 Y91.467 E1.85201
G1 X91.982 Y91.324 E.00984
G1 X92.073 Y91.212 E.00984
G1 X111.212 Y72.073 E1.85201
G1 X111.324 Y71.982 E.00984
G1 X111.467 Y71.968 E.00984
G1 X138.533 Y71.968 E1.85201
G1 X138.676 Y71.982 E.00984
G1 X138.788 Y72.073 E.00984
G1 X157.927 Y91.212 E1.85201
G1 X158.018 Y91.324 E.00984
G1 X158.032 Y91.467 E.00984
G1 X158.032 Y118.533 E1.85201
G1 X158.018 Y118.676 E.00984
G1 X157.927 Y118.788 E.00984
G1 X138.788 Y137.927 E1.85201
G1 X138.676 Y138.018 E.00984
G1 X138.533 Y138.032 E.00984
G1 X111.467 Y138.032 E1.85201
G1 X111.324 Y138.018 E.00984
G1 X111.212 Y137.927 E.00984
G1 X92.133 Y118.847 E1.84624
G1 X91.926 Y118.839 F4200
; stop printing object OV-PAM_h_48mm_1F.stl id:0 copy 0
;LAYER_CHANGE
;Z:1.4
;HEIGHT:0.2
;BEFORE_LAYER_CHANGE
G92 E0.0
;1.4


G1 E-1 F2400
G1 Z1.4 F720
;AFTER_LAYER_CHANGE
;1.4
; printing object OV-PAM_h_48mm_1F.stl id:0 copy 0
G1 X92.25 Y118.7 F4200
G1 E1 F1500
;WIDTH:0.643113
G1 F1200
G1 X92.166 Y118.6 E.00717
G1 X92.155 Y118.485 E.00634
G1 X92.166 Y91.4 E1.48692
G1 X111.4 Y72.166 E1.49323
G1 X138.6 Y72.166 E1.49323
G1 X157.834 Y91.4 E1.49323
G1 X157.834 Y118.6 E1.49323
M73 P5 R40
M73 Q5 S40
G1 X138.6 Y137.834 E1.49323
G1 X111.4 Y137.834 E1.49323
G1 X92.292 Y118.743 E1.48279
G1 X92.127 Y118.743 F4200
; stop printing object OV-PAM_h_48mm_1F.stl id:0 copy 0
;LAYER_CHANGE
;Z:1.6
;HEIGHT:0.2
;BEFORE_LAYER_CHANGE
G92 E0.0
;1.6


G1 E-1 F2400
G1 Z1.6 F720
;AFTER_LAYER_CHANGE
;1.6
; printing object OV-PAM_h_48mm_1F.stl id:0 copy 0
G1 X92.36 Y118.647 F4200
G1 E1 F1500
;WIDTH:0.643113
G1 F1200
G1 X92.281 Y118.552 E.00676
G1 X92.27 Y118.438 E.00634
G1 X92.281 Y91.448 E1.48167
G1 X111.448 Y72.281 E1.48798
G1 X138.552 Y72.281 E1.48798
G1 X157.719 Y91.448 E1.48798
G1 X157.719 Y118.552 E1.48798
G1 X138.552 Y137.719 E1.48798
G1 X111.448 Y137.719 E1.48798
G1 X92.402 Y118.69 E1.47795
G1 X92.244 Y118.687 F4200
; stop printing object OV-PAM_h_48mm_1F.stl id:0 copy 0
;LAYER_CHANGE
;Z:1.8
;HEIGHT:0.2
;BEFORE_LAYER_CHANGE
G92 E0.0
;1.8


G1 E-1 F2400
G1 Z1.8 F720
;AFTER_LAYER_CHANGE
;1.8
; printing object OV-PAM_h_48mm_1F.stl id:0 copy 0
G1 X92.471 Y118.595 F4200
G1 E1 F1500
;WIDTH:0.643113
G1 F1200
G1 X92.397 Y118.505 E.00642
G1 X92.385 Y118.39 E.00634
G1 X92.397 Y91.495 E1.47642
G1 X111.495 Y72.397 E1.48273
G1 X138.505 Y72.397 E1.48273
G1 X157.603 Y91.495 E1.48273
G1 X157.603 Y118.505 E1.48273
G1 X138.505 Y137.603 E1.48273
G1 X111.495 Y137.603 E1.48273
M73 P6 R40
M73 Q6 S40
G1 X92.514 Y118.637 E1.47304
G1 X92.36 Y118.633 F4200
; stop printing object OV-PAM_h_48mm_1F.stl id:0 copy 0
;LAYER_CHANGE
;Z:2
;HEIGHT:0.2
;BEFORE_LAYER_CHANGE
G92 E0.0
;2


G1 E-1 F2400
G1 Z2 F720
;AFTER_LAYER_CHANGE
;2
; printing object OV-PAM_h_48mm_1F.stl id:0 copy 0
G1 X92.584 Y118.544 F4200
G1 E1 F1500
;WIDTH:0.643114
G1 F1200
G1 X92.512 Y118.457 E.00618
G1 X92.501 Y118.342 E.00634
G1 X92.512 Y91.543 E1.47117
G1 X111.543 Y72.512 E1.47748
G1 X138.457 Y72.512 E1.47748
G1 X157.488 Y91.543 E1.47748
G1 X157.488 Y118.457 E1.47748
G1 X138.457 Y137.488 E1.47748
G1 X111.543 Y137.488 E1.47748
G1 X92.626 Y118.587 E1.46804
G1 X92.606 Y118.434 F4200
; stop printing object OV-PAM_h_48mm_1F.stl id:0 copy 0
;LAYER_CHANGE
;Z:2.2
;HEIGHT:0.2
;BEFORE_LAYER_CHANGE
G92 E0.0
;2.2


M73 P6 R39
M73 Q6 S39
G1 E-1 F2400
G1 Z2.2 F720
;AFTER_LAYER_CHANGE
;2.2
; printing object OV-PAM_h_48mm_1F.stl id:0 copy 0
G1 X92.697 Y118.494 F4200
G1 E1 F1500
;WIDTH:0.644091
G1 F1200
G1 X92.628 Y118.411 E.00593
G1 X92.616 Y118.294 E.00648
G1 X92.626 Y91.593 E1.46819
G1 X111.589 Y72.628 E1.47464
G1 X138.407 Y72.626 E1.47464
G1 X157.372 Y91.589 E1.47464
G1 X157.374 Y118.407 E1.47464
G1 X138.411 Y137.372 E1.47464
G1 X111.593 Y137.374 E1.47464
G1 X92.74 Y118.537 E1.46544
G1 X92.718 Y118.388 F4200
; stop printing object OV-PAM_h_48mm_1F.stl id:0 copy 0
;LAYER_CHANGE
;Z:2.4
;HEIGHT:0.2
;BEFORE_LAYER_CHANGE
G92 E0.0
;2.4


G1 E-1 F2400
G1 Z2.4 F720
;AFTER_LAYER_CHANGE
;2.4
; printing object OV-PAM_h_48mm_1F.stl id:0 copy 0
G1 X92.812 Y118.445 F4200
G1 E1 F1500
;WIDTH:0.646744
G1 F1200
G1 X92.745 Y118.37 E.00556
G1 X92.732 Y118.246 E.00687
G1 X92.738 Y91.646 E1.46909
G1 X92.816 Y91.55 E.00687
M73 P7 R39
M73 Q7 S39
G1 X111.63 Y72.745 E1.46909
G1 X111.754 Y72.732 E.00687
G1 X138.354 Y72.738 E1.46909
G1 X138.45 Y72.816 E.00687
G1 X157.255 Y91.63 E1.46909
G1 X157.268 Y91.754 E.00687
G1 X157.262 Y118.354 E1.46909
G1 X157.184 Y118.45 E.00687
G1 X138.37 Y137.255 E1.46909
G1 X138.246 Y137.268 E.00687
G1 X111.646 Y137.262 E1.46909
G1 X111.55 Y137.184 E.00687
G1 X92.854 Y118.488 E1.46023
G1 X92.842 Y118.349 F4200
; stop printing object OV-PAM_h_48mm_1F.stl id:0 copy 0
;LAYER_CHANGE
;Z:2.6
;HEIGHT:0.2
;BEFORE_LAYER_CHANGE
G92 E0.0
;2.6


G1 E-1 F2400
G1 Z2.6 F720
;AFTER_LAYER_CHANGE
;2.6
; printing object OV-PAM_h_48mm_1F.stl id:0 copy 0
G1 X92.927 Y118.398 F4200
G1 E1 F1500
;WIDTH:0.650874
G1 F1200
G1 X92.863 Y118.331 E.00514
G1 X92.847 Y118.198 E.00744
G1 X92.849 Y91.702 E1.47337
G1 X92.932 Y91.597 E.00744
G1 X111.669 Y72.863 E1.47337
G1 X111.802 Y72.847 E.00744
G1 X138.298 Y72.849 E1.47337
G1 X138.403 Y72.932 E.00744
G1 X157.137 Y91.669 E1.47337
G1 X157.153 Y91.802 E.00744
G1 X157.151 Y118.298 E1.47337
G1 X157.068 Y118.403 E.00744
G1 X138.331 Y137.137 E1.47337
G1 X138.198 Y137.153 E.00744
G1 X111.702 Y137.151 E1.47337
G1 X111.597 Y137.068 E.00744
G1 X92.969 Y118.44 E1.4649
G1 X92.952 Y118.309 F4200
; stop printing object OV-PAM_h_48mm_1F.stl id:0 copy 0
;LAYER_CHANGE
;Z:2.8
;HEIGHT:0.2
;BEFORE_LAYER_CHANGE
G92 E0.0
;2.8


G1 E-1 F2400
G1 Z2.8 F720
;AFTER_LAYER_CHANGE
;2.8
; printing object OV-PAM_h_48mm_1F.stl id:0 copy 0
G1 X93.054 Y118.362 F4200
G1 E1 F1500
;WIDTH:0.656425
G1 F1200
G1 X92.981 Y118.295 E.00553
G1 X92.963 Y118.151 E.00817
G1 X92.958 Y91.76 E1.48089
G1 X93.047 Y91.645 E.00817
G1 X111.705 Y72.981 E1.48089
G1 X111.849 Y72.963 E.00817
G1 X138.24 Y72.958 E1.48089
G1 X138.355 Y73.047 E.00817
M73 P8 R39
M73 Q8 S39
G1 X157.019 Y91.705 E1.48089
G1 X157.037 Y91.849 E.00817
G1 X157.042 Y118.24 E1.48089
G1 X156.953 Y118.355 E.00817
G1 X138.295 Y137.019 E1.48089
G1 X138.151 Y137.037 E.00817
G1 X111.76 Y137.042 E1.48089
G1 X111.645 Y136.953 E.00817
G1 X93.096 Y118.404 E1.472
G1 X93.076 Y118.266 F4200
; stop printing object OV-PAM_h_48mm_1F.stl id:0 copy 0
;LAYER_CHANGE
;Z:3
;HEIGHT:0.2
;BEFORE_LAYER_CHANGE
G92 E0.0
;3


G1 E-1 F2400
G1 Z3 F720
;AFTER_LAYER_CHANGE
;3
; printing object OV-PAM_h_48mm_1F.stl id:0 copy 0
G1 X93.184 Y118.331 F4200
G1 E1 F1500
;WIDTH:0.663401
G1 F1200
G1 X93.1 Y118.261 E.00621
G1 X93.078 Y118.103 E.00904
G1 X93.067 Y91.82 E1.49162
