; generated by PrusaSlicer 2.5.2+win64 on 2023-10-26 at 05:59:57 UTC


;
;
; 

; external perimeters extrusion width = 0.50mm
; perimeters extrusion width = 0.50mm
; infill extrusion width = 0.50mm
; solid infill extrusion width = 0.50mm
; top infill extrusion width = 0.50mm
; first layer extrusion width = 0.50mm

M73 P0 R39
M73 Q0 S39
M201 X1000 Y1000 Z200 E5000 ; sets maximum accelerations, mm/sec^2
M203 X200 Y200 Z12 E120 ; sets maximum feedrates, mm / sec
M204 P1250 R1250 T1250 ; sets acceleration (P, T) and retract acceleration (R), mm/sec^2
M205 X8.00 Y8.00 Z0.40 E4.50 ; sets the jerk limits, mm/sec
M205 S0 T0 ; sets the minimum extruding and travel feed rate, mm/sec
M107
;TYPE:Custom
M862.3 P "MK3S" ; printer model check
M862.1 P0.4 ; nozzle diameter check
M115 U3.12.2 ; tell printer latest fw version
G90 ; use absolute coordinates
M83 ; extruder relative mode
M104 S240 ; set extruder temp
M140 S60 ; set bed temp
M190 S60 ; wait for bed temp
M109 S240 ; wait for extruder temp
G28 W ; home all without mesh bed level
G80 ; mesh bed leveling

G1 Z0.2 F720
G1 Y-3 F1000 ; go outside print area
G92 E0
G1 X60 E9 F1000 ; intro line
G1 X100 E12.5 F1000 ; intro line

G92 E0
M221 S95

; Don't change E values below. Excessive value can damage the printer.
M907 E430 ; set extruder motor current
G21 ; set units to millimeters
G90 ; use absolute coordinates
M83 ; use relative distances for extrusion
M900 K0 ; Filament gcode
M107
;LAYER_CHANGE
;Z:0.2
;HEIGHT:0.2
;BEFORE_LAYER_CHANGE
G92 E0.0
;0.2


G1 E-1 F2400
G1 Z.2 F720
;AFTER_LAYER_CHANGE
;0.2
G1 X89.164 Y88.724 F4200
G1 E1 F1500
M204 S300
;TYPE:Skirt/Brim
;WIDTH:0.5
G1 F1200
G1 X108.724 Y69.164 E1.1565
G1 X110.136 Y68.309 E.06902
G1 X111.169 Y68.151 E.04365
G1 X138.831 Y68.151 E1.1565
G1 X140.435 Y68.545 E.06902
G1 X141.276 Y69.164 E.04365
G1 X160.836 Y88.724 E1.1565
G1 X161.691 Y90.136 E.06902
G1 X161.849 Y91.169 E.04365
G1 X161.849 Y118.831 E1.1565
G1 X161.455 Y120.435 E.06902
G1 X160.836 Y121.276 E.04365
G1 X141.276 Y140.836 E1.1565
G1 X139.864 Y141.691 E.06902
G1 X138.831 Y141.849 E.04365
G1 X111.169 Y141.849 E1.1565
G1 X109.565 Y141.455 E.06902
G1 X108.724 Y140.836 E.04365
G1 X89.164 Y121.276 E1.1565
G1 X88.309 Y119.864 E.06902
G1 X88.151 Y118.831 E.04365
G1 X88.151 Y91.169 E1.1565
G1 X88.545 Y89.565 E.06902
G1 X89.128 Y88.772 E.04114
; printing object OV-PAM_h_42mm_1F.stl id:0 copy 0
G1 E-1 F2400
G1 X138.789 Y72.061 F4200
G1 E1 F1500
;TYPE:External perimeter
;WIDTH:0.770616
G1 F1030.65
G1 X157.939 Y91.211 E1.80261
G1 X158.028 Y91.319 E.00931
G1 X158.042 Y91.459 E.00931
G1 X158.042 Y118.541 E1.80261
G1 X158.028 Y118.681 E.00931
M73 P1 R39
M73 Q1 S39
G1 X157.939 Y118.789 E.00931
G1 X138.789 Y137.939 E1.80261
G1 X138.681 Y138.028 E.00931
G1 X138.541 Y138.042 E.00931
G1 X111.459 Y138.042 E1.80261
G1 X111.319 Y138.028 E.00931
G1 X111.211 Y137.939 E.00931
G1 X92.061 Y118.789 E1.80261
G1 X91.972 Y118.681 E.00931
G1 X91.958 Y118.541 E.00931
G1 X91.958 Y91.459 E1.80261
G1 X91.972 Y91.319 E.00931
G1 X92.061 Y91.211 E.00931
G1 X111.211 Y72.061 E1.80261
G1 X111.319 Y71.972 E.00931
G1 X111.459 Y71.958 E.00931
G1 X138.541 Y71.958 E1.80261
G1 X138.681 Y71.972 E.00931
G1 X138.742 Y72.023 E.00532
G1 X139.158 Y71.908 F4200
; stop printing object OV-PAM_h_42mm_1F.stl id:0 copy 0
;LAYER_CHANGE
;Z:0.4
;HEIGHT:0.2
;BEFORE_LAYER_CHANGE
G92 E0.0
;0.4


G1 E-1 F2400
G1 Z.4 F720
;AFTER_LAYER_CHANGE
;0.4
G1 X139.645 Y68.351 F4200
G1 E1 F1500
;TYPE:Skirt/Brim
;WIDTH:0.5
G1 F1200
G1 X140.435 Y68.545 E.03398
G1 X141.276 Y69.164 E.04365
G1 X160.836 Y88.724 E1.1565
G1 X161.691 Y90.136 E.06902
G1 X161.849 Y91.169 E.04365
G1 X161.849 Y118.831 E1.1565
G1 X161.455 Y120.435 E.06902
G1 X160.836 Y121.276 E.04365
G1 X141.276 Y140.836 E1.1565
G1 X139.864 Y141.691 E.06902
G1 X138.831 Y141.849 E.04365
G1 X111.169 Y141.849 E1.1565
G1 X109.565 Y141.455 E.06902
G1 X108.724 Y140.836 E.04365
M73 P1 R38
M73 Q1 S38
G1 X89.164 Y121.276 E1.1565
G1 X88.309 Y119.864 E.06902
G1 X88.151 Y118.831 E.04365
G1 X88.151 Y91.169 E1.1565
G1 X88.545 Y89.565 E.06902
G1 X89.164 Y88.724 E.04365
G1 X108.724 Y69.164 E1.1565
G1 X110.136 Y68.309 E.06902
G1 X111.169 Y68.151 E.04365
G1 X138.831 Y68.151 E1.1565
G1 X139.587 Y68.337 E.03253
; printing object OV-PAM_h_42mm_1F.stl id:0 copy 0
G1 E-1 F2400
G1 X138.795 Y71.848 F4200
G1 X138.896 Y71.934
G1 X138.789 Y72.061
G1 E1 F1500
;TYPE:External perimeter
;WIDTH:0.770616
G1 F1030.65
G1 X157.939 Y91.211 E1.80261
G1 X158.028 Y91.319 E.00931
M73 P2 R38
M73 Q2 S38
G1 X158.042 Y91.459 E.00931
G1 X158.042 Y118.541 E1.80261
G1 X158.028 Y118.681 E.00931
G1 X157.939 Y118.789 E.00931
G1 X138.789 Y137.939 E1.80261
G1 X138.681 Y138.028 E.00931
G1 X138.541 Y138.042 E.00931
G1 X111.459 Y138.042 E1.80261
G1 X111.319 Y138.028 E.00931
G1 X111.211 Y137.939 E.00931
G1 X92.061 Y118.789 E1.80261
G1 X91.972 Y118.681 E.00931
G1 X91.958 Y118.541 E.00931
G1 X91.958 Y91.459 E1.80261
G1 X91.972 Y91.319 E.00931
G1 X92.061 Y91.211 E.00931
G1 X111.211 Y72.061 E1.80261
G1 X111.319 Y71.972 E.00931
G1 X111.459 Y71.958 E.00931
G1 X138.541 Y71.958 E1.80261
G1 X138.681 Y71.972 E.00931
G1 X138.742 Y72.023 E.00532
G1 X139.158 Y71.908 F4200
; stop printing object OV-PAM_h_42mm_1F.stl id:0 copy 0
;LAYER_CHANGE
;Z:0.6
;HEIGHT:0.2
;BEFORE_LAYER_CHANGE
G92 E0.0
;0.6


G1 E-1 F2400
G1 Z.6 F720
;AFTER_LAYER_CHANGE
;0.6
G1 X139.645 Y68.351 F4200
G1 E1 F1500
;TYPE:Skirt/Brim
;WIDTH:0.5
G1 F1200
G1 X140.435 Y68.545 E.03398
G1 X141.276 Y69.164 E.04365
G1 X160.836 Y88.724 E1.1565
G1 X161.691 Y90.136 E.06902
G1 X161.849 Y91.169 E.04365
G1 X161.849 Y118.831 E1.1565
G1 X161.455 Y120.435 E.06902
G1 X160.836 Y121.276 E.04365
G1 X141.276 Y140.836 E1.1565
G1 X139.864 Y141.691 E.06902
G1 X138.831 Y141.849 E.04365
G1 X111.169 Y141.849 E1.1565
G1 X109.565 Y141.455 E.06902
G1 X108.724 Y140.836 E.04365
G1 X89.164 Y121.276 E1.1565
G1 X88.309 Y119.864 E.06902
G1 X88.151 Y118.831 E.04365
G1 X88.151 Y91.169 E1.1565
G1 X88.545 Y89.565 E.06902
G1 X89.164 Y88.724 E.04365
G1 X108.724 Y69.164 E1.1565
G1 X110.136 Y68.309 E.06902
G1 X111.169 Y68.151 E.04365
G1 X138.831 Y68.151 E1.1565
G1 X139.587 Y68.337 E.03253
; printing object OV-PAM_h_42mm_1F.stl id:0 copy 0
M73 P3 R38
M73 Q3 S38
G1 E-1 F2400
G1 X138.797 Y71.85 F4200
G1 X138.899 Y71.936
G1 X138.792 Y72.064
G1 E1 F1500
;TYPE:External perimeter
;WIDTH:0.770616
G1 F1030.65
G1 X157.939 Y91.211 E1.80232
G1 X158.028 Y91.319 E.00931
G1 X158.042 Y91.459 E.00931
G1 X158.042 Y118.541 E1.80261
G1 X158.028 Y118.681 E.00931
G1 X157.939 Y118.789 E.00931
G1 X138.789 Y137.939 E1.80261
G1 X138.681 Y138.028 E.00931
G1 X138.541 Y138.042 E.00931
G1 X111.459 Y138.042 E1.80261
G1 X111.319 Y138.028 E.00931
G1 X111.211 Y137.939 E.00931
G1 X92.061 Y118.789 E1.80261
G1 X91.972 Y118.681 E.00931
G1 X91.958 Y118.541 E.00931
G1 X91.958 Y91.459 E1.80261
G1 X91.972 Y91.319 E.00931
G1 X92.061 Y91.211 E.00931
G1 X111.211 Y72.061 E1.80261
G1 X111.319 Y71.972 E.00931
G1 X111.459 Y71.958 E.00931
G1 X138.541 Y71.958 E1.80261
G1 X138.681 Y71.972 E.00931
G1 X138.746 Y72.025 E.0056
G1 X139.162 Y71.911 F4200
; stop printing object OV-PAM_h_42mm_1F.stl id:0 copy 0
;LAYER_CHANGE
;Z:0.8
;HEIGHT:0.2
;BEFORE_LAYER_CHANGE
G92 E0.0
;0.8


G1 E-1 F2400
G1 Z.8 F720
;AFTER_LAYER_CHANGE
;0.8
; printing object OV-PAM_h_42mm_1F.stl id:0 copy 0
G1 X138.798 Y72.07 F4200
G1 E1 F1500
G1 F1030.65
G1 X157.939 Y91.211 E1.80173
G1 X158.028 Y91.319 E.00931
G1 X158.042 Y91.459 E.00931
G1 X158.042 Y118.541 E1.80261
G1 X158.028 Y118.681 E.00931
G1 X157.939 Y118.789 E.00931
G1 X138.789 Y137.939 E1.80261
G1 X138.681 Y138.028 E.00931
G1 X138.541 Y138.042 E.00931
G1 X111.459 Y138.042 E1.80261
G1 X111.319 Y138.028 E.00931
G1 X111.211 Y137.939 E.00931
G1 X92.061 Y118.789 E1.80261
G1 X91.972 Y118.681 E.00931
G1 X91.958 Y118.541 E.00931
G1 X91.958 Y91.459 E1.80261
G1 X91.972 Y91.319 E.00931
G1 X92.061 Y91.211 E.00931
G1 X111.211 Y72.061 E1.80261
G1 X111.319 Y71.972 E.00931
M73 P4 R38
M73 Q4 S38
G1 X111.459 Y71.958 E.00931
G1 X138.541 Y71.958 E1.80261
G1 X138.681 Y71.972 E.00931
G1 X138.753 Y72.031 E.0062
G1 X139.169 Y71.919 F4200
; stop printing object OV-PAM_h_42mm_1F.stl id:0 copy 0
;LAYER_CHANGE
;Z:1
;HEIGHT:0.2
;BEFORE_LAYER_CHANGE
G92 E0.0
;1


G1 E-1 F2400
G1 Z1 F720
;AFTER_LAYER_CHANGE
;1
; printing object OV-PAM_h_42mm_1F.stl id:0 copy 0
G1 X138.805 Y72.077 F4200
G1 E1 F1500
G1 F1030.65
G1 X157.939 Y91.211 E1.8011
G1 X158.028 Y91.319 E.00931
G1 X158.042 Y91.459 E.00931
G1 X158.042 Y118.541 E1.80261
G1 X158.028 Y118.681 E.00931
M73 P4 R37
M73 Q4 S37
G1 X157.939 Y118.789 E.00931
G1 X138.789 Y137.939 E1.80261
G1 X138.681 Y138.028 E.00931
G1 X138.541 Y138.042 E.00931
G1 X111.459 Y138.042 E1.80261
G1 X111.319 Y138.028 E.00931
G1 X111.211 Y137.939 E.00931
G1 X92.061 Y118.789 E1.80261
G1 X91.972 Y118.681 E.00931
G1 X91.958 Y118.541 E.00931
G1 X91.958 Y91.459 E1.80261
G1 X91.972 Y91.319 E.00931
G1 X92.061 Y91.211 E.00931
G1 X111.211 Y72.061 E1.80261
G1 X111.319 Y71.972 E.00931
G1 X111.459 Y71.958 E.00931
G1 X138.541 Y71.958 E1.80261
G1 X138.681 Y71.972 E.00931
G1 X138.76 Y72.037 E.00683
G1 X139.176 Y71.927 F4200
; stop printing object OV-PAM_h_42mm_1F.stl id:0 copy 0
;LAYER_CHANGE
;Z:1.2
;HEIGHT:0.2
;BEFORE_LAYER_CHANGE
G92 E0.0
;1.2


G1 E-1 F2400
G1 Z1.2 F720
;AFTER_LAYER_CHANGE
;1.2
; printing object OV-PAM_h_42mm_1F.stl id:0 copy 0
G1 X138.808 Y72.094 F4200
G1 E1 F1500
;WIDTH:0.791006
G1 F1002.559
G1 X157.927 Y91.212 E1.85003
G1 X158.018 Y91.324 E.00984
G1 X158.032 Y91.467 E.00984
G1 X158.032 Y118.533 E1.852
G1 X158.018 Y118.676 E.00984
G1 X157.927 Y118.788 E.00984
G1 X138.788 Y137.927 E1.852
G1 X138.676 Y138.018 E.00984
G1 X138.533 Y138.032 E.00984
G1 X111.467 Y138.032 E1.852
G1 X111.324 Y138.018 E.00984
G1 X111.212 Y137.927 E.00984
G1 X92.073 Y118.788 E1.852
G1 X91.982 Y118.676 E.00984
M73 P5 R37
M73 Q5 S37
G1 X91.968 Y118.533 E.00984
G1 X91.968 Y91.467 E1.852
G1 X91.982 Y91.324 E.00984
G1 X92.073 Y91.212 E.00984
G1 X111.212 Y72.073 E1.852
G1 X111.324 Y71.982 E.00984
G1 X111.467 Y71.968 E.00984
G1 X138.533 Y71.968 E1.852
G1 X138.676 Y71.982 E.00984
G1 X138.764 Y72.054 E.00771
G1 X139.18 Y71.945 F4200
; stop printing object OV-PAM_h_42mm_1F.stl id:0 copy 0
;LAYER_CHANGE
;Z:1.4
;HEIGHT:0.2
;BEFORE_LAYER_CHANGE
G92 E0.0
;1.4


G1 E-1 F2400
G1 Z1.4 F720
;AFTER_LAYER_CHANGE
;1.4
; printing object OV-PAM_h_42mm_1F.stl id:0 copy 0
G1 X138.702 Y72.251 F4200
G1 E1 F1500
;WIDTH:0.643113
G1 F1200
G1 X157.834 Y91.4 E1.48599
G1 X157.834 Y118.6 E1.49323
G1 X138.6 Y137.834 E1.49323
G1 X111.4 Y137.834 E1.49323
G1 X92.166 Y118.6 E1.49323
G1 X92.166 Y91.4 E1.49323
G1 X111.4 Y72.166 E1.49323
G1 X138.485 Y72.155 E1.48692
G1 X138.6 Y72.166 E.00634
G1 X138.656 Y72.212 E.00397
G1 X139.073 Y72.101 F4200
; stop printing object OV-PAM_h_42mm_1F.stl id:0 copy 0
;LAYER_CHANGE
;Z:1.6
;HEIGHT:0.2
;BEFORE_LAYER_CHANGE
G92 E0.0
;1.6


G1 E-1 F2400
G1 Z1.6 F720
;AFTER_LAYER_CHANGE
;1.6
; printing object OV-PAM_h_42mm_1F.stl id:0 copy 0
G1 X138.646 Y72.358 F4200
G1 E1 F1500
;WIDTH:0.643113
G1 F1200
G1 X157.719 Y91.448 E1.48138
G1 X157.719 Y118.552 E1.48798
G1 X138.552 Y137.719 E1.48798
G1 X111.448 Y137.719 E1.48798
G1 X92.281 Y118.552 E1.48798
G1 X92.281 Y91.448 E1.48798
G1 X111.448 Y72.281 E1.48798
M73 P6 R37
M73 Q6 S37
G1 X138.438 Y72.27 E1.48167
G1 X138.552 Y72.281 E.00634
G1 X138.599 Y72.32 E.00333
G1 X139.016 Y72.206 F4200
; stop printing object OV-PAM_h_42mm_1F.stl id:0 copy 0
;LAYER_CHANGE
;Z:1.8
;HEIGHT:0.2
;BEFORE_LAYER_CHANGE
G92 E0.0
;1.8


G1 E-1 F2400
G1 Z1.8 F720
;AFTER_LAYER_CHANGE
;1.8
; printing object OV-PAM_h_42mm_1F.stl id:0 copy 0
G1 X138.586 Y72.464 F4200
G1 E1 F1500
G1 F1200
G1 X157.603 Y91.495 E1.47696
G1 X157.603 Y118.505 E1.48272
G1 X138.505 Y137.603 E1.48272
G1 X111.495 Y137.603 E1.48272
G1 X92.397 Y118.505 E1.48272
G1 X92.397 Y91.495 E1.48272
G1 X111.495 Y72.397 E1.48272
G1 X138.39 Y72.385 E1.47642
G1 X138.505 Y72.397 E.00634
G1 X138.54 Y72.426 E.0025
G1 X138.536 Y72.861 F4200
; stop printing object OV-PAM_h_42mm_1F.stl id:0 copy 0
;LAYER_CHANGE
;Z:2
;HEIGHT:0.2
;BEFORE_LAYER_CHANGE
G92 E0.0
;2


G1 E-1 F2400
G1 Z2 F720
;AFTER_LAYER_CHANGE
;2
; printing object OV-PAM_h_42mm_1F.stl id:0 copy 0
G1 X138.529 Y72.572 F4200
G1 E1 F1500
;WIDTH:0.644439
G1 F1200
G1 X157.487 Y91.54 E1.47546
G1 X157.489 Y118.454 E1.48077
G1 X138.46 Y137.487 E1.48077
M73 P6 R36
M73 Q6 S36
G1 X111.546 Y137.489 E1.48077
G1 X92.513 Y118.46 E1.48077
G1 X92.511 Y91.546 E1.48077
G1 X111.54 Y72.513 E1.48077
G1 X138.342 Y72.501 E1.4746
M73 P7 R36
M73 Q7 S36
G1 X138.454 Y72.511 E.00619
G1 X138.483 Y72.534 E.00203
G1 X138.481 Y72.969 F4200
; stop printing object OV-PAM_h_42mm_1F.stl id:0 copy 0
;LAYER_CHANGE
;Z:2.2
;HEIGHT:0.2
;BEFORE_LAYER_CHANGE
G92 E0.0
;2.2


G1 E-1 F2400
G1 Z2.2 F720
;AFTER_LAYER_CHANGE
;2.2
; printing object OV-PAM_h_42mm_1F.stl id:0 copy 0
G1 X138.472 Y72.68 F4200
G1 E1 F1500
;WIDTH:0.648666
G1 F1200
G1 X157.369 Y91.578 E1.48074
G1 X157.384 Y91.706 E.00714
G1 X157.38 Y118.398 E1.47886
G1 X157.299 Y118.498 E.00714
G1 X138.422 Y137.369 E1.47886
G1 X138.294 Y137.384 E.00714
G1 X111.602 Y137.38 E1.47886
G1 X111.502 Y137.299 E.00714
G1 X92.631 Y118.422 E1.47886
G1 X92.616 Y118.294 E.00714
G1 X92.62 Y91.602 E1.47886
G1 X92.701 Y91.502 E.00714
G1 X111.578 Y72.631 E1.47886
G1 X111.706 Y72.616 E.00714
G1 X138.294 Y72.616 E1.47312
G1 X138.398 Y72.62 E.00574
G1 X138.425 Y72.642 E.00192
G1 X138.426 Y73.077 F4200
; stop printing object OV-PAM_h_42mm_1F.stl id:0 copy 0
;LAYER_CHANGE
;Z:2.4
;HEIGHT:0.2
;BEFORE_LAYER_CHANGE
G92 E0.0
;2.4


G1 E-1 F2400
G1 Z2.4 F720
;AFTER_LAYER_CHANGE
;2.4
; printing object OV-PAM_h_42mm_1F.stl id:0 copy 0
G1 X138.413 Y72.787 F4200
G1 E1 F1500
;WIDTH:0.655467
G1 F1200
G1 X157.251 Y91.611 E1.49202
G1 X157.268 Y91.754 E.00805
G1 X157.272 Y118.337 E1.48939
G1 X157.184 Y118.45 E.00805
G1 X138.389 Y137.251 E1.48939
G1 X138.246 Y137.268 E.00805
G1 X111.663 Y137.272 E1.48939
G1 X111.55 Y137.184 E.00805
G1 X92.749 Y118.389 E1.48939
G1 X92.732 Y118.246 E.00805
G1 X92.728 Y91.663 E1.48939
G1 X92.816 Y91.55 E.00805
G1 X111.611 Y72.749 E1.48939
G1 X111.754 Y72.732 E.00805
G1 X138.337 Y72.728 E1.48939
G1 X138.366 Y72.75 E.00204
M73 P8 R36
M73 Q8 S36
G1 X138.413 Y73.187 F4200
; stop printing object OV-PAM_h_42mm_1F.stl id:0 copy 0
;LAYER_CHANGE
;Z:2.6
;HEIGHT:0.2
;BEFORE_LAYER_CHANGE
G92 E0.0
;2.6


G1 E-1 F2400
G1 Z2.6 F720
;AFTER_LAYER_CHANGE
;2.6
; printing object OV-PAM_h_42mm_1F.stl id:0 copy 0
G1 X138.354 Y72.895 F4200
G1 E1 F1500
;WIDTH:0.664804
G1 F1200
G1 X157.019 Y91.549 E1.50099
G1 X157.13 Y91.641 E.00822
G1 X157.153 Y91.802 E.00921
G1 X157.153 Y118.129 E1.49756
G1 X157.166 Y118.273 E.00822
G1 X157.068 Y118.403 E.00921
G1 X138.451 Y137.019 E1.49756
G1 X138.359 Y137.13 E.00822
G1 X138.198 Y137.153 E.00921
G1 X111.871 Y137.153 E1.49756
G1 X111.727 Y137.166 E.00822
G1 X111.597 Y137.068 E.00921
G1 X92.981 Y118.451 E1.49756
G1 X92.87 Y118.359 E.00822
G1 X92.847 Y118.198 E.00921
G1 X92.847 Y91.871 E1.49756
G1 X92.834 Y91.727 E.00822
G1 X92.932 Y91.597 E.00921
G1 X111.549 Y72.981 E1.49756
G1 X111.641 Y72.87 E.00822
G1 X111.802 Y72.847 E.00921
G1 X138.129 Y72.847 E1.49756
G1 X138.273 Y72.834 E.00822
G1 X138.306 Y72.859 E.00232
G1 X138.326 Y73.294 F4200
; stop printing object OV-PAM_h_42mm_1F.stl id:0 copy 0
;LAYER_CHANGE
;Z:2.8
;HEIGHT:0.2
;BEFORE_LAYER_CHANGE
G92 E0.0
;2.8


G1 E-1 F2400
G1 Z2.8 F720
;AFTER_LAYER_CHANGE
;2.8
; printing object OV-PAM_h_42mm_1F.stl id:0 copy 0
G1 X138.252 Y72.972 F4200
G1 E1 F1500
;WIDTH:0.676708
G1 F1183.362
G1 X138.355 Y73.047 E.00739
;WIDTH:0.620268
G1 F1200
G1 X156.961 Y91.637 E1.3889
;WIDTH:0.676708
G1 F1183.362
G1 X157.009 Y91.669 E.00334
G1 X157.037 Y91.849 E.01059
;WIDTH:0.62027
G1 F1200
G1 X157.049 Y118.151 E1.38891
;WIDTH:0.676708
G1 F1183.361
G1 X157.06 Y118.207 E.00334
;WIDTH:0.676707
G1 X156.953 Y118.355 E.01059
;WIDTH:0.62027
G1 F1200
G1 X138.363 Y136.961 E1.38891
;WIDTH:0.676708
G1 F1183.362
G1 X138.331 Y137.009 E.00334
G1 X138.151 Y137.037 E.01059
;WIDTH:0.62027
G1 F1200
G1 X111.849 Y137.049 E1.38891
;WIDTH:0.676708
G1 F1183.361
G1 X111.793 Y137.06 E.00334
G1 X111.645 Y136.953 E.01059
;WIDTH:0.62027
G1 F1200
