; generated by PrusaSlicer 2.5.2+win64 on 2023-10-26 at 05:59:18 UTC


;
;
; 

; external perimeters extrusion width = 0.50mm
; perimeters extrusion width = 0.50mm
; infill extrusion width = 0.50mm
; solid infill extrusion width = 0.50mm
; top infill extrusion width = 0.50mm
; first layer extrusion width = 0.50mm

M73 P0 R27
M73 Q0 S27
M201 X1000 Y1000 Z200 E5000 ; sets maximum accelerations, mm/sec^2
M203 X200 Y200 Z12 E120 ; sets maximum feedrates, mm / sec
M204 P1250 R1250 T1250 ; sets acceleration (P, T) and retract acceleration (R), mm/sec^2
M205 X8.00 Y8.00 Z0.40 E4.50 ; sets the jerk limits, mm/sec
M205 S0 T0 ; sets the minimum extruding and travel feed rate, mm/sec
M107
;TYPE:Custom
M862.3 P "MK3S" ; printer model check
M862.1 P0.4 ; nozzle diameter check
M115 U3.12.2 ; tell printer latest fw version
G90 ; use absolute coordinates
M83 ; extruder relative mode
M104 S240 ; set extruder temp
M140 S60 ; set bed temp
M190 S60 ; wait for bed temp
M109 S240 ; wait for extruder temp
G28 W ; home all without mesh bed level
G80 ; mesh bed leveling

G1 Z0.2 F720
G1 Y-3 F1000 ; go outside print area
G92 E0
G1 X60 E9 F1000 ; intro line
G1 X100 E12.5 F1000 ; intro line

G92 E0
M221 S95

; Don't change E values below. Excessive value can damage the printer.
M907 E430 ; set extruder motor current
G21 ; set units to millimeters
G90 ; use absolute coordinates
M83 ; use relative distances for extrusion
M900 K0 ; Filament gcode
M107
;LAYER_CHANGE
;Z:0.2
;HEIGHT:0.2
;BEFORE_LAYER_CHANGE
G92 E0.0
;0.2


G1 E-1 F2400
G1 Z.2 F720
;AFTER_LAYER_CHANGE
;0.2
G1 X89.164 Y88.724 F4200
G1 E1 F1500
M204 S300
;TYPE:Skirt/Brim
;WIDTH:0.5
G1 F1200
G1 X108.724 Y69.164 E1.1565
G1 X110.136 Y68.309 E.06902
G1 X111.169 Y68.151 E.04365
G1 X138.831 Y68.151 E1.1565
G1 X140.435 Y68.545 E.06902
G1 X141.276 Y69.164 E.04365
G1 X160.836 Y88.724 E1.1565
G1 X161.691 Y90.136 E.06902
G1 X161.849 Y91.169 E.04365
G1 X161.849 Y118.831 E1.1565
G1 X161.455 Y120.435 E.06902
G1 X160.836 Y121.276 E.04365
G1 X141.276 Y140.836 E1.1565
G1 X139.864 Y141.691 E.06902
M73 P0 R26
M73 Q0 S26
G1 X138.831 Y141.849 E.04365
G1 X111.169 Y141.849 E1.1565
G1 X109.565 Y141.455 E.06902
M73 P1 R26
M73 Q1 S26
G1 X108.724 Y140.836 E.04365
G1 X89.164 Y121.276 E1.1565
G1 X88.309 Y119.864 E.06902
G1 X88.151 Y118.831 E.04365
G1 X88.151 Y91.169 E1.1565
G1 X88.545 Y89.565 E.06902
G1 X89.128 Y88.772 E.04114
; printing object OV-PAM_h_24mm_standard_1F.stl id:0 copy 0
G1 E-1 F2400
G1 X158.038 Y118.577 F4200
G1 E1 F1500
;TYPE:External perimeter
;WIDTH:0.770616
G1 F1030.65
G1 X158.028 Y118.681 E.0069
G1 X157.939 Y118.789 E.00931
G1 X138.789 Y137.939 E1.80261
G1 X138.681 Y138.028 E.00931
G1 X138.541 Y138.042 E.00931
G1 X111.459 Y138.042 E1.80261
G1 X111.319 Y138.028 E.00931
G1 X111.211 Y137.939 E.00931
G1 X92.061 Y118.789 E1.80261
G1 X91.972 Y118.681 E.00931
G1 X91.958 Y118.541 E.00931
G1 X91.958 Y91.459 E1.80261
G1 X91.972 Y91.319 E.00931
G1 X92.061 Y91.211 E.00931
G1 X111.211 Y72.061 E1.80261
G1 X111.319 Y71.972 E.00931
G1 X111.459 Y71.958 E.00931
G1 X138.541 Y71.958 E1.80261
G1 X138.681 Y71.972 E.00931
G1 X138.789 Y72.061 E.00931
G1 X157.939 Y91.211 E1.80261
G1 X158.028 Y91.319 E.00931
G1 X158.042 Y91.459 E.00931
G1 X158.042 Y118.518 E1.80102
G1 X158.125 Y118.635 F4200
; stop printing object OV-PAM_h_24mm_standard_1F.stl id:0 copy 0
;LAYER_CHANGE
;Z:0.4
;HEIGHT:0.2
;BEFORE_LAYER_CHANGE
G92 E0.0
;0.4


M73 P2 R26
M73 Q2 S26
G1 E-1 F2400
G1 Z.4 F720
;AFTER_LAYER_CHANGE
;0.4
G1 X161.705 Y119.418 F4200
G1 E1 F1500
;TYPE:Skirt/Brim
;WIDTH:0.5
G1 F1200
G1 X161.455 Y120.435 E.04375
G1 X160.836 Y121.276 E.04365
G1 X141.276 Y140.836 E1.1565
G1 X139.864 Y141.691 E.06902
G1 X138.831 Y141.849 E.04365
G1 X111.169 Y141.849 E1.1565
G1 X109.565 Y141.455 E.06902
G1 X108.724 Y140.836 E.04365
G1 X89.164 Y121.276 E1.1565
G1 X88.309 Y119.864 E.06902
G1 X88.151 Y118.831 E.04365
G1 X88.151 Y91.169 E1.1565
G1 X88.545 Y89.565 E.06902
G1 X89.164 Y88.724 E.04365
G1 X108.724 Y69.164 E1.1565
G1 X110.136 Y68.309 E.06902
G1 X111.169 Y68.151 E.04365
G1 X138.831 Y68.151 E1.1565
G1 X140.435 Y68.545 E.06902
G1 X141.276 Y69.164 E.04365
G1 X160.836 Y88.724 E1.1565
G1 X161.691 Y90.136 E.06902
G1 X161.849 Y91.169 E.04365
G1 X161.849 Y118.831 E1.1565
G1 X161.719 Y119.36 E.02276
; printing object OV-PAM_h_24mm_standard_1F.stl id:0 copy 0
G1 E-1 F2400
G1 X158.204 Y118.601 F4200
G1 X158.206 Y118.578
G1 X158.04 Y118.564
G1 E1 F1500
;TYPE:External perimeter
;WIDTH:0.770616
G1 F1030.65
G1 X158.028 Y118.681 E.00781
G1 X157.939 Y118.789 E.00931
G1 X138.789 Y137.939 E1.80261
G1 X138.681 Y138.028 E.00931
G1 X138.541 Y138.042 E.00931
G1 X111.459 Y138.042 E1.80261
G1 X111.319 Y138.028 E.00931
M73 P3 R26
M73 Q3 S26
G1 X111.211 Y137.939 E.00931
G1 X92.061 Y118.789 E1.80261
G1 X91.972 Y118.681 E.00931
G1 X91.958 Y118.541 E.00931
G1 X91.958 Y91.459 E1.80261
G1 X91.972 Y91.319 E.00931
G1 X92.061 Y91.211 E.00931
G1 X111.211 Y72.061 E1.80261
G1 X111.319 Y71.972 E.00931
G1 X111.459 Y71.958 E.00931
G1 X138.541 Y71.958 E1.80261
G1 X138.681 Y71.972 E.00931
G1 X138.789 Y72.061 E.00931
G1 X157.939 Y91.211 E1.80261
G1 X158.028 Y91.319 E.00931
G1 X158.042 Y91.459 E.00931
G1 X158.042 Y118.504 E1.80012
G1 X158.137 Y118.629 F4200
; stop printing object OV-PAM_h_24mm_standard_1F.stl id:0 copy 0
;LAYER_CHANGE
;Z:0.6
;HEIGHT:0.2
;BEFORE_LAYER_CHANGE
G92 E0.0
;0.6


G1 E-1 F2400
G1 Z.6 F720
;AFTER_LAYER_CHANGE
;0.6
G1 X161.708 Y119.405 F4200
G1 E1 F1500
;TYPE:Skirt/Brim
;WIDTH:0.5
G1 F1200
G1 X161.455 Y120.435 E.0443
G1 X160.836 Y121.276 E.04365
G1 X141.276 Y140.836 E1.1565
G1 X139.864 Y141.691 E.06902
G1 X138.831 Y141.849 E.04365
G1 X111.169 Y141.849 E1.1565
G1 X109.565 Y141.455 E.06902
G1 X108.724 Y140.836 E.04365
G1 X89.164 Y121.276 E1.1565
G1 X88.309 Y119.864 E.06902
G1 X88.151 Y118.831 E.04365
G1 X88.151 Y91.169 E1.1565
G1 X88.545 Y89.565 E.06902
M73 P4 R26
M73 Q4 S26
G1 X89.164 Y88.724 E.04365
G1 X108.724 Y69.164 E1.1565
G1 X110.136 Y68.309 E.06902
G1 X111.169 Y68.151 E.04365
G1 X138.831 Y68.151 E1.1565
G1 X140.435 Y68.545 E.06902
G1 X141.276 Y69.164 E.04365
G1 X160.836 Y88.724 E1.1565
G1 X161.691 Y90.136 E.06902
G1 X161.849 Y91.169 E.04365
G1 X161.849 Y118.831 E1.1565
G1 X161.722 Y119.347 E.02221
; printing object OV-PAM_h_24mm_standard_1F.stl id:0 copy 0
G1 E-1 F2400
G1 X158.205 Y118.585 F4200
G1 X158.207 Y118.563
G1 X158.041 Y118.549
G1 E1 F1500
;TYPE:External perimeter
;WIDTH:0.770616
G1 F1030.65
G1 X158.028 Y118.681 E.00883
G1 X157.939 Y118.789 E.00931
G1 X138.789 Y137.939 E1.80261
G1 X138.681 Y138.028 E.00931
G1 X138.541 Y138.042 E.00931
G1 X111.459 Y138.042 E1.80261
G1 X111.319 Y138.028 E.00931
M73 P4 R25
M73 Q4 S25
G1 X111.211 Y137.939 E.00931
G1 X92.061 Y118.789 E1.80261
G1 X91.972 Y118.681 E.00931
G1 X91.958 Y118.541 E.00931
G1 X91.958 Y91.459 E1.80261
G1 X91.972 Y91.319 E.00931
G1 X92.061 Y91.211 E.00931
G1 X111.211 Y72.061 E1.80261
G1 X111.319 Y71.972 E.00931
G1 X111.459 Y71.958 E.00931
G1 X138.541 Y71.958 E1.80261
G1 X138.681 Y71.972 E.00931
M73 P5 R25
M73 Q5 S25
G1 X138.789 Y72.061 E.00931
G1 X157.939 Y91.211 E1.80261
G1 X158.028 Y91.319 E.00931
G1 X158.042 Y91.459 E.00931
G1 X158.042 Y118.489 E1.79909
G1 X158.151 Y118.622 F4200
; stop printing object OV-PAM_h_24mm_standard_1F.stl id:0 copy 0
;LAYER_CHANGE
;Z:0.8
;HEIGHT:0.2
;BEFORE_LAYER_CHANGE
G92 E0.0
;0.8


G1 E-1 F2400
G1 Z.8 F720
;AFTER_LAYER_CHANGE
;0.8
; printing object OV-PAM_h_24mm_standard_1F.stl id:0 copy 0
G1 X158.042 Y118.528 F4200
G1 E1 F1500
G1 F1030.65
G1 X158.028 Y118.681 E.01018
G1 X157.939 Y118.789 E.00931
G1 X138.789 Y137.939 E1.80261
G1 X138.681 Y138.028 E.00931
G1 X138.541 Y138.042 E.00931
G1 X111.459 Y138.042 E1.80261
G1 X111.319 Y138.028 E.00931
G1 X111.211 Y137.939 E.00931
G1 X92.061 Y118.789 E1.80261
G1 X91.972 Y118.681 E.00931
G1 X91.958 Y118.541 E.00931
G1 X91.958 Y91.459 E1.80261
G1 X91.972 Y91.319 E.00931
G1 X92.061 Y91.211 E.00931
G1 X111.211 Y72.061 E1.80261
G1 X111.319 Y71.972 E.00931
G1 X111.459 Y71.958 E.00931
G1 X138.541 Y71.958 E1.80261
G1 X138.681 Y71.972 E.00931
G1 X138.789 Y72.061 E.00931
G1 X157.939 Y91.211 E1.80261
G1 X158.028 Y91.319 E.00931
G1 X158.042 Y91.459 E.00931
G1 X158.042 Y118.468 E1.79774
G1 X158.169 Y118.613 F4200
; stop printing object OV-PAM_h_24mm_standard_1F.stl id:0 copy 0
;LAYER_CHANGE
;Z:1
;HEIGHT:0.2
;BEFORE_LAYER_CHANGE
G92 E0.0
;1


M73 P6 R25
M73 Q6 S25
G1 E-1 F2400
G1 Z1 F720
;AFTER_LAYER_CHANGE
;1
; printing object OV-PAM_h_24mm_standard_1F.stl id:0 copy 0
G1 X158.042 Y118.505 F4200
G1 E1 F1500
G1 F1030.65
G1 X158.028 Y118.681 E.01175
G1 X157.939 Y118.789 E.00931
G1 X138.789 Y137.939 E1.80261
G1 X138.681 Y138.028 E.00931
G1 X138.541 Y138.042 E.00931
G1 X111.459 Y138.042 E1.80261
G1 X111.319 Y138.028 E.00931
G1 X111.211 Y137.939 E.00931
G1 X92.061 Y118.789 E1.80261
G1 X91.972 Y118.681 E.00931
G1 X91.958 Y118.541 E.00931
G1 X91.958 Y91.459 E1.80261
G1 X91.972 Y91.319 E.00931
G1 X92.061 Y91.211 E.00931
G1 X111.211 Y72.061 E1.80261
G1 X111.319 Y71.972 E.00931
G1 X111.459 Y71.958 E.00931
G1 X138.541 Y71.958 E1.80261
G1 X138.681 Y71.972 E.00931
G1 X138.789 Y72.061 E.00931
G1 X157.939 Y91.211 E1.80261
G1 X158.028 Y91.319 E.00931
G1 X158.042 Y91.459 E.00931
G1 X158.042 Y118.445 E1.79616
G1 X158.19 Y118.601 F4200
; stop printing object OV-PAM_h_24mm_standard_1F.stl id:0 copy 0
;LAYER_CHANGE
;Z:1.2
;HEIGHT:0.2
;BEFORE_LAYER_CHANGE
G92 E0.0
;1.2


G1 E-1 F2400
G1 Z1.2 F720
;AFTER_LAYER_CHANGE
;1.2
; printing object OV-PAM_h_24mm_standard_1F.stl id:0 copy 0
G1 X158.032 Y118.474 F4200
G1 E1 F1500
;WIDTH:0.791009
G1 F1002.555
G1 X158.018 Y118.676 E.0139
G1 X157.927 Y118.788 E.00984
G1 X138.788 Y137.927 E1.85201
G1 X138.676 Y138.018 E.00984
G1 X138.533 Y138.032 E.00984
G1 X111.467 Y138.032 E1.85201
G1 X111.324 Y138.018 E.00984
M73 P7 R25
M73 Q7 S25
G1 X111.212 Y137.927 E.00984
G1 X92.073 Y118.788 E1.85201
G1 X91.982 Y118.676 E.00984
G1 X91.968 Y118.533 E.00984
G1 X91.968 Y91.467 E1.85201
G1 X91.982 Y91.324 E.00984
G1 X92.073 Y91.212 E.00984
G1 X111.212 Y72.073 E1.85201
G1 X111.324 Y71.982 E.00984
G1 X111.467 Y71.968 E.00984
G1 X138.533 Y71.968 E1.85201
G1 X138.676 Y71.982 E.00984
G1 X138.788 Y72.073 E.00984
G1 X157.927 Y91.212 E1.85201
G1 X158.018 Y91.324 E.00984
G1 X158.032 Y91.467 E.00984
G1 X158.032 Y118.414 E1.84384
G1 X158.203 Y118.583 F4200
; stop printing object OV-PAM_h_24mm_standard_1F.stl id:0 copy 0
;LAYER_CHANGE
;Z:1.4
;HEIGHT:0.2
;BEFORE_LAYER_CHANGE
G92 E0.0
;1.4


G1 E-1 F2400
G1 Z1.4 F720
;AFTER_LAYER_CHANGE
;1.4
; printing object OV-PAM_h_24mm_standard_1F.stl id:0 copy 0
G1 X157.845 Y118.419 F4200
G1 E1 F1500
;WIDTH:0.643115
G1 F1200
G1 X157.834 Y118.6 E.00997
G1 X157.761 Y118.69 E.00634
G1 X138.6 Y137.834 E1.48693
G1 X111.4 Y137.834 E1.49323
G1 X92.166 Y118.6 E1.49323
G1 X92.166 Y91.4 E1.49323
G1 X111.4 Y72.166 E1.49323
G1 X138.6 Y72.166 E1.49323
M73 P8 R25
M73 Q8 S25
G1 X157.834 Y91.4 E1.49323
G1 X157.845 Y118.359 E1.47999
G1 X158.01 Y118.495 F4200
; stop printing object OV-PAM_h_24mm_standard_1F.stl id:0 copy 0
;LAYER_CHANGE
;Z:1.6
;HEIGHT:0.2
;BEFORE_LAYER_CHANGE
G92 E0.0
;1.6


M73 P8 R24
M73 Q8 S24
G1 E-1 F2400
G1 Z1.6 F720
;AFTER_LAYER_CHANGE
;1.6
; printing object OV-PAM_h_24mm_standard_1F.stl id:0 copy 0
G1 X157.73 Y118.361 F4200
G1 E1 F1500
;WIDTH:0.645282
G1 F1200
G1 X157.722 Y118.548 E.01029
G1 X157.645 Y118.642 E.00666
G1 X138.558 Y137.717 E1.48678
G1 X111.452 Y137.722 E1.4934
G1 X92.283 Y118.558 E1.4934
G1 X92.278 Y91.452 E1.4934
G1 X111.442 Y72.283 E1.4934
G1 X138.548 Y72.278 E1.4934
G1 X157.717 Y91.442 E1.4934
G1 X157.73 Y118.301 E1.47981
G1 X157.578 Y118.471 F4200
; stop printing object OV-PAM_h_24mm_standard_1F.stl id:0 copy 0
;LAYER_CHANGE
;Z:1.8
;HEIGHT:0.2
;BEFORE_LAYER_CHANGE
G92 E0.0
;1.8


G1 E-1 F2400
G1 Z1.8 F720
;AFTER_LAYER_CHANGE
;1.8
; printing object OV-PAM_h_24mm_standard_1F.stl id:0 copy 0
G1 X157.615 Y118.269 F4200
G1 E1 F1500
;WIDTH:0.662397
G1 F1200
G1 X157.625 Y118.469 E.01135
G1 X157.53 Y118.594 E.00892
M73 P9 R24
M73 Q9 S24
G1 X138.546 Y137.593 E1.52182
G1 X138.39 Y137.615 E.00892
G1 X111.531 Y137.625 E1.52182
G1 X111.406 Y137.53 E.00892
G1 X92.407 Y118.546 E1.52182
G1 X92.385 Y118.39 E.00892
G1 X92.375 Y91.531 E1.52182
G1 X92.47 Y91.406 E.00892
G1 X111.454 Y72.407 E1.52182
G1 X111.61 Y72.385 E.00892
G1 X138.469 Y72.375 E1.52182
G1 X138.594 Y72.47 E.00892
G1 X157.593 Y91.454 E1.52182
G1 X157.615 Y91.61 E.00892
G1 X157.615 Y118.209 E1.50709
G1 X157.445 Y118.375 F4200
; stop printing object OV-PAM_h_24mm_standard_1F.stl id:0 copy 0
;LAYER_CHANGE
;Z:2
;HEIGHT:0.2
;BEFORE_LAYER_CHANGE
G92 E0.0
;2


G1 E-1 F2400
G1 Z2 F720
;AFTER_LAYER_CHANGE
;2
; printing object OV-PAM_h_24mm_standard_1F.stl id:0 copy 0
G1 X157.499 Y118.118 F4200
G1 E1 F1500
;WIDTH:0.620272
G1 F1200
G1 X157.513 Y118.254 E.00721
;WIDTH:0.674402
G1 F1187.682
G1 X157.535 Y118.372 E.00697
;WIDTH:0.695581
G1 F1149.142
G1 X157.415 Y118.546 E.01265
;WIDTH:0.620272
G1 F1200
G1 X138.671 Y137.29 E1.39978
G1 X138.618 Y137.362 E.00472
;WIDTH:0.674401
G1 F1187.686
G1 X138.55 Y137.461 E.00697
G1 X138.342 Y137.499 E.01224
;WIDTH:0.620272
G1 F1200
G1 X111.835 Y137.499 E1.39978
G1 X111.746 Y137.513 E.00472
;WIDTH:0.674402
G1 F1187.682
G1 X111.628 Y137.535 E.00697
G1 X111.454 Y137.415 E.01224
;WIDTH:0.620272
G1 F1200
G1 X92.71 Y118.671 E1.39978
G1 X92.638 Y118.618 E.00472
;WIDTH:0.674401
G1 F1187.686
G1 X92.539 Y118.55 E.00697
G1 X92.501 Y118.342 E.01224
;WIDTH:0.620272
G1 F1200
G1 X92.501 Y91.835 E1.39978
G1 X92.487 Y91.746 E.00472
;WIDTH:0.674402
M73 P10 R24
M73 Q10 S24
G1 F1187.682
G1 X92.465 Y91.628 E.00697
G1 X92.585 Y91.454 E.01224
;WIDTH:0.620272
G1 F1200
G1 X111.329 Y72.71 E1.39978
G1 X111.382 Y72.638 E.00472
;WIDTH:0.674401
G1 F1187.686
G1 X111.45 Y72.539 E.00697
G1 X111.658 Y72.501 E.01224
;WIDTH:0.620272
G1 F1200
G1 X138.165 Y72.501 E1.39978
G1 X138.254 Y72.487 E.00472
;WIDTH:0.674402
G1 F1187.682
G1 X138.372 Y72.465 E.00697
G1 X138.546 Y72.585 E.01224
;WIDTH:0.620271
G1 F1200
G1 X157.29 Y91.329 E1.39978
G1 X157.362 Y91.382 E.00472
;WIDTH:0.674401
G1 F1187.686
G1 X157.461 Y91.45 E.00697
G1 X157.499 Y91.658 E.01224
;WIDTH:0.620272
G1 F1200
G1 X157.499 Y118.058 E1.39411
; stop printing object OV-PAM_h_24mm_standard_1F.stl id:0 copy 0
;LAYER_CHANGE
;Z:2.2
;HEIGHT:0.2
;BEFORE_LAYER_CHANGE
G92 E0.0
;2.2


G1 E-1 F2400
G1 Z2.2 F720
;AFTER_LAYER_CHANGE
;2.2
; printing object OV-PAM_h_24mm_standard_1F.stl id:0 copy 0
G1 X157.436 Y118.287 F4200
G1 E1 F1500
;WIDTH:0.743373
G1 F1070.736
G1 X157.366 Y118.396 E.00829
;WIDTH:0.6698
G1 F1196.402
G1 X157.299 Y118.498 E.007
G1 X138.707 Y137.09 E1.50756
G1 X138.611 Y137.245 E.01046
;WIDTH:0.743373
G1 F1070.736
G1 X138.562 Y137.322 E.00584
G1 X138.414 Y137.359 E.00981
;WIDTH:0.669799
G1 F1196.403
G1 X138.294 Y137.384 E.007
G1 X112.001 Y137.384 E1.50756
G1 X111.824 Y137.425 E.01046
;WIDTH:0.743374
G1 F1070.734
G1 X111.735 Y137.445 E.00584
G1 X111.604 Y137.366 E.00981
;WIDTH:0.6698
G1 F1196.402
G1 X111.502 Y137.299 E.007
G1 X92.91 Y118.707 E1.50756
G1 X92.755 Y118.611 E.01046
;WIDTH:0.743373
G1 F1070.736
G1 X92.678 Y118.562 E.00584
G1 X92.641 Y118.414 E.00981
;WIDTH:0.669799
G1 F1196.403
G1 X92.616 Y118.294 E.007
G1 X92.616 Y92.001 E1.50756
G1 X92.575 Y91.824 E.01046
;WIDTH:0.743374
G1 F1070.734
G1 X92.555 Y91.735 E.00584
G1 X92.634 Y91.604 E.00981
;WIDTH:0.6698
G1 F1196.402
G1 X92.701 Y91.502 E.007
G1 X111.293 Y72.91 E1.50756
G1 X111.389 Y72.755 E.01046
;WIDTH:0.743373
G1 F1070.736
G1 X111.438 Y72.678 E.00584
G1 X111.586 Y72.641 E.00981
;WIDTH:0.669799
G1 F1196.403
G1 X111.706 Y72.616 E.007
G1 X137.999 Y72.616 E1.50756
G1 X138.176 Y72.575 E.01046
;WIDTH:0.743374
G1 F1070.734
G1 X138.265 Y72.555 E.00584
G1 X138.396 Y72.634 E.00981
;WIDTH:0.6698
G1 F1196.402
G1 X138.498 Y72.701 E.007
G1 X157.09 Y91.293 E1.50756
G1 X157.245 Y91.389 E.01046
;WIDTH:0.743373
G1 F1070.736
G1 X157.322 Y91.438 E.00584
G1 X157.359 Y91.586 E.00981
;WIDTH:0.669799
G1 F1196.403
G1 X157.384 Y91.706 E.007
G1 X157.384 Y117.999 E1.50756
G1 X157.425 Y118.176 E.01046
;WIDTH:0.743374
M73 P11 R24
M73 Q11 S24
G1 F1070.734
G1 X157.437 Y118.23 E.00354
; stop printing object OV-PAM_h_24mm_standard_1F.stl id:0 copy 0
