; generated by PrusaSlicer 2.5.2+win64 on 2023-10-26 at 05:59:03 UTC


;
;
; 

; external perimeters extrusion width = 0.50mm
; perimeters extrusion width = 0.50mm
; infill extrusion width = 0.50mm
; solid infill extrusion width = 0.50mm
; top infill extrusion width = 0.50mm
; first layer extrusion width = 0.50mm

M73 P0 R21
M73 Q0 S21
M201 X1000 Y1000 Z200 E5000 ; sets maximum accelerations, mm/sec^2
M203 X200 Y200 Z12 E120 ; sets maximum feedrates, mm / sec
M204 P1250 R1250 T1250 ; sets acceleration (P, T) and retract acceleration (R), mm/sec^2
M205 X8.00 Y8.00 Z0.40 E4.50 ; sets the jerk limits, mm/sec
M205 S0 T0 ; sets the minimum extruding and travel feed rate, mm/sec
M107
;TYPE:Custom
M862.3 P "MK3S" ; printer model check
M862.1 P0.4 ; nozzle diameter check
M115 U3.12.2 ; tell printer latest fw version
G90 ; use absolute coordinates
M83 ; extruder relative mode
M104 S240 ; set extruder temp
M140 S60 ; set bed temp
M190 S60 ; wait for bed temp
M109 S240 ; wait for extruder temp
G28 W ; home all without mesh bed level
G80 ; mesh bed leveling

G1 Z0.2 F720
G1 Y-3 F1000 ; go outside print area
G92 E0
G1 X60 E9 F1000 ; intro line
G1 X100 E12.5 F1000 ; intro line

G92 E0
M221 S95

; Don't change E values below. Excessive value can damage the printer.
M907 E430 ; set extruder motor current
G21 ; set units to millimeters
G90 ; use absolute coordinates
M83 ; use relative distances for extrusion
M900 K0 ; Filament gcode
M107
;LAYER_CHANGE
;Z:0.2
;HEIGHT:0.2
;BEFORE_LAYER_CHANGE
G92 E0.0
;0.2


G1 E-1 F2400
G1 Z.2 F720
;AFTER_LAYER_CHANGE
;0.2
G1 X89.164 Y88.724 F4200
G1 E1 F1500
M204 S300
;TYPE:Skirt/Brim
;WIDTH:0.5
G1 F1200
G1 X108.724 Y69.164 E1.1565
G1 X110.136 Y68.309 E.06902
G1 X111.169 Y68.151 E.04365
G1 X138.831 Y68.151 E1.1565
G1 X140.435 Y68.545 E.06902
G1 X141.276 Y69.164 E.04365
G1 X160.836 Y88.724 E1.1565
G1 X161.691 Y90.136 E.06902
G1 X161.849 Y91.169 E.04365
G1 X161.849 Y118.831 E1.1565
G1 X161.455 Y120.435 E.06902
M73 P1 R21
M73 Q1 S21
G1 X160.836 Y121.276 E.04365
G1 X141.276 Y140.836 E1.1565
G1 X139.864 Y141.691 E.06902
G1 X138.831 Y141.849 E.04365
G1 X111.169 Y141.849 E1.1565
G1 X109.565 Y141.455 E.06902
G1 X108.724 Y140.836 E.04365
G1 X89.164 Y121.276 E1.1565
G1 X88.309 Y119.864 E.06902
G1 X88.151 Y118.831 E.04365
G1 X88.151 Y91.169 E1.1565
G1 X88.545 Y89.565 E.06902
G1 X89.128 Y88.772 E.04114
; printing object OV-PAM_h_18mm_1F.stl id:0 copy 0
G1 E-1 F2400
G1 X111.316 Y138.026 F4200
G1 E1 F1500
;TYPE:External perimeter
;WIDTH:0.770616
G1 F1030.65
G1 X111.211 Y137.939 E.00906
G1 X92.061 Y118.789 E1.80261
G1 X91.972 Y118.681 E.00931
G1 X91.958 Y118.541 E.00931
G1 X91.958 Y91.459 E1.80261
G1 X91.972 Y91.319 E.00931
G1 X92.061 Y91.211 E.00931
G1 X111.211 Y72.061 E1.80261
G1 X111.319 Y71.972 E.00931
G1 X111.459 Y71.958 E.00931
G1 X138.541 Y71.958 E1.80261
G1 X138.681 Y71.972 E.00931
M73 P2 R21
M73 Q2 S21
G1 X138.789 Y72.061 E.00931
G1 X157.939 Y91.211 E1.80261
G1 X158.028 Y91.319 E.00931
G1 X158.042 Y91.459 E.00931
G1 X158.042 Y118.541 E1.80261
G1 X158.028 Y118.681 E.00931
G1 X157.939 Y118.789 E.00931
G1 X138.789 Y137.939 E1.80261
G1 X138.681 Y138.028 E.00931
M73 P2 R20
M73 Q2 S20
G1 X138.541 Y138.042 E.00931
G1 X111.375 Y138.034 E1.80815
G1 X111.203 Y138.101 F4200
; stop printing object OV-PAM_h_18mm_1F.stl id:0 copy 0
;LAYER_CHANGE
;Z:0.4
;HEIGHT:0.2
;BEFORE_LAYER_CHANGE
G92 E0.0
;0.4


G1 E-1 F2400
G1 Z.4 F720
;AFTER_LAYER_CHANGE
;0.4
G1 X110.479 Y141.679 F4200
G1 E1 F1500
;TYPE:Skirt/Brim
;WIDTH:0.5
G1 F1200
G1 X109.565 Y141.455 E.03932
G1 X108.724 Y140.836 E.04365
G1 X89.164 Y121.276 E1.1565
G1 X88.309 Y119.864 E.06902
G1 X88.151 Y118.831 E.04365
G1 X88.151 Y91.169 E1.1565
G1 X88.545 Y89.565 E.06902
G1 X89.164 Y88.724 E.04365
G1 X108.724 Y69.164 E1.1565
G1 X110.136 Y68.309 E.06902
G1 X111.169 Y68.151 E.04365
G1 X138.831 Y68.151 E1.1565
M73 P3 R20
M73 Q3 S20
G1 X140.435 Y68.545 E.06902
G1 X141.276 Y69.164 E.04365
G1 X160.836 Y88.724 E1.1565
G1 X161.691 Y90.136 E.06902
G1 X161.849 Y91.169 E.04365
G1 X161.849 Y118.831 E1.1565
G1 X161.455 Y120.435 E.06902
G1 X160.836 Y121.276 E.04365
G1 X141.276 Y140.836 E1.1565
G1 X139.864 Y141.691 E.06902
G1 X138.831 Y141.849 E.04365
G1 X111.169 Y141.849 E1.1565
G1 X110.537 Y141.694 E.02719
; printing object OV-PAM_h_18mm_1F.stl id:0 copy 0
G1 E-1 F2400
G1 X111.385 Y137.871 F4200
G1 X111.385 Y137.871
G1 X111.348 Y138.031
G1 E1 F1500
;TYPE:External perimeter
;WIDTH:0.770616
G1 F1030.65
G1 X111.319 Y138.028 E.00191
G1 X111.211 Y137.939 E.00931
G1 X92.061 Y118.789 E1.80261
G1 X91.972 Y118.681 E.00931
G1 X91.958 Y118.541 E.00931
G1 X91.958 Y91.459 E1.80261
G1 X91.972 Y91.319 E.00931
G1 X92.061 Y91.211 E.00931
G1 X111.211 Y72.061 E1.80261
G1 X111.319 Y71.972 E.00931
G1 X111.459 Y71.958 E.00931
G1 X138.541 Y71.958 E1.80261
G1 X138.681 Y71.972 E.00931
M73 P4 R20
M73 Q4 S20
G1 X138.789 Y72.061 E.00931
G1 X157.939 Y91.211 E1.80261
G1 X158.028 Y91.319 E.00931
G1 X158.042 Y91.459 E.00931
G1 X158.042 Y118.541 E1.80261
G1 X158.028 Y118.681 E.00931
G1 X157.939 Y118.789 E.00931
G1 X138.789 Y137.939 E1.80261
G1 X138.681 Y138.028 E.00931
G1 X138.541 Y138.042 E.00931
G1 X111.408 Y138.037 E1.806
G1 X111.332 Y138.055 F4200
; stop printing object OV-PAM_h_18mm_1F.stl id:0 copy 0
;LAYER_CHANGE
;Z:0.6
;HEIGHT:0.2
;BEFORE_LAYER_CHANGE
G92 E0.0
;0.6


G1 E-1 F2400
G1 Z.6 F720
;AFTER_LAYER_CHANGE
;0.6
G1 X110.51 Y141.687 F4200
G1 E1 F1500
;TYPE:Skirt/Brim
;WIDTH:0.5
G1 F1200
G1 X109.565 Y141.455 E.04067
G1 X108.724 Y140.836 E.04365
G1 X89.164 Y121.276 E1.1565
G1 X88.309 Y119.864 E.06902
G1 X88.151 Y118.831 E.04365
G1 X88.151 Y91.169 E1.1565
G1 X88.545 Y89.565 E.06902
G1 X89.164 Y88.724 E.04365
G1 X108.724 Y69.164 E1.1565
G1 X110.136 Y68.309 E.06902
G1 X111.169 Y68.151 E.04365
G1 X138.831 Y68.151 E1.1565
G1 X140.435 Y68.545 E.06902
M73 P5 R20
M73 Q5 S20
G1 X141.276 Y69.164 E.04365
G1 X160.836 Y88.724 E1.1565
G1 X161.691 Y90.136 E.06902
G1 X161.849 Y91.169 E.04365
G1 X161.849 Y118.831 E1.1565
G1 X161.455 Y120.435 E.06902
G1 X160.836 Y121.276 E.04365
G1 X141.276 Y140.836 E1.1565
G1 X139.864 Y141.691 E.06902
G1 X138.831 Y141.849 E.04365
G1 X111.169 Y141.849 E1.1565
G1 X110.568 Y141.701 E.02585
; printing object OV-PAM_h_18mm_1F.stl id:0 copy 0
G1 E-1 F2400
G1 X111.385 Y137.871 F4200
G1 X111.385 Y137.871
G1 X111.381 Y138.034
G1 E1 F1500
;TYPE:External perimeter
;WIDTH:0.770616
G1 F1030.65
G1 X111.319 Y138.028 E.00414
G1 X111.211 Y137.939 E.00931
G1 X92.061 Y118.789 E1.80261
G1 X91.972 Y118.681 E.00931
G1 X91.958 Y118.541 E.00931
G1 X91.958 Y91.459 E1.80261
G1 X91.972 Y91.319 E.00931
G1 X92.061 Y91.211 E.00931
G1 X111.211 Y72.061 E1.80261
G1 X111.319 Y71.972 E.00931
G1 X111.459 Y71.958 E.00931
G1 X138.541 Y71.958 E1.80261
G1 X138.681 Y71.972 E.00931
M73 P6 R20
M73 Q6 S20
G1 X138.789 Y72.061 E.00931
G1 X157.939 Y91.211 E1.80261
G1 X158.028 Y91.319 E.00931
G1 X158.042 Y91.459 E.00931
G1 X158.042 Y118.541 E1.80261
G1 X158.028 Y118.681 E.00931
G1 X157.939 Y118.789 E.00931
G1 X138.789 Y137.939 E1.80261
G1 X138.681 Y138.028 E.00931
G1 X138.541 Y138.042 E.00931
G1 X111.441 Y138.04 E1.80378
G1 X111.347 Y138.086 F4200
; stop printing object OV-PAM_h_18mm_1F.stl id:0 copy 0
;LAYER_CHANGE
;Z:0.8
;HEIGHT:0.2
;BEFORE_LAYER_CHANGE
G92 E0.0
;0.8


G1 E-1 F2400
G1 Z.8 F720
;AFTER_LAYER_CHANGE
;0.8
; printing object OV-PAM_h_18mm_1F.stl id:0 copy 0
G1 X111.418 Y138.038 F4200
G1 E1 F1500
G1 F1030.65
G1 X111.319 Y138.028 E.00662
G1 X111.211 Y137.939 E.00931
G1 X92.061 Y118.789 E1.80261
G1 X91.972 Y118.681 E.00931
G1 X91.958 Y118.541 E.00931
G1 X91.958 Y91.459 E1.80261
G1 X91.972 Y91.319 E.00931
G1 X92.061 Y91.211 E.00931
G1 X111.211 Y72.061 E1.80261
G1 X111.319 Y71.972 E.00931
G1 X111.459 Y71.958 E.00931
G1 X138.541 Y71.958 E1.80261
G1 X138.681 Y71.972 E.00931
M73 P7 R19
M73 Q7 S19
G1 X138.789 Y72.061 E.00931
G1 X157.939 Y91.211 E1.80261
G1 X158.028 Y91.319 E.00931
G1 X158.042 Y91.459 E.00931
G1 X158.042 Y118.541 E1.80261
G1 X158.028 Y118.681 E.00931
G1 X157.939 Y118.789 E.00931
G1 X138.789 Y137.939 E1.80261
G1 X138.681 Y138.028 E.00931
G1 X138.541 Y138.042 E.00931
G1 X111.478 Y138.042 E1.80131
G1 X111.363 Y138.12 F4200
; stop printing object OV-PAM_h_18mm_1F.stl id:0 copy 0
;LAYER_CHANGE
;Z:1
;HEIGHT:0.2
;BEFORE_LAYER_CHANGE
G92 E0.0
;1


G1 E-1 F2400
G1 Z1 F720
;AFTER_LAYER_CHANGE
;1
; printing object OV-PAM_h_18mm_1F.stl id:0 copy 0
G1 X111.467 Y138.042 F4200
G1 E1 F1500
G1 F1030.65
G1 X111.319 Y138.028 E.00988
G1 X111.211 Y137.939 E.00931
G1 X92.061 Y118.789 E1.80261
G1 X91.972 Y118.681 E.00931
G1 X91.958 Y118.541 E.00931
G1 X91.958 Y91.459 E1.80261
G1 X91.972 Y91.319 E.00931
G1 X92.061 Y91.211 E.00931
G1 X111.211 Y72.061 E1.80261
G1 X111.319 Y71.972 E.00931
G1 X111.459 Y71.958 E.00931
G1 X138.541 Y71.958 E1.80261
G1 X138.681 Y71.972 E.00931
M73 P8 R19
M73 Q8 S19
G1 X138.789 Y72.061 E.00931
G1 X157.939 Y91.211 E1.80261
G1 X158.028 Y91.319 E.00931
G1 X158.042 Y91.459 E.00931
G1 X158.042 Y118.541 E1.80261
G1 X158.028 Y118.681 E.00931
G1 X157.939 Y118.789 E.00931
G1 X138.789 Y137.939 E1.80261
G1 X138.681 Y138.028 E.00931
G1 X138.541 Y138.042 E.00931
G1 X111.527 Y138.042 E1.79805
G1 X111.385 Y138.166 F4200
; stop printing object OV-PAM_h_18mm_1F.stl id:0 copy 0
;LAYER_CHANGE
;Z:1.2
;HEIGHT:0.2
;BEFORE_LAYER_CHANGE
G92 E0.0
;1.2


G1 E-1 F2400
G1 Z1.2 F720
;AFTER_LAYER_CHANGE
;1.2
; printing object OV-PAM_h_18mm_1F.stl id:0 copy 0
G1 X111.518 Y138.032 F4200
G1 E1 F1500
;WIDTH:0.791009
G1 F1002.555
G1 X111.324 Y138.018 E.01334
G1 X111.212 Y137.927 E.00984
G1 X92.073 Y118.788 E1.85201
G1 X91.982 Y118.676 E.00984
G1 X91.968 Y118.533 E.00984
G1 X91.968 Y91.467 E1.85201
G1 X91.982 Y91.324 E.00984
G1 X92.073 Y91.212 E.00984
G1 X111.212 Y72.073 E1.85201
G1 X111.324 Y71.982 E.00984
G1 X111.467 Y71.968 E.00984
G1 X138.533 Y71.968 E1.85201
G1 X138.676 Y71.982 E.00984
M73 P9 R19
M73 Q9 S19
G1 X138.788 Y72.073 E.00984
G1 X157.927 Y91.212 E1.85201
G1 X158.018 Y91.324 E.00984
G1 X158.032 Y91.467 E.00984
G1 X158.032 Y118.533 E1.85201
G1 X158.018 Y118.676 E.00984
G1 X157.927 Y118.788 E.00984
G1 X138.788 Y137.927 E1.85201
G1 X138.676 Y138.018 E.00984
G1 X138.533 Y138.032 E.00984
G1 X111.578 Y138.032 E1.8444
G1 X111.412 Y138.196 F4200
; stop printing object OV-PAM_h_18mm_1F.stl id:0 copy 0
;LAYER_CHANGE
;Z:1.4
;HEIGHT:0.2
;BEFORE_LAYER_CHANGE
G92 E0.0
;1.4


G1 E-1 F2400
G1 Z1.4 F720
;AFTER_LAYER_CHANGE
;1.4
; printing object OV-PAM_h_18mm_1F.stl id:0 copy 0
G1 X111.594 Y137.845 F4200
G1 E1 F1500
;WIDTH:0.643113
G1 F1200
G1 X111.4 Y137.834 E.01066
G1 X111.31 Y137.761 E.00634
G1 X92.166 Y118.6 E1.48692
G1 X92.166 Y91.4 E1.49323
G1 X111.4 Y72.166 E1.49323
G1 X138.6 Y72.166 E1.49323
G1 X157.834 Y91.4 E1.49323
M73 P10 R19
M73 Q10 S19
G1 X157.834 Y118.6 E1.49323
G1 X138.6 Y137.834 E1.49323
G1 X111.654 Y137.845 E1.47929
G1 X111.512 Y138.022 F4200
; stop printing object OV-PAM_h_18mm_1F.stl id:0 copy 0
;LAYER_CHANGE
;Z:1.6
;HEIGHT:0.2
;BEFORE_LAYER_CHANGE
G92 E0.0
;1.6


G1 E-1 F2400
G1 Z1.6 F720
;AFTER_LAYER_CHANGE
;1.6
; printing object OV-PAM_h_18mm_1F.stl id:0 copy 0
G1 X111.685 Y137.73 F4200
G1 E1 F1500
;WIDTH:0.655611
G1 F1200
G1 X111.472 Y137.734 E.01197
G1 X111.358 Y137.645 E.00807
G1 X92.288 Y118.58 E1.51117
G1 X92.27 Y118.438 E.00807
G1 X92.266 Y91.472 E1.51117
G1 X92.355 Y91.358 E.00807
G1 X111.42 Y72.288 E1.51117
G1 X111.562 Y72.27 E.00807
G1 X138.528 Y72.266 E1.51117
G1 X138.642 Y72.355 E.00807
G1 X157.712 Y91.42 E1.51117
G1 X157.73 Y91.562 E.00807
M73 P11 R19
M73 Q11 S19
G1 X157.734 Y118.528 E1.51117
G1 X157.645 Y118.642 E.00807
G1 X138.58 Y137.712 E1.51117
G1 X138.438 Y137.73 E.00807
G1 X111.745 Y137.73 E1.49584
G1 X111.576 Y137.546 F4200
; stop printing object OV-PAM_h_18mm_1F.stl id:0 copy 0
;LAYER_CHANGE
;Z:1.8
;HEIGHT:0.2
;BEFORE_LAYER_CHANGE
G92 E0.0
;1.8


G1 E-1 F2400
G1 Z1.8 F720
;AFTER_LAYER_CHANGE
;1.8
; printing object OV-PAM_h_18mm_1F.stl id:0 copy 0
G1 X111.733 Y137.627 F4200
G1 E1 F1500
;WIDTH:0.62027
G1 F1200
G1 X111.709 Y137.631 E.0013
;WIDTH:0.687378
G1 F1163.769
G1 X111.59 Y137.655 E.00716
G1 X111.406 Y137.53 E.01309
;WIDTH:0.62027
G1 F1200
G1 X92.609 Y118.733 E1.40377
G1 X92.528 Y118.675 E.00527
;WIDTH:0.687377
G1 F1163.77
G1 X92.427 Y118.608 E.00716
G1 X92.385 Y118.39 E.01309
;WIDTH:0.62027
G1 F1200
G1 X92.385 Y91.807 E1.40377
G1 X92.369 Y91.709 E.00527
;WIDTH:0.687378
G1 F1163.769
G1 X92.345 Y91.59 E.00716
G1 X92.47 Y91.406 E.01309
;WIDTH:0.62027
G1 F1200
G1 X111.267 Y72.609 E1.40377
G1 X111.325 Y72.528 E.00527
;WIDTH:0.687377
G1 F1163.77
G1 X111.392 Y72.427 E.00716
G1 X111.61 Y72.385 E.01309
;WIDTH:0.62027
G1 F1200
G1 X138.193 Y72.385 E1.40377
G1 X138.291 Y72.369 E.00527
;WIDTH:0.687378
M73 P11 R18
M73 Q11 S18
G1 F1163.769
G1 X138.41 Y72.345 E.00716
G1 X138.594 Y72.47 E.01309
;WIDTH:0.620269
G1 F1200
G1 X157.391 Y91.267 E1.40377
G1 X157.472 Y91.325 E.00527
;WIDTH:0.687377
G1 F1163.77
G1 X157.573 Y91.392 E.00716
G1 X157.615 Y91.61 E.01309
;WIDTH:0.62027
G1 F1200
G1 X157.615 Y118.193 E1.40377
G1 X157.631 Y118.291 E.00527
;WIDTH:0.687378
G1 F1163.769
G1 X157.655 Y118.41 E.00716
;WIDTH:0.702754
G1 F1136.65
G1 X157.53 Y118.594 E.0134
;WIDTH:0.62027
G1 F1200
G1 X138.733 Y137.391 E1.40377
G1 X138.675 Y137.472 E.00527
;WIDTH:0.687377
M73 P12 R18
M73 Q12 S18
G1 F1163.77
G1 X138.608 Y137.573 E.00716
G1 X138.39 Y137.615 E.01309
;WIDTH:0.62027
G1 F1200
G1 X111.792 Y137.617 E1.40456
; stop printing object OV-PAM_h_18mm_1F.stl id:0 copy 0
;LAYER_CHANGE
;Z:2
;HEIGHT:0.2
;BEFORE_LAYER_CHANGE
G92 E0.0
;2


G1 E-1 F2400
G1 Z2 F720
;AFTER_LAYER_CHANGE
;2
; printing object OV-PAM_h_18mm_1F.stl id:0 copy 0
G1 X111.899 Y137.533 F4200
G1 E1 F1500
;WIDTH:0.69882
G1 F1143.467
G1 X111.803 Y137.558 E.00594
;WIDTH:0.77737
G1 F1021.172
G1 X111.728 Y137.578 E.00523
G1 X111.658 Y137.549 E.00509
;WIDTH:0.719327
G1 F1108.8
G1 X111.454 Y137.415 E.01511
;WIDTH:0.620269
G1 F1200
G1 X92.848 Y118.809 E1.38951
G1 X92.781 Y118.769 E.00411
;WIDTH:0.698818
G1 F1143.47
G1 X92.647 Y118.691 E.00934
;WIDTH:0.777368
G1 F1021.175
G1 X92.579 Y118.651 E.00523
G1 X92.55 Y118.581 E.00509
;WIDTH:0.719328
G1 F1108.798
G1 X92.501 Y118.342 E.01511
;WIDTH:0.62027
G1 F1200
G1 X92.501 Y92.029 E1.38951
G1 X92.481 Y91.954 E.00411
;WIDTH:0.69882
G1 F1143.467
G1 X92.442 Y91.803 E.00934
;WIDTH:0.77737
G1 F1021.172
G1 X92.422 Y91.728 E.00523
G1 X92.451 Y91.658 E.00509
;WIDTH:0.719327
G1 F1108.8
G1 X92.585 Y91.454 E.01511
;WIDTH:0.620269
G1 F1200
G1 X111.191 Y72.848 E1.38951
G1 X111.231 Y72.781 E.00411
;WIDTH:0.698818
G1 F1143.47
G1 X111.309 Y72.647 E.00934
;WIDTH:0.777368
G1 F1021.175
G1 X111.349 Y72.579 E.00523
G1 X111.419 Y72.55 E.00509
;WIDTH:0.719328
G1 F1108.798
G1 X111.658 Y72.501 E.01511
;WIDTH:0.62027
G1 F1200
G1 X137.971 Y72.501 E1.38951
G1 X138.046 Y72.481 E.00411
;WIDTH:0.69882
G1 F1143.467
G1 X138.197 Y72.442 E.00934
;WIDTH:0.77737
G1 F1021.172
G1 X138.272 Y72.422 E.00523
G1 X138.342 Y72.451 E.00509
;WIDTH:0.719327
G1 F1108.8
G1 X138.546 Y72.585 E.01511
;WIDTH:0.620269
G1 F1200
G1 X157.152 Y91.191 E1.38951
G1 X157.219 Y91.231 E.00411
;WIDTH:0.698818
G1 F1143.47
G1 X157.353 Y91.309 E.00934
;WIDTH:0.777368
G1 F1021.175
G1 X157.421 Y91.349 E.00523
G1 X157.45 Y91.419 E.00509
;WIDTH:0.719328
G1 F1108.798
G1 X157.499 Y91.658 E.01511
;WIDTH:0.62027
G1 F1200
G1 X157.499 Y117.971 E1.38951
G1 X157.519 Y118.046 E.00411
;WIDTH:0.69882
G1 F1143.467
G1 X157.558 Y118.197 E.00934
;WIDTH:0.77737
G1 F1021.172
G1 X157.578 Y118.272 E.00523
;WIDTH:0.77737
G1 X157.549 Y118.342 E.00509
;WIDTH:0.719327
G1 F1108.8
G1 X157.415 Y118.546 E.01511
;WIDTH:0.620269
G1 F1200
G1 X138.809 Y137.152 E1.38951
G1 X138.769 Y137.219 E.00411
;WIDTH:0.698818
G1 F1143.47
G1 X138.691 Y137.353 E.00934
;WIDTH:0.777368
G1 F1021.175
G1 X138.651 Y137.421 E.00523
G1 X138.581 Y137.45 E.00509
;WIDTH:0.719328
G1 F1108.798
G1 X138.342 Y137.499 E.01511
;WIDTH:0.62027
G1 F1200
G1 X112.029 Y137.499 E1.38951
G1 X111.957 Y137.518 E.00393
M73 P13 R18
M73 Q13 S18
G1 X111.836 Y137.457 F4200
; stop printing object OV-PAM_h_18mm_1F.stl id:0 copy 0
;LAYER_CHANGE
;Z:2.2
;HEIGHT:0.2
;BEFORE_LAYER_CHANGE
G92 E0.0
;2.2


G1 E-1 F2400
G1 Z2.2 F720
;AFTER_LAYER_CHANGE
;2.2
