; generated by PrusaSlicer 2.5.2+win64 on 2023-10-26 at 05:59:45 UTC


;
;
; 

; external perimeters extrusion width = 0.50mm
; perimeters extrusion width = 0.50mm
; infill extrusion width = 0.50mm
; solid infill extrusion width = 0.50mm
; top infill extrusion width = 0.50mm
; first layer extrusion width = 0.50mm

M73 P0 R35
M73 Q0 S35
M201 X1000 Y1000 Z200 E5000 ; sets maximum accelerations, mm/sec^2
M203 X200 Y200 Z12 E120 ; sets maximum feedrates, mm / sec
M204 P1250 R1250 T1250 ; sets acceleration (P, T) and retract acceleration (R), mm/sec^2
M205 X8.00 Y8.00 Z0.40 E4.50 ; sets the jerk limits, mm/sec
M205 S0 T0 ; sets the minimum extruding and travel feed rate, mm/sec
M107
;TYPE:Custom
M862.3 P "MK3S" ; printer model check
M862.1 P0.4 ; nozzle diameter check
M115 U3.12.2 ; tell printer latest fw version
G90 ; use absolute coordinates
M83 ; extruder relative mode
M104 S240 ; set extruder temp
M140 S60 ; set bed temp
M190 S60 ; wait for bed temp
M109 S240 ; wait for extruder temp
G28 W ; home all without mesh bed level
G80 ; mesh bed leveling

G1 Z0.2 F720
G1 Y-3 F1000 ; go outside print area
G92 E0
G1 X60 E9 F1000 ; intro line
G1 X100 E12.5 F1000 ; intro line

G92 E0
M221 S95

; Don't change E values below. Excessive value can damage the printer.
M907 E430 ; set extruder motor current
G21 ; set units to millimeters
G90 ; use absolute coordinates
M83 ; use relative distances for extrusion
M900 K0 ; Filament gcode
M107
;LAYER_CHANGE
;Z:0.2
;HEIGHT:0.2
;BEFORE_LAYER_CHANGE
G92 E0.0
;0.2


G1 E-1 F2400
G1 Z.2 F720
;AFTER_LAYER_CHANGE
;0.2
G1 X89.164 Y88.724 F4200
G1 E1 F1500
M204 S300
;TYPE:Skirt/Brim
;WIDTH:0.5
G1 F1200
G1 X108.724 Y69.164 E1.1565
G1 X110.136 Y68.309 E.06902
G1 X111.169 Y68.151 E.04365
G1 X138.831 Y68.151 E1.1565
G1 X140.435 Y68.545 E.06902
G1 X141.276 Y69.164 E.04365
G1 X160.836 Y88.724 E1.1565
G1 X161.691 Y90.136 E.06902
G1 X161.849 Y91.169 E.04365
G1 X161.849 Y118.831 E1.1565
G1 X161.455 Y120.435 E.06902
G1 X160.836 Y121.276 E.04365
G1 X141.276 Y140.836 E1.1565
G1 X139.864 Y141.691 E.06902
G1 X138.831 Y141.849 E.04365
G1 X111.169 Y141.849 E1.1565
G1 X109.565 Y141.455 E.06902
G1 X108.724 Y140.836 E.04365
G1 X89.164 Y121.276 E1.1565
G1 X88.309 Y119.864 E.06902
G1 X88.151 Y118.831 E.04365
G1 X88.151 Y91.169 E1.1565
G1 X88.545 Y89.565 E.06902
G1 X89.128 Y88.772 E.04114
; printing object OV-PAM_h_36mm_1F.stl id:0 copy 0
G1 E-1 F2400
G1 X158.034 Y118.618 F4200
G1 E1 F1500
;TYPE:External perimeter
;WIDTH:0.770616
G1 F1030.65
G1 X158.028 Y118.681 E.0042
G1 X157.939 Y118.789 E.00931
G1 X138.789 Y137.939 E1.80261
G1 X138.681 Y138.028 E.00931
M73 P1 R35
M73 Q1 S35
G1 X138.541 Y138.042 E.00931
G1 X111.459 Y138.042 E1.80261
G1 X111.319 Y138.028 E.00931
G1 X111.211 Y137.939 E.00931
G1 X92.061 Y118.789 E1.80261
G1 X91.972 Y118.681 E.00931
G1 X91.958 Y118.541 E.00931
G1 X91.958 Y91.459 E1.80261
G1 X91.972 Y91.319 E.00931
G1 X92.061 Y91.211 E.00931
G1 X111.211 Y72.061 E1.80261
G1 X111.319 Y71.972 E.00931
G1 X111.459 Y71.958 E.00931
G1 X138.541 Y71.958 E1.80261
G1 X138.681 Y71.972 E.00931
G1 X138.789 Y72.061 E.00931
G1 X157.939 Y91.211 E1.80261
G1 X158.028 Y91.319 E.00931
G1 X158.042 Y91.459 E.00931
G1 X158.04 Y118.558 E1.80372
G1 X158.087 Y118.653 F4200
; stop printing object OV-PAM_h_36mm_1F.stl id:0 copy 0
;LAYER_CHANGE
;Z:0.4
;HEIGHT:0.2
;BEFORE_LAYER_CHANGE
G92 E0.0
;0.4


G1 E-1 F2400
G1 Z.4 F720
;AFTER_LAYER_CHANGE
;0.4
G1 X161.695 Y119.457 F4200
G1 E1 F1500
;TYPE:Skirt/Brim
;WIDTH:0.5
G1 F1200
G1 X161.455 Y120.435 E.04209
G1 X160.836 Y121.276 E.04365
G1 X141.276 Y140.836 E1.1565
G1 X139.864 Y141.691 E.06902
G1 X138.831 Y141.849 E.04365
G1 X111.169 Y141.849 E1.1565
G1 X109.565 Y141.455 E.06902
G1 X108.724 Y140.836 E.04365
G1 X89.164 Y121.276 E1.1565
G1 X88.309 Y119.864 E.06902
G1 X88.151 Y118.831 E.04365
G1 X88.151 Y91.169 E1.1565
G1 X88.545 Y89.565 E.06902
G1 X89.164 Y88.724 E.04365
G1 X108.724 Y69.164 E1.1565
G1 X110.136 Y68.309 E.06902
G1 X111.169 Y68.151 E.04365
G1 X138.831 Y68.151 E1.1565
G1 X140.435 Y68.545 E.06902
M73 P2 R35
M73 Q2 S35
G1 X141.276 Y69.164 E.04365
G1 X160.836 Y88.724 E1.1565
G1 X161.691 Y90.136 E.06902
G1 X161.849 Y91.169 E.04365
G1 X161.849 Y118.831 E1.1565
G1 X161.709 Y119.399 E.02442
; printing object OV-PAM_h_36mm_1F.stl id:0 copy 0
G1 E-1 F2400
G1 X157.87 Y118.615 F4200
G1 X157.871 Y118.601
G1 X158.036 Y118.601
G1 E1 F1500
;TYPE:External perimeter
;WIDTH:0.770616
G1 F1030.65
G1 X158.028 Y118.681 E.00536
G1 X157.939 Y118.789 E.00931
G1 X138.789 Y137.939 E1.80261
G1 X138.681 Y138.028 E.00931
G1 X138.541 Y138.042 E.00931
G1 X111.459 Y138.042 E1.80261
G1 X111.319 Y138.028 E.00931
G1 X111.211 Y137.939 E.00931
G1 X92.061 Y118.789 E1.80261
G1 X91.972 Y118.681 E.00931
M73 P2 R34
M73 Q2 S34
G1 X91.958 Y118.541 E.00931
G1 X91.958 Y91.459 E1.80261
G1 X91.972 Y91.319 E.00931
G1 X92.061 Y91.211 E.00931
G1 X111.211 Y72.061 E1.80261
G1 X111.319 Y71.972 E.00931
G1 X111.459 Y71.958 E.00931
G1 X138.541 Y71.958 E1.80261
G1 X138.681 Y71.972 E.00931
G1 X138.789 Y72.061 E.00931
G1 X157.939 Y91.211 E1.80261
G1 X158.028 Y91.319 E.00931
G1 X158.042 Y91.459 E.00931
G1 X158.042 Y118.541 E1.80257
G1 X158.103 Y118.645 F4200
; stop printing object OV-PAM_h_36mm_1F.stl id:0 copy 0
;LAYER_CHANGE
;Z:0.6
;HEIGHT:0.2
;BEFORE_LAYER_CHANGE
G92 E0.0
;0.6


G1 E-1 F2400
G1 Z.6 F720
;AFTER_LAYER_CHANGE
;0.6
G1 X161.699 Y119.44 F4200
G1 E1 F1500
;TYPE:Skirt/Brim
;WIDTH:0.5
G1 F1200
G1 X161.455 Y120.435 E.04281
G1 X160.836 Y121.276 E.04365
G1 X141.276 Y140.836 E1.1565
G1 X139.864 Y141.691 E.06902
G1 X138.831 Y141.849 E.04365
G1 X111.169 Y141.849 E1.1565
G1 X109.565 Y141.455 E.06902
G1 X108.724 Y140.836 E.04365
G1 X89.164 Y121.276 E1.1565
G1 X88.309 Y119.864 E.06902
M73 P3 R34
M73 Q3 S34
G1 X88.151 Y118.831 E.04365
G1 X88.151 Y91.169 E1.1565
G1 X88.545 Y89.565 E.06902
G1 X89.164 Y88.724 E.04365
G1 X108.724 Y69.164 E1.1565
G1 X110.136 Y68.309 E.06902
G1 X111.169 Y68.151 E.04365
G1 X138.831 Y68.151 E1.1565
G1 X140.435 Y68.545 E.06902
G1 X141.276 Y69.164 E.04365
G1 X160.836 Y88.724 E1.1565
G1 X161.691 Y90.136 E.06902
G1 X161.849 Y91.169 E.04365
G1 X161.849 Y118.831 E1.1565
G1 X161.714 Y119.382 E.0237
; printing object OV-PAM_h_36mm_1F.stl id:0 copy 0
G1 E-1 F2400
G1 X158.202 Y118.619 F4200
G1 X158.204 Y118.595
G1 X158.038 Y118.581
G1 E1 F1500
;TYPE:External perimeter
;WIDTH:0.770616
G1 F1030.65
G1 X158.028 Y118.681 E.00664
G1 X157.939 Y118.789 E.00931
G1 X138.789 Y137.939 E1.80261
G1 X138.681 Y138.028 E.00931
G1 X138.541 Y138.042 E.00931
G1 X111.459 Y138.042 E1.80261
G1 X111.319 Y138.028 E.00931
G1 X111.211 Y137.939 E.00931
G1 X92.061 Y118.789 E1.80261
G1 X91.972 Y118.681 E.00931
G1 X91.958 Y118.541 E.00931
G1 X91.958 Y91.459 E1.80261
G1 X91.972 Y91.319 E.00931
G1 X92.061 Y91.211 E.00931
G1 X111.211 Y72.061 E1.80261
G1 X111.319 Y71.972 E.00931
G1 X111.459 Y71.958 E.00931
G1 X138.541 Y71.958 E1.80261
G1 X138.681 Y71.972 E.00931
G1 X138.789 Y72.061 E.00931
G1 X157.939 Y91.211 E1.80261
G1 X158.028 Y91.319 E.00931
G1 X158.042 Y91.459 E.00931
G1 X158.042 Y118.522 E1.80129
G1 X158.121 Y118.637 F4200
; stop printing object OV-PAM_h_36mm_1F.stl id:0 copy 0
;LAYER_CHANGE
;Z:0.8
;HEIGHT:0.2
;BEFORE_LAYER_CHANGE
G92 E0.0
;0.8


G1 E-1 F2400
G1 Z.8 F720
;AFTER_LAYER_CHANGE
;0.8
; printing object OV-PAM_h_36mm_1F.stl id:0 copy 0
G1 X158.04 Y118.561 F4200
G1 E1 F1500
G1 F1030.65
G1 X158.028 Y118.681 E.00803
G1 X157.939 Y118.789 E.00931
G1 X138.789 Y137.939 E1.80261
G1 X138.681 Y138.028 E.00931
M73 P4 R34
M73 Q4 S34
G1 X138.541 Y138.042 E.00931
G1 X111.459 Y138.042 E1.80261
G1 X111.319 Y138.028 E.00931
G1 X111.211 Y137.939 E.00931
G1 X92.061 Y118.789 E1.80261
G1 X91.972 Y118.681 E.00931
G1 X91.958 Y118.541 E.00931
G1 X91.958 Y91.459 E1.80261
G1 X91.972 Y91.319 E.00931
G1 X92.061 Y91.211 E.00931
G1 X111.211 Y72.061 E1.80261
G1 X111.319 Y71.972 E.00931
G1 X111.459 Y71.958 E.00931
G1 X138.541 Y71.958 E1.80261
G1 X138.681 Y71.972 E.00931
G1 X138.789 Y72.061 E.00931
G1 X157.939 Y91.211 E1.80261
G1 X158.028 Y91.319 E.00931
G1 X158.042 Y91.459 E.00931
G1 X158.042 Y118.501 E1.7999
G1 X158.14 Y118.628 F4200
; stop printing object OV-PAM_h_36mm_1F.stl id:0 copy 0
;LAYER_CHANGE
;Z:1
;HEIGHT:0.2
;BEFORE_LAYER_CHANGE
G92 E0.0
;1


G1 E-1 F2400
G1 Z1 F720
;AFTER_LAYER_CHANGE
;1
; printing object OV-PAM_h_36mm_1F.stl id:0 copy 0
G1 X158.042 Y118.534 F4200
G1 E1 F1500
G1 F1030.65
G1 X158.028 Y118.681 E.00982
G1 X157.939 Y118.789 E.00931
G1 X138.789 Y137.939 E1.80261
G1 X138.681 Y138.028 E.00931
G1 X138.541 Y138.042 E.00931
G1 X111.459 Y138.042 E1.80261
G1 X111.319 Y138.028 E.00931
G1 X111.211 Y137.939 E.00931
G1 X92.061 Y118.789 E1.80261
G1 X91.972 Y118.681 E.00931
G1 X91.958 Y118.541 E.00931
G1 X91.958 Y91.459 E1.80261
G1 X91.972 Y91.319 E.00931
G1 X92.061 Y91.211 E.00931
G1 X111.211 Y72.061 E1.80261
G1 X111.319 Y71.972 E.00931
G1 X111.459 Y71.958 E.00931
G1 X138.541 Y71.958 E1.80261
G1 X138.681 Y71.972 E.00931
M73 P5 R34
M73 Q5 S34
G1 X138.789 Y72.061 E.00931
G1 X157.939 Y91.211 E1.80261
G1 X158.028 Y91.319 E.00931
G1 X158.042 Y91.459 E.00931
G1 X158.042 Y118.474 E1.79811
G1 X158.165 Y118.615 F4200
; stop printing object OV-PAM_h_36mm_1F.stl id:0 copy 0
;LAYER_CHANGE
;Z:1.2
;HEIGHT:0.2
;BEFORE_LAYER_CHANGE
G92 E0.0
;1.2


M73 P5 R33
M73 Q5 S33
G1 E-1 F2400
G1 Z1.2 F720
;AFTER_LAYER_CHANGE
;1.2
; printing object OV-PAM_h_36mm_1F.stl id:0 copy 0
G1 X158.032 Y118.501 F4200
G1 E1 F1500
;WIDTH:0.791007
G1 F1002.558
G1 X158.018 Y118.676 E.01206
G1 X157.927 Y118.788 E.00984
G1 X138.788 Y137.927 E1.85201
G1 X138.676 Y138.018 E.00984
G1 X138.533 Y138.032 E.00984
G1 X111.467 Y138.032 E1.85201
G1 X111.324 Y138.018 E.00984
G1 X111.212 Y137.927 E.00984
G1 X92.073 Y118.788 E1.85201
G1 X91.982 Y118.676 E.00984
G1 X91.968 Y118.533 E.00984
G1 X91.968 Y91.467 E1.85201
G1 X91.982 Y91.324 E.00984
G1 X92.073 Y91.212 E.00984
G1 X111.212 Y72.073 E1.85201
G1 X111.324 Y71.982 E.00984
G1 X111.467 Y71.968 E.00984
G1 X138.533 Y71.968 E1.85201
G1 X138.676 Y71.982 E.00984
G1 X138.788 Y72.073 E.00984
G1 X157.927 Y91.212 E1.85201
G1 X158.018 Y91.324 E.00984
G1 X158.032 Y91.467 E.00984
G1 X158.032 Y118.441 E1.84567
G1 X158.18 Y118.597 F4200
; stop printing object OV-PAM_h_36mm_1F.stl id:0 copy 0
;LAYER_CHANGE
;Z:1.4
;HEIGHT:0.2
;BEFORE_LAYER_CHANGE
G92 E0.0
;1.4


G1 E-1 F2400
G1 Z1.4 F720
;AFTER_LAYER_CHANGE
;1.4
; printing object OV-PAM_h_36mm_1F.stl id:0 copy 0
G1 X157.845 Y118.445 F4200
G1 E1 F1500
;WIDTH:0.643113
G1 F1200
G1 X157.834 Y118.6 E.00856
G1 X157.761 Y118.69 E.00634
G1 X138.6 Y137.834 E1.48692
G1 X111.4 Y137.834 E1.49323
G1 X92.166 Y118.6 E1.49323
G1 X92.166 Y91.4 E1.49323
G1 X111.4 Y72.166 E1.49323
M73 P6 R33
M73 Q6 S33
G1 X138.6 Y72.166 E1.49323
G1 X157.834 Y91.4 E1.49323
G1 X157.845 Y118.385 E1.4814
G1 X157.986 Y118.511 F4200
; stop printing object OV-PAM_h_36mm_1F.stl id:0 copy 0
;LAYER_CHANGE
;Z:1.6
;HEIGHT:0.2
;BEFORE_LAYER_CHANGE
G92 E0.0
;1.6


G1 E-1 F2400
G1 Z1.6 F720
;AFTER_LAYER_CHANGE
;1.6
; printing object OV-PAM_h_36mm_1F.stl id:0 copy 0
G1 X157.73 Y118.387 F4200
G1 E1 F1500
;WIDTH:0.643114
G1 F1200
G1 X157.719 Y118.552 E.00909
G1 X157.645 Y118.642 E.00634
G1 X138.552 Y137.719 E1.48168
G1 X111.448 Y137.719 E1.48798
G1 X92.281 Y118.552 E1.48798
G1 X92.281 Y91.448 E1.48798
G1 X111.448 Y72.281 E1.48798
G1 X138.552 Y72.281 E1.48798
G1 X157.719 Y91.448 E1.48798
G1 X157.73 Y118.327 E1.47562
G1 X157.594 Y118.482 F4200
; stop printing object OV-PAM_h_36mm_1F.stl id:0 copy 0
;LAYER_CHANGE
;Z:1.8
;HEIGHT:0.2
;BEFORE_LAYER_CHANGE
G92 E0.0
;1.8


G1 E-1 F2400
G1 Z1.8 F720
;AFTER_LAYER_CHANGE
;1.8
; printing object OV-PAM_h_36mm_1F.stl id:0 copy 0
G1 X157.615 Y118.329 F4200
G1 E1 F1500
;WIDTH:0.644011
G1 F1200
G1 X157.604 Y118.503 E.0096
G1 X157.53 Y118.594 E.00647
G1 X138.507 Y137.603 E1.47853
G1 X111.497 Y137.604 E1.48496
G1 X92.397 Y118.507 E1.48496
G1 X92.396 Y91.497 E1.48496
M73 P7 R33
M73 Q7 S33
G1 X111.493 Y72.397 E1.48496
G1 X138.503 Y72.396 E1.48496
G1 X157.603 Y91.493 E1.48496
G1 X157.615 Y118.269 E1.47208
G1 X157.472 Y118.429 F4200
; stop printing object OV-PAM_h_36mm_1F.stl id:0 copy 0
;LAYER_CHANGE
;Z:2
;HEIGHT:0.2
;BEFORE_LAYER_CHANGE
G92 E0.0
;2


G1 E-1 F2400
G1 Z2 F720
;AFTER_LAYER_CHANGE
;2
; printing object OV-PAM_h_36mm_1F.stl id:0 copy 0
G1 X157.499 Y118.269 F4200
G1 E1 F1500
;WIDTH:0.649656
G1 F1200
G1 X157.496 Y118.444 E.00971
G1 X157.415 Y118.546 E.00727
G1 X138.472 Y137.484 E1.48647
G1 X138.342 Y137.499 E.00727
G1 X111.556 Y137.496 E1.48647
G1 X111.454 Y137.415 E.00727
G1 X92.516 Y118.472 E1.48647
G1 X92.501 Y118.342 E.00727
G1 X92.504 Y91.556 E1.48647
G1 X92.585 Y91.454 E.00727
G1 X111.528 Y72.516 E1.48647
G1 X111.658 Y72.501 E.00727
G1 X138.444 Y72.504 E1.48647
G1 X138.546 Y72.585 E.00727
G1 X157.484 Y91.528 E1.48647
G1 X157.499 Y91.658 E.00727
G1 X157.499 Y118.209 E1.47343
G1 X157.347 Y118.354 F4200
; stop printing object OV-PAM_h_36mm_1F.stl id:0 copy 0
;LAYER_CHANGE
;Z:2.2
;HEIGHT:0.2
;BEFORE_LAYER_CHANGE
G92 E0.0
;2.2


G1 E-1 F2400
G1 Z2.2 F720
;AFTER_LAYER_CHANGE
;2.2
; printing object OV-PAM_h_36mm_1F.stl id:0 copy 0
G1 X157.384 Y118.183 F4200
G1 E1 F1500
;WIDTH:0.659879
G1 F1200
G1 X157.392 Y118.377 E.011
G1 X157.299 Y118.498 E.00861
G1 X138.445 Y137.364 E1.50508
G1 X138.294 Y137.384 E.00861
G1 X111.623 Y137.392 E1.50508
G1 X111.502 Y137.299 E.00861
M73 P7 R32
M73 Q7 S32
G1 X92.636 Y118.445 E1.50508
G1 X92.616 Y118.294 E.00861
M73 P8 R32
M73 Q8 S32
G1 X92.608 Y91.623 E1.50508
G1 X92.701 Y91.502 E.00861
G1 X111.555 Y72.636 E1.50508
G1 X111.706 Y72.616 E.00861
G1 X138.377 Y72.608 E1.50508
G1 X138.498 Y72.701 E.00861
G1 X157.364 Y91.555 E1.50508
G1 X157.384 Y91.706 E.00861
G1 X157.384 Y118.123 E1.49071
G1 X157.218 Y118.285 F4200
; stop printing object OV-PAM_h_36mm_1F.stl id:0 copy 0
;LAYER_CHANGE
;Z:2.4
;HEIGHT:0.2
;BEFORE_LAYER_CHANGE
G92 E0.0
;2.4


G1 E-1 F2400
G1 Z2.4 F720
;AFTER_LAYER_CHANGE
;2.4
; printing object OV-PAM_h_36mm_1F.stl id:0 copy 0
G1 X157.268 Y118.03 F4200
G1 E1 F1500
;WIDTH:0.62027
G1 F1200
G1 X157.278 Y118.246 E.01146
;WIDTH:0.674649
G1 F1187.219
G1 X157.29 Y118.306 E.0035
;WIDTH:0.67465
G1 X157.184 Y118.45 E.01036
;WIDTH:0.62027
G1 F1200
G1 X138.458 Y137.191 E1.39901
;WIDTH:0.67465
G1 F1187.217
G1 X138.424 Y137.241 E.0035
G1 X138.246 Y137.268 E.01036
;WIDTH:0.62027
G1 F1200
G1 X111.754 Y137.278 E1.39901
;WIDTH:0.674649
G1 F1187.219
G1 X111.694 Y137.29 E.0035
G1 X111.55 Y137.184 E.01036
;WIDTH:0.62027
G1 F1200
G1 X92.809 Y118.458 E1.39901
;WIDTH:0.67465
G1 F1187.217
G1 X92.759 Y118.424 E.0035
G1 X92.732 Y118.246 E.01036
;WIDTH:0.62027
G1 F1200
G1 X92.722 Y91.754 E1.39901
;WIDTH:0.674649
G1 F1187.219
G1 X92.71 Y91.694 E.0035
G1 X92.816 Y91.55 E.01036
;WIDTH:0.62027
G1 F1200
G1 X111.542 Y72.809 E1.39901
;WIDTH:0.67465
G1 F1187.217
G1 X111.576 Y72.759 E.0035
G1 X111.754 Y72.732 E.01036
;WIDTH:0.62027
G1 F1200
G1 X138.246 Y72.722 E1.39901
;WIDTH:0.674649
G1 F1187.219
G1 X138.306 Y72.71 E.0035
G1 X138.45 Y72.816 E.01036
;WIDTH:0.62027
G1 F1200
G1 X157.191 Y91.542 E1.39901
;WIDTH:0.67465
G1 F1187.217
G1 X157.241 Y91.576 E.0035
G1 X157.268 Y91.754 E.01036
;WIDTH:0.62027
G1 F1200
G1 X157.268 Y117.97 E1.3844
; stop printing object OV-PAM_h_36mm_1F.stl id:0 copy 0
;LAYER_CHANGE
;Z:2.6
;HEIGHT:0.2
;BEFORE_LAYER_CHANGE
G92 E0.0
;2.6


G1 E-1 F2400
G1 Z2.6 F720
;AFTER_LAYER_CHANGE
;2.6
; printing object OV-PAM_h_36mm_1F.stl id:0 copy 0
G1 X157.161 Y118.08 F4200
G1 E1 F1500
G1 F1200
G1 X157.165 Y118.112 E.00173
;WIDTH:0.671622
G1 F1192.934
G1 X157.188 Y118.231 E.00692
;WIDTH:0.693997
G1 F1151.938
G1 X157.068 Y118.403 E.01248
;WIDTH:0.62027
G1 F1200
G1 X138.524 Y136.946 E1.38487
G1 X138.473 Y137.016 E.0046
;WIDTH:0.67162
G1 F1192.938
G1 X138.405 Y137.116 E.00692
G1 X138.198 Y137.153 E.01205
;WIDTH:0.62027
G1 F1200
G1 X111.974 Y137.153 E1.38487
G1 X111.888 Y137.165 E.0046
;WIDTH:0.671622
M73 P9 R32
M73 Q9 S32
G1 F1192.934
G1 X111.769 Y137.188 E.00692
G1 X111.597 Y137.068 E.01205
;WIDTH:0.62027
G1 F1200
G1 X93.054 Y118.524 E1.38487
G1 X92.984 Y118.473 E.0046
;WIDTH:0.67162
G1 F1192.938
G1 X92.884 Y118.405 E.00692
G1 X92.847 Y118.198 E.01205
;WIDTH:0.62027
G1 F1200
G1 X92.847 Y91.974 E1.38487
