; generated by PrusaSlicer 2.5.2+win64 on 2023-10-19 at 01:34:25 UTC


;
;
; 

; external perimeters extrusion width = 0.40mm
; perimeters extrusion width = 0.40mm
; infill extrusion width = 0.40mm
; solid infill extrusion width = 0.40mm
; top infill extrusion width = 0.40mm
; first layer extrusion width = 0.40mm

M73 P0 R35
M73 Q0 S35
M201 X1000 Y1000 Z200 E5000 ; sets maximum accelerations, mm/sec^2
M203 X200 Y200 Z12 E120 ; sets maximum feedrates, mm / sec
M204 P1250 R1250 T1250 ; sets acceleration (P, T) and retract acceleration (R), mm/sec^2
M205 X8.00 Y8.00 Z0.40 E4.50 ; sets the jerk limits, mm/sec
M205 S0 T0 ; sets the minimum extruding and travel feed rate, mm/sec
M107
;TYPE:Custom
M862.3 P "MK3S" ; printer model check
M862.1 P0.4 ; nozzle diameter check
M115 U3.12.2 ; tell printer latest fw version
G90 ; use absolute coordinates
M83 ; extruder relative mode
M104 S230 ; set extruder temp
M140 S50 ; set bed temp
M190 S50 ; wait for bed temp
M109 S230 ; wait for extruder temp
G28 W ; home all without mesh bed level
G80 ; mesh bed leveling

G1 Z0.2 F720
G1 Y-3 F1000 ; go outside print area
G92 E0
G1 X60 E9 F1000 ; intro line
G1 X100 E12.5 F1000 ; intro line

G92 E0
M221 S95

; Don't change E values below. Excessive value can damage the printer.
M907 E430 ; set extruder motor current
G21 ; set units to millimeters
G90 ; use absolute coordinates
M83 ; use relative distances for extrusion
M900 K0 ; Filament gcode
M107
;LAYER_CHANGE
;Z:0.2
;HEIGHT:0.2
;BEFORE_LAYER_CHANGE
G92 E0.0
;0.2


G1 E-1 F2400
G1 Z.2 F720
;AFTER_LAYER_CHANGE
;0.2
G1 X89.234 Y88.795 F4200
G1 E1 F1500
M204 S300
;TYPE:Skirt/Brim
;WIDTH:0.4
G1 F1200
G1 X108.795 Y69.234 E.90348
G1 X110.189 Y68.397 E.05312
G1 X111.169 Y68.251 E.03234
G1 X138.831 Y68.251 E.90348
G1 X140.409 Y68.645 E.05312
G1 X141.205 Y69.234 E.03234
G1 X160.766 Y88.795 E.90348
G1 X161.603 Y90.189 E.05312
G1 X161.749 Y91.169 E.03234
G1 X161.749 Y118.831 E.90348
G1 X161.355 Y120.409 E.05312
G1 X160.766 Y121.205 E.03234
G1 X141.205 Y140.766 E.90348
G1 X139.811 Y141.603 E.05312
G1 X138.831 Y141.749 E.03234
G1 X111.169 Y141.749 E.90348
G1 X109.591 Y141.355 E.05312
G1 X108.795 Y140.766 E.03234
G1 X89.234 Y121.205 E.90348
G1 X88.397 Y119.811 E.05312
G1 X88.251 Y118.831 E.03234
G1 X88.251 Y91.169 E.90348
G1 X88.645 Y89.591 E.05312
G1 X89.199 Y88.843 E.03038
; printing object OV-PAM_h_36mm_1F.stl id:0 copy 0
G1 E-1 F2400
G1 X138.75 Y138.041 F4200
G1 E1 F1500
;TYPE:External perimeter
;WIDTH:0.666659
G1 F1200
G1 X138.702 Y138.08 E.00352
G1 X138.583 Y138.092 E.00684
G1 X111.298 Y138.08 E1.55662
G1 X91.92 Y118.702 E1.56343
M73 P1 R35
M73 Q1 S35
G1 X91.92 Y91.298 E1.56343
G1 X111.298 Y71.92 E1.56343
G1 X138.702 Y71.92 E1.56343
G1 X158.08 Y91.298 E1.56343
G1 X158.08 Y118.702 E1.56343
G1 X138.796 Y138.003 E1.55652
M73 P1 R34
M73 Q1 S34
G1 X138.77 Y138.099 F4200
; stop printing object OV-PAM_h_36mm_1F.stl id:0 copy 0
;LAYER_CHANGE
;Z:0.4
;HEIGHT:0.2
;BEFORE_LAYER_CHANGE
G92 E0.0
;0.4


G1 E-1 F2400
G1 Z.4 F720
;AFTER_LAYER_CHANGE
;0.4
G1 X140.654 Y141.097 F4200
G1 E1 F1500
;TYPE:Skirt/Brim
;WIDTH:0.4
G1 F2100.372
G1 X139.811 Y141.603 E.03212
G1 X138.831 Y141.749 E.03234
G1 X111.169 Y141.749 E.90348
G1 X109.591 Y141.355 E.05312
G1 X108.795 Y140.766 E.03234
G1 X89.234 Y121.205 E.90348
G1 X88.397 Y119.811 E.05312
G1 X88.251 Y118.831 E.03234
G1 X88.251 Y91.169 E.90348
G1 X88.645 Y89.591 E.05312
G1 X89.234 Y88.795 E.03234
G1 X108.795 Y69.234 E.90348
G1 X110.189 Y68.397 E.05312
G1 X111.169 Y68.251 E.03234
G1 X138.831 Y68.251 E.90348
G1 X140.409 Y68.645 E.05312
G1 X141.205 Y69.234 E.03234
G1 X160.766 Y88.795 E.90348
G1 X161.603 Y90.189 E.05312
G1 X161.749 Y91.169 E.03234
G1 X161.749 Y118.831 E.90348
G1 X161.355 Y120.409 E.05312
G1 X160.766 Y121.205 E.03234
G1 X141.205 Y140.766 E.90348
G1 X140.705 Y141.066 E.01904
; printing object OV-PAM_h_36mm_1F.stl id:0 copy 0
G1 E-1 F2400
G1 X138.652 Y137.958 F4200
G1 X138.669 Y137.94
G1 X138.761 Y138.032
G1 E1 F1500
;TYPE:External perimeter
;WIDTH:0.666659
G1 F1200
G1 X138.702 Y138.08 E.00433
G1 X138.583 Y138.092 E.00684
G1 X111.298 Y138.08 E1.55662
G1 X91.92 Y118.702 E1.56343
G1 X91.92 Y91.298 E1.56343
M73 P2 R34
M73 Q2 S34
G1 X111.298 Y71.92 E1.56343
G1 X138.702 Y71.92 E1.56343
G1 X158.08 Y91.298 E1.56343
G1 X158.08 Y118.702 E1.56343
G1 X138.806 Y137.993 E1.55572
G1 X138.785 Y138.104 F4200
; stop printing object OV-PAM_h_36mm_1F.stl id:0 copy 0
;LAYER_CHANGE
;Z:0.6
;HEIGHT:0.2
;BEFORE_LAYER_CHANGE
G92 E0.0
;0.6


G1 E-1 F2400
G1 Z.6 F720
;AFTER_LAYER_CHANGE
;0.6
G1 X140.666 Y141.09 F4200
G1 E1 F1500
;TYPE:Skirt/Brim
;WIDTH:0.4
G1 F2100.372
G1 X139.811 Y141.603 E.03257
G1 X138.831 Y141.749 E.03234
G1 X111.169 Y141.749 E.90348
G1 X109.591 Y141.355 E.05312
G1 X108.795 Y140.766 E.03234
G1 X89.234 Y121.205 E.90348
G1 X88.397 Y119.811 E.05312
G1 X88.251 Y118.831 E.03234
G1 X88.251 Y91.169 E.90348
G1 X88.645 Y89.591 E.05312
G1 X89.234 Y88.795 E.03234
G1 X108.795 Y69.234 E.90348
G1 X110.189 Y68.397 E.05312
G1 X111.169 Y68.251 E.03234
G1 X138.831 Y68.251 E.90348
G1 X140.409 Y68.645 E.05312
G1 X141.205 Y69.234 E.03234
G1 X160.766 Y88.795 E.90348
G1 X161.603 Y90.189 E.05312
G1 X161.749 Y91.169 E.03234
G1 X161.749 Y118.831 E.90348
G1 X161.355 Y120.409 E.05312
G1 X160.766 Y121.205 E.03234
G1 X141.205 Y140.766 E.90348
G1 X140.717 Y141.059 E.0186
; printing object OV-PAM_h_36mm_1F.stl id:0 copy 0
G1 E-1 F2400
G1 X138.652 Y137.958 F4200
G1 X138.68 Y137.929
G1 X138.773 Y138.022
G1 E1 F1500
;TYPE:External perimeter
;WIDTH:0.666659
G1 F1200
G1 X138.702 Y138.08 E.00522
G1 X138.583 Y138.092 E.00684
G1 X111.298 Y138.08 E1.55662
G1 X91.92 Y118.702 E1.56343
G1 X91.92 Y91.298 E1.56343
G1 X111.298 Y71.92 E1.56343
G1 X138.702 Y71.92 E1.56343
M73 P3 R34
M73 Q3 S34
G1 X158.08 Y91.298 E1.56343
G1 X158.08 Y118.702 E1.56343
G1 X138.817 Y137.982 E1.55483
G1 X138.802 Y138.109 F4200
; stop printing object OV-PAM_h_36mm_1F.stl id:0 copy 0
;LAYER_CHANGE
;Z:0.8
;HEIGHT:0.2
;BEFORE_LAYER_CHANGE
G92 E0.0
;0.8


G1 E-1 F2400
G1 Z.8 F720
;AFTER_LAYER_CHANGE
;0.8
; printing object OV-PAM_h_36mm_1F.stl id:0 copy 0
G1 X138.786 Y138.011 F4200
G1 E1 F1500
G1 F1200
G1 X138.702 Y138.08 E.00619
G1 X138.583 Y138.092 E.00684
G1 X111.298 Y138.08 E1.55662
G1 X91.92 Y118.702 E1.56343
G1 X91.92 Y91.298 E1.56343
G1 X111.298 Y71.92 E1.56343
G1 X138.702 Y71.92 E1.56343
G1 X158.08 Y91.298 E1.56343
G1 X158.08 Y118.702 E1.56343
G1 X138.829 Y137.97 E1.55385
G1 X138.821 Y138.114 F4200
; stop printing object OV-PAM_h_36mm_1F.stl id:0 copy 0
;LAYER_CHANGE
;Z:1
;HEIGHT:0.2
;BEFORE_LAYER_CHANGE
G92 E0.0
;1


G1 E-1 F2400
G1 Z1 F720
;AFTER_LAYER_CHANGE
;1
; printing object OV-PAM_h_36mm_1F.stl id:0 copy 0
G1 X138.803 Y137.996 F4200
G1 E1 F1500
G1 F1200
G1 X138.702 Y138.08 E.00751
G1 X138.583 Y138.092 E.00684
G1 X111.298 Y138.08 E1.55662
G1 X91.92 Y118.702 E1.56343
G1 X91.92 Y91.298 E1.56343
G1 X111.298 Y71.92 E1.56343
M73 P4 R34
M73 Q4 S34
G1 X138.702 Y71.92 E1.56343
G1 X158.08 Y91.298 E1.56343
G1 X158.08 Y118.702 E1.56343
G1 X138.846 Y137.953 E1.55253
M73 P4 R33
M73 Q4 S33
G1 X138.846 Y138.12 F4200
; stop printing object OV-PAM_h_36mm_1F.stl id:0 copy 0
;LAYER_CHANGE
;Z:1.2
;HEIGHT:0.2
;BEFORE_LAYER_CHANGE
G92 E0.0
;1.2


G1 E-1 F2400
G1 Z1.2 F720
;AFTER_LAYER_CHANGE
;1.2
; printing object OV-PAM_h_36mm_1F.stl id:0 copy 0
G1 X138.82 Y137.976 F4200
G1 E1 F1500
;WIDTH:0.670968
G1 F1194.178
G1 X138.701 Y138.078 E.00895
G1 X138.581 Y138.09 E.00694
G1 X111.299 Y138.078 E1.56723
G1 X91.922 Y118.701 E1.57413
G1 X91.922 Y91.299 E1.57413
G1 X111.299 Y71.922 E1.57413
G1 X138.701 Y71.922 E1.57413
G1 X158.078 Y91.299 E1.57413
G1 X158.078 Y118.701 E1.57413
G1 X138.862 Y137.934 E1.56176
G1 X138.872 Y138.123 F4200
; stop printing object OV-PAM_h_36mm_1F.stl id:0 copy 0
;LAYER_CHANGE
;Z:1.4
;HEIGHT:0.2
;BEFORE_LAYER_CHANGE
G92 E0.0
;1.4


G1 E-1 F2400
G1 Z1.4 F720
;AFTER_LAYER_CHANGE
;1.4
; printing object OV-PAM_h_36mm_1F.stl id:0 copy 0
G1 X138.724 Y137.808 F4200
G1 E1 F1500
;WIDTH:0.523073
G1 F1200
G1 X138.625 Y137.894 E.00576
G1 X138.533 Y137.903 E.00405
G1 X111.375 Y137.894 E1.19273
G1 X92.106 Y118.625 E1.19676
G1 X92.106 Y91.375 E1.19676
M73 P5 R33
M73 Q5 S33
G1 X111.375 Y72.106 E1.19676
G1 X138.625 Y72.106 E1.19676
G1 X157.894 Y91.375 E1.19676
G1 X157.894 Y118.625 E1.19676
G1 X138.767 Y137.766 E1.18838
G1 X138.769 Y137.931 F4200
; stop printing object OV-PAM_h_36mm_1F.stl id:0 copy 0
;LAYER_CHANGE
;Z:1.6
;HEIGHT:0.2
;BEFORE_LAYER_CHANGE
G92 E0.0
;1.6


G1 E-1 F2400
G1 Z1.6 F720
;AFTER_LAYER_CHANGE
;1.6
; printing object OV-PAM_h_36mm_1F.stl id:0 copy 0
G1 X138.68 Y137.689 F4200
G1 E1 F1500
;WIDTH:0.523074
G1 F1200
G1 X138.577 Y137.779 E.006
G1 X138.485 Y137.788 E.00405
G1 X111.423 Y137.779 E1.18853
G1 X92.221 Y118.577 E1.19256
G1 X92.221 Y91.423 E1.19256
G1 X111.423 Y72.221 E1.19256
G1 X138.577 Y72.221 E1.19256
G1 X157.779 Y91.423 E1.19256
G1 X157.779 Y118.577 E1.19256
G1 X138.723 Y137.646 E1.18395
G1 X138.546 Y137.665 F4200
; stop printing object OV-PAM_h_36mm_1F.stl id:0 copy 0
;LAYER_CHANGE
;Z:1.8
;HEIGHT:0.2
;BEFORE_LAYER_CHANGE
G92 E0.0
;1.8


G1 E-1 F2400
G1 Z1.8 F720
;AFTER_LAYER_CHANGE
;1.8
; printing object OV-PAM_h_36mm_1F.stl id:0 copy 0
G1 X138.637 Y137.568 F4200
G1 E1 F1500
;WIDTH:0.526173
G1 F1200
G1 X138.537 Y137.662 E.00604
G1 X138.438 Y137.672 E.00442
G1 X111.477 Y137.667 E1.19169
G1 X92.338 Y118.537 E1.19608
G1 X92.333 Y91.477 E1.19608
M73 P6 R33
M73 Q6 S33
G1 X111.463 Y72.338 E1.19608
G1 X138.523 Y72.333 E1.19608
G1 X157.662 Y91.463 E1.19608
G1 X157.667 Y118.523 E1.19608
G1 X138.68 Y137.526 E1.18739
G1 X138.502 Y137.547 F4200
; stop printing object OV-PAM_h_36mm_1F.stl id:0 copy 0
;LAYER_CHANGE
;Z:2
;HEIGHT:0.2
;BEFORE_LAYER_CHANGE
G92 E0.0
;2


G1 E-1 F2400
G1 Z2 F720
;AFTER_LAYER_CHANGE
;2
; printing object OV-PAM_h_36mm_1F.stl id:0 copy 0
G1 X138.607 Y137.435 F4200
G1 E1 F1500
;WIDTH:0.535266
G1 F1200
G1 X138.508 Y137.542 E.00652
G1 X138.39 Y137.557 E.00539
G1 X111.542 Y137.562 E1.20905
G1 X111.447 Y137.489 E.00539
G1 X92.458 Y118.508 E1.20905
G1 X92.443 Y118.39 E.00539
G1 X92.438 Y91.542 E1.20905
G1 X92.511 Y91.447 E.00539
G1 X111.492 Y72.458 E1.20905
G1 X111.61 Y72.443 E.00539
G1 X138.458 Y72.438 E1.20905
G1 X138.553 Y72.511 E.00539
G1 X157.542 Y91.492 E1.20905
G1 X157.557 Y91.61 E.00539
G1 X157.562 Y118.458 E1.20905
G1 X157.489 Y118.553 E.00539
G1 X138.649 Y137.393 E1.19983
G1 X138.466 Y137.402 F4200
; stop printing object OV-PAM_h_36mm_1F.stl id:0 copy 0
;LAYER_CHANGE
;Z:2.2
;HEIGHT:0.2
;BEFORE_LAYER_CHANGE
G92 E0.0
;2.2


G1 E-1 F2400
G1 Z2.2 F720
;AFTER_LAYER_CHANGE
;2.2
; printing object OV-PAM_h_36mm_1F.stl id:0 copy 0
G1 X138.59 Y137.289 F4200
G1 E1 F1500
;WIDTH:0.550038
G1 F1200
G1 X138.487 Y137.419 E.00771
G1 X138.342 Y137.441 E.00679
G1 X111.751 Y137.441 E1.23337
G1 X111.613 Y137.46 E.00648
M73 P7 R33
M73 Q7 S33
G1 X111.495 Y137.374 E.00679
G1 X92.692 Y118.571 E1.23337
G1 X92.581 Y118.487 E.00648
M73 P7 R32
M73 Q7 S32
G1 X92.559 Y118.342 E.00679
G1 X92.559 Y91.751 E1.23337
G1 X92.54 Y91.613 E.00648
G1 X92.626 Y91.495 E.00679
G1 X111.429 Y72.692 E1.23337
G1 X111.513 Y72.581 E.00648
G1 X111.658 Y72.559 E.00679
G1 X138.249 Y72.559 E1.23337
G1 X138.387 Y72.54 E.00648
G1 X138.505 Y72.626 E.00679
G1 X157.308 Y91.429 E1.23337
G1 X157.419 Y91.513 E.00648
G1 X157.441 Y91.658 E.00679
G1 X157.441 Y118.249 E1.23337
G1 X157.46 Y118.387 E.00648
G1 X157.374 Y118.505 E.00679
G1 X138.633 Y137.246 E1.22935
G1 X138.427 Y137.258 F4200
; stop printing object OV-PAM_h_36mm_1F.stl id:0 copy 0
;LAYER_CHANGE
;Z:2.4
;HEIGHT:0.2
;BEFORE_LAYER_CHANGE
G92 E0.0
;2.4


G1 E-1 F2400
G1 Z2.4 F720
;AFTER_LAYER_CHANGE
;2.4
; printing object OV-PAM_h_36mm_1F.stl id:0 copy 0
G1 X138.574 Y137.141 F4200
G1 E1 F1500
;WIDTH:0.504798
G1 F1200
G1 X138.522 Y137.212 E.00371
;WIDTH:0.557985
G1 X138.468 Y137.293 E.00458
G1 X138.294 Y137.326 E.00835
;WIDTH:0.504798
G1 X111.863 Y137.326 E1.11662
G1 X111.784 Y137.339 E.00336
;WIDTH:0.557982
G1 X111.689 Y137.358 E.00458
G1 X111.543 Y137.258 E.00835
;WIDTH:0.504798
G1 X92.853 Y118.568 E1.11662
G1 X92.788 Y118.522 E.00336
;WIDTH:0.557985
G1 X92.707 Y118.468 E.00458
G1 X92.674 Y118.294 E.00835
;WIDTH:0.504798
G1 X92.674 Y91.863 E1.11662
G1 X92.661 Y91.784 E.00336
;WIDTH:0.557982
G1 X92.642 Y91.689 E.00458
G1 X92.742 Y91.543 E.00835
;WIDTH:0.504798
G1 X111.432 Y72.853 E1.11662
G1 X111.478 Y72.788 E.00336
;WIDTH:0.557985
G1 X111.532 Y72.707 E.00458
G1 X111.706 Y72.674 E.00835
;WIDTH:0.504798
G1 X138.137 Y72.674 E1.11662
G1 X138.216 Y72.661 E.00336
;WIDTH:0.557982
G1 X138.311 Y72.642 E.00458
G1 X138.457 Y72.742 E.00835
;WIDTH:0.504798
G1 X157.147 Y91.432 E1.11662
G1 X157.212 Y91.478 E.00336
;WIDTH:0.557985
G1 X157.293 Y91.532 E.00458
G1 X157.326 Y91.706 E.00835
;WIDTH:0.504798
G1 X157.326 Y118.137 E1.11662
G1 X157.339 Y118.216 E.00336
;WIDTH:0.557982
G1 X157.358 Y118.311 E.00458
;WIDTH:0.570514
G1 X157.258 Y118.457 E.00856
;WIDTH:0.504798
G1 X138.617 Y137.099 E1.11373
; stop printing object OV-PAM_h_36mm_1F.stl id:0 copy 0
;LAYER_CHANGE
;Z:2.6
;HEIGHT:0.2
;BEFORE_LAYER_CHANGE
G92 E0.0
;2.6


G1 E-1 F2400
G1 Z2.6 F720
;AFTER_LAYER_CHANGE
;2.6
; printing object OV-PAM_h_36mm_1F.stl id:0 copy 0
G1 X138.53 Y137.042 F4200
M73 P8 R32
M73 Q8 S32
G1 E1 F1500
;WIDTH:0.544422
G1 F1200
G1 X138.509 Y137.076 E.00185
;WIDTH:0.596147
G1 X138.452 Y137.165 E.00532
G1 X138.342 Y137.191 E.00573
;WIDTH:0.544421
G1 X138.246 Y137.21 E.00448
G1 X111.974 Y137.21 E1.20512
G1 X111.871 Y137.233 E.00483
;WIDTH:0.596146
G1 X111.768 Y137.256 E.00532
G1 X111.672 Y137.196 E.00573
;WIDTH:0.544422
G1 X111.59 Y137.143 E.00448
G1 X93.013 Y118.565 E1.20513
G1 X92.924 Y118.509 E.00483
;WIDTH:0.596147
G1 X92.835 Y118.452 E.00532
G1 X92.809 Y118.342 E.00573
;WIDTH:0.544421
G1 X92.79 Y118.246 E.00448
G1 X92.79 Y91.974 E1.20512
G1 X92.767 Y91.871 E.00483
;WIDTH:0.596146
G1 X92.744 Y91.768 E.00532
G1 X92.804 Y91.672 E.00573
;WIDTH:0.544422
G1 X92.857 Y91.59 E.00448
G1 X111.435 Y73.013 E1.20513
G1 X111.491 Y72.924 E.00483
;WIDTH:0.596147
G1 X111.548 Y72.835 E.00532
G1 X111.658 Y72.809 E.00573
;WIDTH:0.544421
G1 X111.754 Y72.79 E.00448
G1 X138.026 Y72.79 E1.20512
G1 X138.129 Y72.767 E.00483
;WIDTH:0.596146
G1 X138.232 Y72.744 E.00532
G1 X138.328 Y72.804 E.00573
;WIDTH:0.544422
G1 X138.41 Y72.857 E.00448
G1 X156.987 Y91.435 E1.20513
G1 X157.076 Y91.491 E.00483
;WIDTH:0.596147
G1 X157.165 Y91.548 E.00532
G1 X157.191 Y91.658 E.00573
;WIDTH:0.544421
G1 X157.21 Y91.754 E.00448
G1 X157.21 Y118.026 E1.20512
G1 X157.233 Y118.129 E.00483
;WIDTH:0.596146
G1 X157.256 Y118.232 E.00532
;WIDTH:0.596146
G1 X157.196 Y118.328 E.00573
;WIDTH:0.544422
G1 X157.143 Y118.41 E.00448
G1 X138.563 Y136.991 E1.20535
G1 X138.49 Y137.037 F4200
; stop printing object OV-PAM_h_36mm_1F.stl id:0 copy 0
;LAYER_CHANGE
;Z:2.8
;HEIGHT:0.2
;BEFORE_LAYER_CHANGE
G92 E0.0
;2.8


G1 E-1 F2400
G1 Z2.8 F720
;AFTER_LAYER_CHANGE
;2.8
; printing object OV-PAM_h_36mm_1F.stl id:0 copy 0
G1 X138.505 Y136.924 F4200
G1 E1 F1500
G1 F1200
G1 X138.48 Y136.966 E.00225
;WIDTH:0.624193
G1 X138.438 Y137.035 E.00429
G1 X138.294 Y137.075 E.00795
;WIDTH:0.544421
G1 X138.198 Y137.095 E.00448
G1 X112.085 Y137.095 E1.19783
G1 X111.928 Y137.135 E.00741
;WIDTH:0.624194
G1 X111.85 Y137.155 E.00429
G1 X111.72 Y137.081 E.00795
;WIDTH:0.544422
G1 X111.638 Y137.027 E.00448
G1 X93.173 Y118.562 E1.19784
G1 X93.034 Y118.48 E.00741
;WIDTH:0.624193
G1 X92.965 Y118.438 E.00429
G1 X92.925 Y118.294 E.00795
;WIDTH:0.544421
G1 X92.905 Y118.198 E.00448
G1 X92.905 Y92.085 E1.19783
G1 X92.865 Y91.928 E.00741
;WIDTH:0.624194
G1 X92.845 Y91.85 E.00429
G1 X92.919 Y91.72 E.00795
;WIDTH:0.544422
G1 X92.973 Y91.638 E.00448
G1 X111.438 Y73.173 E1.19784
G1 X111.52 Y73.034 E.00741
;WIDTH:0.624193
G1 X111.562 Y72.965 E.00429
G1 X111.706 Y72.925 E.00795
;WIDTH:0.544421
G1 X111.802 Y72.905 E.00448
G1 X137.915 Y72.905 E1.19783
G1 X138.072 Y72.865 E.00741
;WIDTH:0.624194
G1 X138.15 Y72.845 E.00429
G1 X138.28 Y72.919 E.00795
;WIDTH:0.544422
G1 X138.362 Y72.973 E.00448
G1 X156.827 Y91.438 E1.19784
G1 X156.966 Y91.52 E.00741
;WIDTH:0.624193
G1 X157.035 Y91.562 E.00429
G1 X157.075 Y91.706 E.00795
;WIDTH:0.544421
