; generated by PrusaSlicer 2.5.2+win64 on 2023-10-19 at 01:32:47 UTC


;
;
; 

; external perimeters extrusion width = 0.40mm
; perimeters extrusion width = 0.40mm
; infill extrusion width = 0.40mm
; solid infill extrusion width = 0.40mm
; top infill extrusion width = 0.40mm
; first layer extrusion width = 0.40mm

M73 P0 R18
M73 Q0 S18
M201 X1000 Y1000 Z200 E5000 ; sets maximum accelerations, mm/sec^2
M203 X200 Y200 Z12 E120 ; sets maximum feedrates, mm / sec
M204 P1250 R1250 T1250 ; sets acceleration (P, T) and retract acceleration (R), mm/sec^2
M205 X8.00 Y8.00 Z0.40 E4.50 ; sets the jerk limits, mm/sec
M205 S0 T0 ; sets the minimum extruding and travel feed rate, mm/sec
M107
;TYPE:Custom
M862.3 P "MK3S" ; printer model check
M862.1 P0.4 ; nozzle diameter check
M115 U3.12.2 ; tell printer latest fw version
G90 ; use absolute coordinates
M83 ; extruder relative mode
M104 S230 ; set extruder temp
M140 S50 ; set bed temp
M190 S50 ; wait for bed temp
M109 S230 ; wait for extruder temp
G28 W ; home all without mesh bed level
G80 ; mesh bed leveling

G1 Z0.2 F720
G1 Y-3 F1000 ; go outside print area
G92 E0
G1 X60 E9 F1000 ; intro line
G1 X100 E12.5 F1000 ; intro line

G92 E0
M221 S95

; Don't change E values below. Excessive value can damage the printer.
M907 E430 ; set extruder motor current
G21 ; set units to millimeters
G90 ; use absolute coordinates
M83 ; use relative distances for extrusion
M900 K0 ; Filament gcode
M107
;LAYER_CHANGE
;Z:0.2
;HEIGHT:0.2
;BEFORE_LAYER_CHANGE
G92 E0.0
;0.2


G1 E-1 F2400
G1 Z.2 F720
;AFTER_LAYER_CHANGE
;0.2
G1 X89.234 Y88.795 F4200
G1 E1 F1500
M204 S300
;TYPE:Skirt/Brim
;WIDTH:0.4
G1 F1200
G1 X108.795 Y69.234 E.90348
G1 X110.189 Y68.397 E.05312
G1 X111.169 Y68.251 E.03234
G1 X138.831 Y68.251 E.90348
G1 X140.409 Y68.645 E.05312
G1 X141.205 Y69.234 E.03234
G1 X160.766 Y88.795 E.90348
G1 X161.603 Y90.189 E.05312
M73 P1 R18
M73 Q1 S18
G1 X161.749 Y91.169 E.03234
G1 X161.749 Y118.831 E.90348
G1 X161.355 Y120.409 E.05312
G1 X160.766 Y121.205 E.03234
G1 X141.205 Y140.766 E.90348
G1 X139.811 Y141.603 E.05312
G1 X138.831 Y141.749 E.03234
G1 X111.169 Y141.749 E.90348
G1 X109.591 Y141.355 E.05312
G1 X108.795 Y140.766 E.03234
G1 X89.234 Y121.205 E.90348
G1 X88.397 Y119.811 E.05312
G1 X88.251 Y118.831 E.03234
G1 X88.251 Y91.169 E.90348
G1 X88.645 Y89.591 E.05312
G1 X89.199 Y88.843 E.03038
; printing object OV-PAM_h_12mm_1F.stl id:0 copy 0
G1 E-1 F2400
G1 X111.308 Y71.919 F4200
G1 E1 F1500
;TYPE:External perimeter
;WIDTH:0.666659
G1 F1200
G1 X138.702 Y71.92 E1.56286
G1 X158.08 Y91.298 E1.56343
G1 X158.08 Y118.702 E1.56343
M73 P2 R18
M73 Q2 S18
G1 X138.702 Y138.08 E1.56343
G1 X111.298 Y138.08 E1.56343
G1 X91.92 Y118.702 E1.56343
G1 X91.92 Y91.298 E1.56343
G1 X111.259 Y71.952 E1.5606
G1 X111.36 Y71.522 F4200
; stop printing object OV-PAM_h_12mm_1F.stl id:0 copy 0
;LAYER_CHANGE
;Z:0.4
;HEIGHT:0.2
;BEFORE_LAYER_CHANGE
G92 E0.0
;0.4


G1 E-1 F2400
G1 Z.4 F720
;AFTER_LAYER_CHANGE
;0.4
G1 X109.407 Y68.867 F4200
G1 E1 F1500
;TYPE:Skirt/Brim
;WIDTH:0.4
G1 F2100.372
G1 X110.189 Y68.397 E.0298
G1 X111.169 Y68.251 E.03234
G1 X138.831 Y68.251 E.90348
G1 X140.409 Y68.645 E.05312
M73 P2 R17
M73 Q2 S17
G1 X141.205 Y69.234 E.03234
G1 X160.766 Y88.795 E.90348
G1 X161.603 Y90.189 E.05312
M73 P3 R17
M73 Q3 S17
G1 X161.749 Y91.169 E.03234
G1 X161.749 Y118.831 E.90348
G1 X161.355 Y120.409 E.05312
G1 X160.766 Y121.205 E.03234
G1 X141.205 Y140.766 E.90348
G1 X139.811 Y141.603 E.05312
G1 X138.831 Y141.749 E.03234
G1 X111.169 Y141.749 E.90348
G1 X109.591 Y141.355 E.05312
G1 X108.795 Y140.766 E.03234
G1 X89.234 Y121.205 E.90348
G1 X88.397 Y119.811 E.05312
G1 X88.251 Y118.831 E.03234
G1 X88.251 Y91.169 E.90348
G1 X88.645 Y89.591 E.05312
G1 X89.234 Y88.795 E.03234
G1 X108.795 Y69.234 E.90348
G1 X109.356 Y68.898 E.02137
; printing object OV-PAM_h_12mm_1F.stl id:0 copy 0
G1 E-1 F2400
G1 X111.348 Y72.042 F4200
G1 X111.348 Y72.042
G1 X111.298 Y71.92
G1 E1 F1500
;TYPE:External perimeter
;WIDTH:0.666659
G1 F1200
G1 X138.702 Y71.92 E1.56343
G1 X158.08 Y91.298 E1.56343
G1 X158.08 Y118.702 E1.56343
G1 X138.702 Y138.08 E1.56343
G1 X111.298 Y138.08 E1.56343
M73 P4 R17
M73 Q4 S17
G1 X91.92 Y118.702 E1.56343
G1 X91.92 Y91.298 E1.56343
G1 X111.251 Y71.958 E1.56003
G1 X111.35 Y71.523 F4200
; stop printing object OV-PAM_h_12mm_1F.stl id:0 copy 0
;LAYER_CHANGE
;Z:0.6
;HEIGHT:0.2
;BEFORE_LAYER_CHANGE
G92 E0.0
;0.6


G1 E-1 F2400
G1 Z.6 F720
;AFTER_LAYER_CHANGE
;0.6
G1 X109.398 Y68.872 F4200
G1 E1 F1500
;TYPE:Skirt/Brim
;WIDTH:0.4
G1 F2100.372
G1 X110.189 Y68.397 E.03013
G1 X111.169 Y68.251 E.03234
G1 X138.831 Y68.251 E.90348
G1 X140.409 Y68.645 E.05312
G1 X141.205 Y69.234 E.03234
G1 X160.766 Y88.795 E.90348
G1 X161.603 Y90.189 E.05312
G1 X161.749 Y91.169 E.03234
G1 X161.749 Y118.831 E.90348
G1 X161.355 Y120.409 E.05312
G1 X160.766 Y121.205 E.03234
G1 X141.205 Y140.766 E.90348
G1 X139.811 Y141.603 E.05312
G1 X138.831 Y141.749 E.03234
G1 X111.169 Y141.749 E.90348
G1 X109.591 Y141.355 E.05312
G1 X108.795 Y140.766 E.03234
G1 X89.234 Y121.205 E.90348
G1 X88.397 Y119.811 E.05312
M73 P5 R17
M73 Q5 S17
G1 X88.251 Y118.831 E.03234
G1 X88.251 Y91.169 E.90348
G1 X88.645 Y89.591 E.05312
G1 X89.234 Y88.795 E.03234
G1 X108.795 Y69.234 E.90348
G1 X109.347 Y68.903 E.02104
; printing object OV-PAM_h_12mm_1F.stl id:0 copy 0
G1 E-1 F2400
G1 X111.348 Y72.042 F4200
G1 X111.348 Y72.042
G1 X111.272 Y71.941
G1 E1 F1500
;TYPE:External perimeter
;WIDTH:0.666659
G1 F1200
G1 X111.298 Y71.92 E.0019
G1 X111.417 Y71.908 E.00684
G1 X138.702 Y71.92 E1.55662
G1 X158.08 Y91.298 E1.56343
G1 X158.08 Y118.702 E1.56343
G1 X138.702 Y138.08 E1.56343
G1 X111.298 Y138.08 E1.56343
G1 X91.92 Y118.702 E1.56343
G1 X91.92 Y91.298 E1.56343
G1 X111.226 Y71.979 E1.55814
M73 P6 R17
M73 Q6 S17
G1 X111.261 Y71.91 F4200
; stop printing object OV-PAM_h_12mm_1F.stl id:0 copy 0
;LAYER_CHANGE
;Z:0.8
;HEIGHT:0.2
;BEFORE_LAYER_CHANGE
G92 E0.0
;0.8


G1 E-1 F2400
G1 Z.8 F720
;AFTER_LAYER_CHANGE
;0.8
; printing object OV-PAM_h_12mm_1F.stl id:0 copy 0
G1 X111.219 Y71.984 F4200
G1 E1 F1500
G1 F1200
G1 X111.298 Y71.92 E.00581
G1 X111.417 Y71.908 E.00684
G1 X138.702 Y71.92 E1.55662
G1 X158.08 Y91.298 E1.56343
G1 X158.08 Y118.702 E1.56343
G1 X138.702 Y138.08 E1.56343
G1 X111.298 Y138.08 E1.56343
G1 X91.92 Y118.702 E1.56343
G1 X91.92 Y91.298 E1.56343
G1 X111.175 Y72.026 E1.55424
M73 P7 R17
M73 Q7 S17
G1 X111.186 Y71.888 F4200
; stop printing object OV-PAM_h_12mm_1F.stl id:0 copy 0
;LAYER_CHANGE
;Z:1
;HEIGHT:0.2
;BEFORE_LAYER_CHANGE
G92 E0.0
;1


G1 E-1 F2400
G1 Z1 F720
;AFTER_LAYER_CHANGE
;1
; printing object OV-PAM_h_12mm_1F.stl id:0 copy 0
G1 X111.161 Y72.04 F4200
G1 E1 F1500
G1 F1200
G1 X111.298 Y71.92 E.0104
G1 X111.417 Y71.908 E.00684
G1 X138.702 Y71.92 E1.55662
G1 X158.08 Y91.298 E1.56343
G1 X158.08 Y118.702 E1.56343
G1 X138.702 Y138.08 E1.56343
G1 X111.298 Y138.08 E1.56343
G1 X91.92 Y118.702 E1.56343
G1 X91.92 Y91.298 E1.56343
M73 P8 R17
M73 Q8 S17
G1 X111.118 Y72.083 E1.54964
G1 X111.098 Y71.869 F4200
; stop printing object OV-PAM_h_12mm_1F.stl id:0 copy 0
;LAYER_CHANGE
;Z:1.2
;HEIGHT:0.2
;BEFORE_LAYER_CHANGE
G92 E0.0
;1.2


G1 E-1 F2400
G1 Z1.2 F720
;AFTER_LAYER_CHANGE
;1.2
; printing object OV-PAM_h_12mm_1F.stl id:0 copy 0
G1 X111.1 Y72.104 F4200
G1 E1 F1500
;WIDTH:0.670967
G1 F1194.179
G1 X111.299 Y71.922 E.01547
G1 X111.419 Y71.91 E.00694
G1 X138.701 Y71.922 E1.56723
G1 X158.078 Y91.299 E1.57413
M73 P8 R16
M73 Q8 S16
G1 X158.078 Y118.701 E1.57413
G1 X138.701 Y138.078 E1.57413
G1 X111.299 Y138.078 E1.57413
G1 X91.922 Y118.701 E1.57413
G1 X91.922 Y91.299 E1.57413
M73 P9 R16
M73 Q9 S16
G1 X111.058 Y72.146 E1.55522
G1 X111.004 Y71.852 F4200
; stop printing object OV-PAM_h_12mm_1F.stl id:0 copy 0
;LAYER_CHANGE
;Z:1.4
;HEIGHT:0.2
;BEFORE_LAYER_CHANGE
G92 E0.0
;1.4


G1 E-1 F2400
G1 Z1.4 F720
;AFTER_LAYER_CHANGE
;1.4
; printing object OV-PAM_h_12mm_1F.stl id:0 copy 0
G1 X111.148 Y72.32 F4200
G1 E1 F1500
;WIDTH:0.524819
G1 F1200
G1 X111.371 Y72.107 E.01361
G1 X111.467 Y72.097 E.00426
G1 X138.622 Y72.104 E1.1969
G1 X157.893 Y91.371 E1.20114
G1 X157.896 Y118.622 E1.20114
G1 X138.629 Y137.893 E1.20114
G1 X111.378 Y137.896 E1.20114
G1 X92.107 Y118.629 E1.20114
G1 X92.104 Y91.378 E1.20114
M73 P10 R16
M73 Q10 S16
G1 X111.105 Y72.363 E1.1849
G1 X111.453 Y72.365 F4200
; stop printing object OV-PAM_h_12mm_1F.stl id:0 copy 0
;LAYER_CHANGE
;Z:1.6
;HEIGHT:0.2
;BEFORE_LAYER_CHANGE
G92 E0.0
;1.6


G1 E-1 F2400
G1 Z1.6 F720
;AFTER_LAYER_CHANGE
;1.6
; printing object OV-PAM_h_12mm_1F.stl id:0 copy 0
G1 X111.088 Y72.543 F4200
G1 E1 F1500
;WIDTH:0.544423
G1 F1200
G1 X111.184 Y72.447 E.00618
G1 X111.242 Y72.355 E.00503
;WIDTH:0.603475
G1 X111.3 Y72.262 E.00562
G1 X111.419 Y72.232 E.00629
;WIDTH:0.544423
G1 X111.515 Y72.212 E.00448
G1 X138.249 Y72.212 E1.22629
G1 X138.355 Y72.188 E.00503
;WIDTH:0.603474
G1 X138.462 Y72.163 E.00562
G1 X138.567 Y72.226 E.00629
;WIDTH:0.544423
G1 X138.649 Y72.28 E.00448
G1 X157.553 Y91.184 E1.22629
G1 X157.645 Y91.242 E.00503
;WIDTH:0.603475
G1 X157.738 Y91.3 E.00562
G1 X157.768 Y91.419 E.00629
;WIDTH:0.544423
G1 X157.788 Y91.515 E.00448
G1 X157.788 Y118.249 E1.22629
G1 X157.812 Y118.355 E.00503
;WIDTH:0.603474
G1 X157.837 Y118.462 E.00562
;WIDTH:0.603476
G1 X157.774 Y118.567 E.00629
;WIDTH:0.544423
G1 X157.72 Y118.649 E.00448
G1 X138.816 Y137.553 E1.22629
G1 X138.758 Y137.645 E.00503
;WIDTH:0.603475
G1 X138.7 Y137.738 E.00562
G1 X138.581 Y137.768 E.00629
;WIDTH:0.544423
G1 X138.485 Y137.788 E.00448
G1 X111.751 Y137.788 E1.22629
G1 X111.645 Y137.812 E.00503
;WIDTH:0.603474
G1 X111.538 Y137.837 E.00562
G1 X111.433 Y137.774 E.00629
;WIDTH:0.544423
G1 X111.351 Y137.72 E.00448
G1 X92.447 Y118.816 E1.22629
G1 X92.355 Y118.758 E.00503
;WIDTH:0.603475
M73 P11 R16
M73 Q11 S16
G1 X92.262 Y118.7 E.00562
G1 X92.232 Y118.581 E.00629
;WIDTH:0.544423
G1 X92.212 Y118.485 E.00448
G1 X92.212 Y91.751 E1.22629
G1 X92.188 Y91.645 E.00503
;WIDTH:0.603474
G1 X92.163 Y91.538 E.00562
G1 X92.226 Y91.433 E.00629
;WIDTH:0.544423
G1 X92.28 Y91.351 E.00448
G1 X111.046 Y72.585 E1.21736
G1 X111.219 Y72.577 F4200
; stop printing object OV-PAM_h_12mm_1F.stl id:0 copy 0
;LAYER_CHANGE
;Z:1.8
;HEIGHT:0.2
;BEFORE_LAYER_CHANGE
G92 E0.0
;1.8


G1 E-1 F2400
G1 Z1.8 F720
;AFTER_LAYER_CHANGE
;1.8
; printing object OV-PAM_h_12mm_1F.stl id:0 copy 0
G1 X111.214 Y72.732 F4200
G1 X111.281 Y72.656
G1 X111.522 Y72.462
G1 X138.17 Y72.429
G1 X138.478 Y72.462
G1 X157.344 Y91.281
G1 X157.538 Y91.522
G1 X157.571 Y118.17
G1 X157.538 Y118.478
G1 X139.047 Y136.969
G1 X138.882 Y137.158
G1 X138.97 Y137.235
G1 E1 F1500
;WIDTH:0.504801
G1 F1200
G1 X157.441 Y118.764 E1.10355
G1 X157.641 Y118.115 F4200
;WIDTH:0.4
G1 F1200
G1 X158.134 Y118.115 E.01609
G1 X157.641 Y118.608 E.02276
G1 X157.641 Y118.175 E.01414
G1 X157.441 Y118.462 F4200
G1 X157.672 Y117.915
;WIDTH:0.504802
G1 F1200
G1 X157.672 Y91.793 E1.10355
G1 X157.355 Y91.193 F4200
;WIDTH:0.4
G1 F1200
G1 X157.703 Y90.844 E.0161
G1 X157.703 Y91.541 E.02276
G1 X157.397 Y91.235 E.01414
G1 X157.458 Y91.579 F4200
G1 X157.235 Y91.03
;WIDTH:0.504801
G1 F1200
G1 X138.764 Y72.559 E1.10355
G1 X138.115 Y72.359 F4200
;WIDTH:0.4
G1 F1200
G1 X138.115 Y71.866 E.01609
G1 X138.608 Y72.359 E.02276
G1 X138.175 Y72.359 E.01414
G1 X138.462 Y72.559 F4200
G1 X137.915 Y72.328
;WIDTH:0.504802
G1 F1200
G1 X111.793 Y72.328 E1.10355
G1 X111.193 Y72.645 F4200
;WIDTH:0.4
M73 P12 R16
M73 Q12 S16
G1 F1200
G1 X110.844 Y72.297 E.0161
G1 X111.541 Y72.297 E.02276
G1 X111.235 Y72.603 E.01414
G1 X111.579 Y72.542 F4200
G1 X111.03 Y72.765
;WIDTH:0.504801
G1 F1200
G1 X92.559 Y91.236 E1.10355
G1 X92.359 Y91.885 F4200
;WIDTH:0.4
G1 F1200
G1 X91.866 Y91.885 E.01609
G1 X92.359 Y91.392 E.02276
G1 X92.359 Y91.825 E.01414
G1 X92.559 Y91.538 F4200
G1 X92.328 Y92.085
;WIDTH:0.504802
G1 F1200
G1 X92.328 Y118.207 E1.10355
G1 X92.645 Y118.807 F4200
;WIDTH:0.4
G1 F1200
G1 X92.297 Y119.156 E.0161
G1 X92.297 Y118.459 E.02276
G1 X92.603 Y118.765 E.01414
G1 X92.542 Y118.421 F4200
G1 X92.765 Y118.97
;WIDTH:0.504801
G1 F1200
G1 X111.236 Y137.441 E1.10355
G1 X111.885 Y137.641 F4200
;WIDTH:0.4
G1 F1200
G1 X111.885 Y138.134 E.01609
G1 X111.392 Y137.641 E.02276
G1 X111.825 Y137.641 E.01414
G1 X111.538 Y137.441 F4200
G1 X112.085 Y137.672
;WIDTH:0.504802
G1 F1200
G1 X138.207 Y137.672 E1.10355
G1 X138.807 Y137.355 F4200
;WIDTH:0.4
G1 F1200
G1 X139.156 Y137.703 E.0161
G1 X138.459 Y137.703 E.02276
G1 X138.765 Y137.397 E.01414
G1 X138.421 Y137.458 F4200
; stop printing object OV-PAM_h_12mm_1F.stl id:0 copy 0
;LAYER_CHANGE
;Z:2
;HEIGHT:0.2
;BEFORE_LAYER_CHANGE
G92 E0.0
;2


G1 E-1 F2400
G1 Z2 F720
;AFTER_LAYER_CHANGE
;2
; printing object OV-PAM_h_12mm_1F.stl id:0 copy 0
G1 X139.124 Y136.918 F4200
G1 E1 F1500
;WIDTH:0.504801
G1 F1200
G1 X157.326 Y118.716 E1.08744
G1 X157.526 Y117.782 F4200
;WIDTH:0.4
G1 F1200
G1 X157.992 Y117.782 E.01522
G1 X157.992 Y118.094 E.0102
G1 X157.526 Y118.56 E.02153
G1 X157.526 Y117.842 E.02346
G1 X157.918 Y117.86 F4200
G1 X157.557 Y117.582
;WIDTH:0.504802
G1 F1200
G1 X157.557 Y91.841 E1.08745
G1 X157.037 Y91.039 F4200
;WIDTH:0.4
G1 F1200
G1 X157.367 Y90.709 E.01522
G1 X157.588 Y90.93 E.0102
G1 X157.588 Y91.589 E.02153
G1 X157.08 Y91.081 E.02346
G1 X157.37 Y90.817 F4200
G1 X156.918 Y90.876
;WIDTH:0.504801
G1 F1200
G1 X138.716 Y72.674 E1.08744
G1 X137.782 Y72.474 F4200
;WIDTH:0.4
M73 P13 R16
M73 Q13 S16
G1 F1200
G1 X137.782 Y72.008 E.01522
G1 X138.094 Y72.008 E.0102
G1 X138.56 Y72.474 E.02153
G1 X137.842 Y72.474 E.02346
G1 X137.86 Y72.082 F4200
G1 X137.582 Y72.443
;WIDTH:0.504802
G1 F1200
G1 X111.841 Y72.443 E1.08745
G1 X110.93 Y72.412 F4200
;WIDTH:0.4
G1 F1200
G1 X111.589 Y72.412 E.02153
G1 X111.039 Y72.963 E.02542
G1 X110.709 Y72.633 E.01522
G1 X110.888 Y72.455 E.00824
G1 X111.289 Y72.589 F4200
G1 X110.876 Y73.082
;WIDTH:0.504801
G1 F1200
G1 X92.674 Y91.284 E1.08744
G1 X92.008 Y91.906 F4200
;WIDTH:0.4
G1 F1200
G1 X92.474 Y91.44 E.02153
G1 X92.474 Y92.218 E.02542
G1 X92.008 Y92.218 E.01522
G1 X92.008 Y91.966 E.00824
G1 X92.387 Y91.777 F4200
G1 X92.443 Y92.418
;WIDTH:0.504802
G1 F1200
G1 X92.443 Y118.159 E1.08745
G1 X92.412 Y119.07 F4200
;WIDTH:0.4
G1 F1200
G1 X92.412 Y118.411 E.02153
G1 X92.963 Y118.961 E.02542
G1 X92.633 Y119.291 E.01522
G1 X92.455 Y119.112 E.00824
G1 X92.589 Y118.711 F4200
G1 X93.082 Y119.124
;WIDTH:0.504801
G1 F1200
G1 X111.284 Y137.326 E1.08744
G1 X112.218 Y137.526 F4200
;WIDTH:0.4
G1 F1200
G1 X112.218 Y137.992 E.01522
G1 X111.906 Y137.992 E.0102
G1 X111.44 Y137.526 E.02153
G1 X112.158 Y137.526 E.02346
G1 X112.14 Y137.918 F4200
G1 X112.418 Y137.557
;WIDTH:0.504802
G1 F1200
G1 X138.159 Y137.557 E1.08745
G1 X138.961 Y137.037 F4200
;WIDTH:0.4
M73 P13 R15
M73 Q13 S15
G1 F1200
G1 X139.291 Y137.367 E.01522
G1 X139.07 Y137.588 E.0102
G1 X138.411 Y137.588 E.02153
G1 X138.919 Y137.08 E.02346
G1 X139.183 Y137.37 F4200
; stop printing object OV-PAM_h_12mm_1F.stl id:0 copy 0
;LAYER_CHANGE
;Z:2.2
;HEIGHT:0.2
;BEFORE_LAYER_CHANGE
G92 E0.0
;2.2


G1 E-1 F2400
G1 Z2.2 F720
;AFTER_LAYER_CHANGE
;2.2
; printing object OV-PAM_h_12mm_1F.stl id:0 copy 0
G1 X139.278 Y136.6 F4200
G1 E1 F1500
;WIDTH:0.504801
G1 F1200
G1 X157.853 Y118.026 E1.10973
G1 X157.41 Y117.826 F4200
;WIDTH:0.4
G1 F1200
G1 X157.41 Y117.449 E.01233
G1 X157.992 Y117.449 E.01899
G1 X157.992 Y117.826 E.01233
G1 X157.47 Y117.826 E.01703
G1 X157.533 Y117.469 F4200
G1 X157.441 Y117.249
;WIDTH:0.504802
G1 F1200
G1 X157.441 Y90.98 E1.10974
G1 X156.987 Y91.152 F4200
;WIDTH:0.4
M73 P14 R15
M73 Q14 S15
G1 F1200
G1 X156.72 Y90.885 E.01233
G1 X157.131 Y90.474 E.01899
G1 X157.398 Y90.741 E.01233
G1 X157.029 Y91.109 E.01703
G1 X156.822 Y90.812 F4200
G1 X156.6 Y90.722
;WIDTH:0.504801
G1 F1200
G1 X138.026 Y72.147 E1.10973
G1 X137.449 Y72.59 F4200
;WIDTH:0.4
G1 F1200
G1 X137.449 Y72.008 E.01899
G1 X137.826 Y72.008 E.01233
G1 X137.826 Y72.59 E.01899
G1 X137.509 Y72.59 E.01037
G1 X137.525 Y72.197 F4200
G1 X137.249 Y72.559
;WIDTH:0.504802
G1 F1200
G1 X110.98 Y72.559 E1.10974
G1 X110.885 Y73.28 F4200
;WIDTH:0.4
G1 F1200
G1 X110.474 Y72.869 E.01899
G1 X110.741 Y72.602 E.01233
G1 X111.152 Y73.013 E.01899
G1 X110.927 Y73.238 E.01037
G1 X110.661 Y72.948 F4200
G1 X110.722 Y73.4
