; generated by PrusaSlicer 2.5.2+win64 on 2023-10-19 at 01:33:34 UTC


;
;
; 

; external perimeters extrusion width = 0.40mm
; perimeters extrusion width = 0.40mm
; infill extrusion width = 0.40mm
; solid infill extrusion width = 0.40mm
; top infill extrusion width = 0.40mm
; first layer extrusion width = 0.40mm

M73 P0 R20
M73 Q0 S20
M201 X1000 Y1000 Z200 E5000 ; sets maximum accelerations, mm/sec^2
M203 X200 Y200 Z12 E120 ; sets maximum feedrates, mm / sec
M204 P1250 R1250 T1250 ; sets acceleration (P, T) and retract acceleration (R), mm/sec^2
M205 X8.00 Y8.00 Z0.40 E4.50 ; sets the jerk limits, mm/sec
M205 S0 T0 ; sets the minimum extruding and travel feed rate, mm/sec
M107
;TYPE:Custom
M862.3 P "MK3S" ; printer model check
M862.1 P0.4 ; nozzle diameter check
M115 U3.12.2 ; tell printer latest fw version
G90 ; use absolute coordinates
M83 ; extruder relative mode
M104 S230 ; set extruder temp
M140 S50 ; set bed temp
M190 S50 ; wait for bed temp
M109 S230 ; wait for extruder temp
G28 W ; home all without mesh bed level
G80 ; mesh bed leveling

G1 Z0.2 F720
G1 Y-3 F1000 ; go outside print area
G92 E0
G1 X60 E9 F1000 ; intro line
G1 X100 E12.5 F1000 ; intro line

G92 E0
M221 S95

; Don't change E values below. Excessive value can damage the printer.
M907 E430 ; set extruder motor current
G21 ; set units to millimeters
G90 ; use absolute coordinates
M83 ; use relative distances for extrusion
M900 K0 ; Filament gcode
M107
;LAYER_CHANGE
;Z:0.2
;HEIGHT:0.2
;BEFORE_LAYER_CHANGE
G92 E0.0
;0.2


G1 E-1 F2400
G1 Z.2 F720
;AFTER_LAYER_CHANGE
;0.2
G1 X89.234 Y88.795 F4200
G1 E1 F1500
M204 S300
;TYPE:Skirt/Brim
;WIDTH:0.4
G1 F1200
G1 X108.795 Y69.234 E.90348
G1 X110.189 Y68.397 E.05312
G1 X111.169 Y68.251 E.03234
G1 X138.831 Y68.251 E.90348
G1 X140.409 Y68.645 E.05312
G1 X141.205 Y69.234 E.03234
G1 X160.766 Y88.795 E.90348
G1 X161.603 Y90.189 E.05312
G1 X161.749 Y91.169 E.03234
G1 X161.749 Y118.831 E.90348
G1 X161.355 Y120.409 E.05312
M73 P1 R20
M73 Q1 S20
G1 X160.766 Y121.205 E.03234
G1 X141.205 Y140.766 E.90348
G1 X139.811 Y141.603 E.05312
G1 X138.831 Y141.749 E.03234
G1 X111.169 Y141.749 E.90348
G1 X109.591 Y141.355 E.05312
G1 X108.795 Y140.766 E.03234
G1 X89.234 Y121.205 E.90348
G1 X88.397 Y119.811 E.05312
G1 X88.251 Y118.831 E.03234
G1 X88.251 Y91.169 E.90348
G1 X88.645 Y89.591 E.05312
G1 X89.199 Y88.843 E.03038
; printing object OV-PAM_h_18mm_1F.stl id:0 copy 0
G1 E-1 F2400
G1 X111.257 Y138.047 F4200
G1 E1 F1500
;TYPE:External perimeter
;WIDTH:0.666659
G1 F1200
G1 X91.92 Y118.702 E1.56045
G1 X91.92 Y91.298 E1.56343
G1 X111.298 Y71.92 E1.56343
G1 X138.702 Y71.92 E1.56343
M73 P2 R20
M73 Q2 S20
G1 X158.08 Y91.298 E1.56343
G1 X158.08 Y118.702 E1.56343
G1 X138.702 Y138.08 E1.56343
G1 X111.305 Y138.081 E1.56301
G1 X110.94 Y138.29 F4200
; stop printing object OV-PAM_h_18mm_1F.stl id:0 copy 0
;LAYER_CHANGE
;Z:0.4
;HEIGHT:0.2
;BEFORE_LAYER_CHANGE
G92 E0.0
;0.4


G1 E-1 F2400
G1 Z.4 F720
;AFTER_LAYER_CHANGE
;0.4
G1 X110.435 Y141.566 F4200
G1 E1 F1500
;TYPE:Skirt/Brim
;WIDTH:0.4
G1 F2100.372
G1 X109.591 Y141.355 E.02843
G1 X108.795 Y140.766 E.03234
G1 X89.234 Y121.205 E.90348
G1 X88.397 Y119.811 E.05312
G1 X88.251 Y118.831 E.03234
G1 X88.251 Y91.169 E.90348
G1 X88.645 Y89.591 E.05312
G1 X89.234 Y88.795 E.03234
G1 X108.795 Y69.234 E.90348
G1 X110.189 Y68.397 E.05312
G1 X111.169 Y68.251 E.03234
G1 X138.831 Y68.251 E.90348
G1 X140.409 Y68.645 E.05312
G1 X141.205 Y69.234 E.03234
G1 X160.766 Y88.795 E.90348
G1 X161.603 Y90.189 E.05312
G1 X161.749 Y91.169 E.03234
G1 X161.749 Y118.831 E.90348
G1 X161.355 Y120.409 E.05312
M73 P3 R20
M73 Q3 S20
G1 X160.766 Y121.205 E.03234
G1 X141.205 Y140.766 E.90348
G1 X139.811 Y141.603 E.05312
G1 X138.831 Y141.749 E.03234
G1 X111.169 Y141.749 E.90348
G1 X110.493 Y141.58 E.02274
; printing object OV-PAM_h_18mm_1F.stl id:0 copy 0
G1 E-1 F2400
G1 X111.348 Y137.958 F4200
G1 X111.348 Y137.958
G1 X111.274 Y138.06
G1 E1 F1500
;TYPE:External perimeter
;WIDTH:0.666659
G1 F1200
G1 X91.92 Y118.702 E1.56167
G1 X91.92 Y91.298 E1.56343
G1 X111.298 Y71.92 E1.56343
G1 X138.702 Y71.92 E1.56343
G1 X158.08 Y91.298 E1.56343
G1 X158.08 Y118.702 E1.56343
G1 X138.702 Y138.08 E1.56343
G1 X111.327 Y138.083 E1.56179
G1 X110.956 Y138.304 F4200
; stop printing object OV-PAM_h_18mm_1F.stl id:0 copy 0
;LAYER_CHANGE
;Z:0.6
;HEIGHT:0.2
;BEFORE_LAYER_CHANGE
G92 E0.0
;0.6


M73 P4 R20
M73 Q4 S20
G1 E-1 F2400
G1 Z.6 F720
;AFTER_LAYER_CHANGE
;0.6
G1 X110.456 Y141.571 F4200
G1 E1 F1500
;TYPE:Skirt/Brim
;WIDTH:0.4
G1 F2100.372
G1 X109.591 Y141.355 E.02912
G1 X108.795 Y140.766 E.03234
G1 X89.234 Y121.205 E.90348
G1 X88.397 Y119.811 E.05312
M73 P4 R19
M73 Q4 S19
G1 X88.251 Y118.831 E.03234
G1 X88.251 Y91.169 E.90348
G1 X88.645 Y89.591 E.05312
G1 X89.234 Y88.795 E.03234
G1 X108.795 Y69.234 E.90348
G1 X110.189 Y68.397 E.05312
G1 X111.169 Y68.251 E.03234
G1 X138.831 Y68.251 E.90348
G1 X140.409 Y68.645 E.05312
G1 X141.205 Y69.234 E.03234
G1 X160.766 Y88.795 E.90348
G1 X161.603 Y90.189 E.05312
G1 X161.749 Y91.169 E.03234
G1 X161.749 Y118.831 E.90348
G1 X161.355 Y120.409 E.05312
G1 X160.766 Y121.205 E.03234
G1 X141.205 Y140.766 E.90348
G1 X139.811 Y141.603 E.05312
G1 X138.831 Y141.749 E.03234
G1 X111.169 Y141.749 E.90348
G1 X110.514 Y141.585 E.02204
; printing object OV-PAM_h_18mm_1F.stl id:0 copy 0
G1 E-1 F2400
G1 X111.348 Y137.958 F4200
G1 X111.348 Y137.958
G1 X111.329 Y138.083
G1 E1 F1500
;TYPE:External perimeter
;WIDTH:0.666659
G1 F1200
G1 X111.298 Y138.08 E.00178
G1 X111.205 Y138.004 E.00684
G1 X91.92 Y118.702 E1.55663
G1 X91.92 Y91.298 E1.56343
G1 X111.298 Y71.92 E1.56343
G1 X138.702 Y71.92 E1.56343
M73 P5 R19
M73 Q5 S19
G1 X158.08 Y91.298 E1.56343
G1 X158.08 Y118.702 E1.56343
G1 X138.702 Y138.08 E1.56343
G1 X111.389 Y138.089 E1.55826
G1 X111.315 Y138.111 F4200
; stop printing object OV-PAM_h_18mm_1F.stl id:0 copy 0
;LAYER_CHANGE
;Z:0.8
;HEIGHT:0.2
;BEFORE_LAYER_CHANGE
G92 E0.0
;0.8


G1 E-1 F2400
G1 Z.8 F720
;AFTER_LAYER_CHANGE
;0.8
; printing object OV-PAM_h_18mm_1F.stl id:0 copy 0
G1 X111.372 Y138.087 F4200
G1 E1 F1500
G1 F1200
G1 X111.298 Y138.08 E.00428
G1 X111.205 Y138.004 E.00684
G1 X91.92 Y118.702 E1.55663
G1 X91.92 Y91.298 E1.56343
G1 X111.298 Y71.92 E1.56343
G1 X138.702 Y71.92 E1.56343
G1 X158.08 Y91.298 E1.56343
M73 P6 R19
M73 Q6 S19
G1 X158.08 Y118.702 E1.56343
G1 X138.702 Y138.08 E1.56343
G1 X111.432 Y138.092 E1.55576
G1 X111.339 Y138.155 F4200
; stop printing object OV-PAM_h_18mm_1F.stl id:0 copy 0
;LAYER_CHANGE
;Z:1
;HEIGHT:0.2
;BEFORE_LAYER_CHANGE
G92 E0.0
;1


G1 E-1 F2400
G1 Z1 F720
;AFTER_LAYER_CHANGE
;1
; printing object OV-PAM_h_18mm_1F.stl id:0 copy 0
G1 X111.429 Y138.092 F4200
G1 E1 F1500
G1 F1200
G1 X111.298 Y138.08 E.00753
G1 X111.205 Y138.004 E.00684
G1 X91.92 Y118.702 E1.55663
G1 X91.92 Y91.298 E1.56343
G1 X111.298 Y71.92 E1.56343
G1 X138.702 Y71.92 E1.56343
G1 X158.08 Y91.298 E1.56343
G1 X158.08 Y118.702 E1.56343
M73 P7 R19
M73 Q7 S19
G1 X138.702 Y138.08 E1.56343
G1 X111.489 Y138.092 E1.55251
G1 X111.372 Y138.211 F4200
; stop printing object OV-PAM_h_18mm_1F.stl id:0 copy 0
;LAYER_CHANGE
;Z:1.2
;HEIGHT:0.2
;BEFORE_LAYER_CHANGE
G92 E0.0
;1.2


G1 E-1 F2400
G1 Z1.2 F720
;AFTER_LAYER_CHANGE
;1.2
; printing object OV-PAM_h_18mm_1F.stl id:0 copy 0
G1 X111.483 Y138.09 F4200
G1 E1 F1500
;WIDTH:0.670967
G1 F1194.179
G1 X111.299 Y138.078 E.01064
G1 X111.205 Y138.001 E.00694
G1 X91.922 Y118.701 E1.56723
G1 X91.922 Y91.299 E1.57413
G1 X111.299 Y71.922 E1.57413
G1 X138.701 Y71.922 E1.57413
G1 X158.078 Y91.299 E1.57413
G1 X158.078 Y118.701 E1.57413
G1 X138.701 Y138.078 E1.57413
M73 P8 R19
M73 Q8 S19
G1 X111.543 Y138.09 E1.56007
G1 X111.405 Y138.258 F4200
; stop printing object OV-PAM_h_18mm_1F.stl id:0 copy 0
;LAYER_CHANGE
;Z:1.4
;HEIGHT:0.2
;BEFORE_LAYER_CHANGE
G92 E0.0
;1.4


G1 E-1 F2400
G1 Z1.4 F720
;AFTER_LAYER_CHANGE
;1.4
; printing object OV-PAM_h_18mm_1F.stl id:0 copy 0
G1 X111.566 Y137.903 F4200
G1 E1 F1500
;WIDTH:0.523074
G1 F1200
G1 X111.375 Y137.894 E.0084
G1 X111.303 Y137.836 E.00405
G1 X92.106 Y118.625 E1.19273
G1 X92.106 Y91.375 E1.19677
G1 X111.375 Y72.106 E1.19677
G1 X138.625 Y72.106 E1.19677
G1 X157.894 Y91.375 E1.19677
G1 X157.894 Y118.625 E1.19677
G1 X138.625 Y137.894 E1.19677
M73 P8 R18
M73 Q8 S18
G1 X111.626 Y137.903 E1.18574
M73 P9 R18
M73 Q9 S18
G1 X111.487 Y138.078 F4200
; stop printing object OV-PAM_h_18mm_1F.stl id:0 copy 0
;LAYER_CHANGE
;Z:1.6
;HEIGHT:0.2
;BEFORE_LAYER_CHANGE
G92 E0.0
;1.6


G1 E-1 F2400
G1 Z1.6 F720
;AFTER_LAYER_CHANGE
;1.6
; printing object OV-PAM_h_18mm_1F.stl id:0 copy 0
G1 X111.691 Y137.788 F4200
G1 E1 F1500
;WIDTH:0.543963
G1 F1200
G1 X111.46 Y137.801 E.0106
G1 X111.351 Y137.72 E.00623
G1 X92.33 Y118.698 E1.23281
G1 X92.232 Y118.62 E.00575
G1 X92.212 Y118.485 E.00623
G1 X92.212 Y91.585 E1.23281
G1 X92.199 Y91.46 E.00575
G1 X92.28 Y91.351 E.00623
G1 X111.302 Y72.33 E1.23281
G1 X111.38 Y72.232 E.00575
G1 X111.515 Y72.212 E.00623
G1 X138.415 Y72.212 E1.23281
G1 X138.54 Y72.199 E.00575
G1 X138.649 Y72.28 E.00623
G1 X157.67 Y91.302 E1.23281
G1 X157.768 Y91.38 E.00575
G1 X157.788 Y91.515 E.00623
G1 X157.788 Y118.415 E1.23281
G1 X157.801 Y118.54 E.00575
G1 X157.72 Y118.649 E.00623
G1 X138.698 Y137.67 E1.23281
G1 X138.62 Y137.768 E.00575
G1 X138.485 Y137.788 E.00623
G1 X111.751 Y137.788 E1.22518
G1 X111.568 Y137.592 F4200
; stop printing object OV-PAM_h_18mm_1F.stl id:0 copy 0
;LAYER_CHANGE
;Z:1.8
;HEIGHT:0.2
;BEFORE_LAYER_CHANGE
G92 E0.0
;1.8


M73 P10 R18
M73 Q10 S18
G1 E-1 F2400
G1 Z1.8 F720
;AFTER_LAYER_CHANGE
;1.8
; printing object OV-PAM_h_18mm_1F.stl id:0 copy 0
G1 X111.837 Y137.672 F4200
G1 E1 F1500
;WIDTH:0.544423
G1 F1200
G1 X111.662 Y137.706 E.00815
;WIDTH:0.606864
G1 X111.59 Y137.723 E.00383
G1 X111.481 Y137.658 E.00656
;WIDTH:0.544422
G1 X111.399 Y137.605 E.00448
G1 X92.568 Y118.774 E1.22155
G1 X92.442 Y118.696 E.00682
;WIDTH:0.606865
G1 X92.379 Y118.656 E.00383
G1 X92.348 Y118.533 E.00656
;WIDTH:0.544423
G1 X92.328 Y118.438 E.00448
G1 X92.328 Y91.807 E1.22155
G1 X92.294 Y91.662 E.00682
;WIDTH:0.606864
G1 X92.277 Y91.59 E.00383
G1 X92.342 Y91.481 E.00656
;WIDTH:0.544422
G1 X92.395 Y91.399 E.00448
G1 X111.226 Y72.568 E1.22155
G1 X111.304 Y72.442 E.00682
;WIDTH:0.606865
G1 X111.344 Y72.379 E.00383
G1 X111.467 Y72.348 E.00656
;WIDTH:0.544423
G1 X111.562 Y72.328 E.00448
G1 X138.193 Y72.328 E1.22155
G1 X138.338 Y72.294 E.00682
;WIDTH:0.606864
G1 X138.41 Y72.277 E.00383
G1 X138.519 Y72.342 E.00656
;WIDTH:0.544422
G1 X138.601 Y72.395 E.00448
G1 X157.432 Y91.226 E1.22155
G1 X157.558 Y91.304 E.00682
;WIDTH:0.606865
G1 X157.621 Y91.344 E.00383
G1 X157.652 Y91.467 E.00656
;WIDTH:0.544423
G1 X157.672 Y91.562 E.00448
G1 X157.672 Y118.193 E1.22155
G1 X157.706 Y118.338 E.00682
;WIDTH:0.606864
G1 X157.723 Y118.41 E.00383
;WIDTH:0.606865
G1 X157.658 Y118.519 E.00656
;WIDTH:0.544422
G1 X157.605 Y118.601 E.00448
G1 X138.774 Y137.432 E1.22155
G1 X138.696 Y137.558 E.00682
;WIDTH:0.606865
G1 X138.656 Y137.621 E.00383
G1 X138.533 Y137.652 E.00656
;WIDTH:0.544423
G1 X138.438 Y137.672 E.00448
G1 X111.897 Y137.672 E1.21744
G1 X111.729 Y137.531 F4200
; stop printing object OV-PAM_h_18mm_1F.stl id:0 copy 0
;LAYER_CHANGE
;Z:2
;HEIGHT:0.2
;BEFORE_LAYER_CHANGE
G92 E0.0
;2


G1 E-1 F2400
G1 Z2 F720
;AFTER_LAYER_CHANGE
;2
; printing object OV-PAM_h_18mm_1F.stl id:0 copy 0
G1 X111.891 Y137.435 F4200
G1 X138.43 Y137.423
G1 X138.656 Y137.214
M73 P11 R18
M73 Q11 S18
G1 X138.759 Y137.106
G1 X138.849 Y137.193
G1 E1 F1500
;WIDTH:0.504801
G1 F1200
G1 X157.326 Y118.716 E1.10387
G1 X157.526 Y118.171 F4200
;WIDTH:0.4
G1 F1200
G1 X157.915 Y118.171 E.01272
G1 X157.526 Y118.56 E.01799
G1 X157.526 Y118.231 E.01076
G1 X157.331 Y118.508 F4200
G1 X157.557 Y117.971
;WIDTH:0.504802
G1 F1200
G1 X157.557 Y91.841 E1.10388
G1 X157.588 Y91.589 F4200
;WIDTH:0.4
G1 F1200
G1 X157.312 Y91.314 E.01272
G1 X157.588 Y91.039 E.01272
G1 X157.588 Y91.529 E.01603
G1 X157.964 Y91.488 F4200
G1 X157.193 Y91.151
;WIDTH:0.504801
G1 F1200
G1 X138.716 Y72.674 E1.10387
G1 X138.171 Y72.474 F4200
;WIDTH:0.4
G1 F1200
G1 X138.171 Y72.085 E.01272
G1 X138.56 Y72.474 E.01799
G1 X138.231 Y72.474 E.01076
G1 X138.508 Y72.669 F4200
G1 X137.971 Y72.443
;WIDTH:0.504802
G1 F1200
G1 X111.841 Y72.443 E1.10388
G1 X111.314 Y72.688 F4200
;WIDTH:0.4
G1 F1200
G1 X111.039 Y72.412 E.01272
G1 X111.589 Y72.412 E.01799
G1 X111.356 Y72.645 E.01076
G1 X111.69 Y72.587 F4200
G1 X111.151 Y72.807
;WIDTH:0.504801
G1 F1200
G1 X92.674 Y91.284 E1.10387
G1 X92.474 Y91.829 F4200
;WIDTH:0.4
G1 F1200
G1 X92.085 Y91.829 E.01272
G1 X92.474 Y91.44 E.01799
G1 X92.474 Y91.769 E.01076
G1 X92.669 Y91.492 F4200
G1 X92.443 Y92.029
;WIDTH:0.504802
G1 F1200
G1 X92.443 Y118.159 E1.10388
G1 X92.688 Y118.686 F4200
;WIDTH:0.4
G1 F1200
G1 X92.412 Y118.961 E.01272
G1 X92.412 Y118.411 E.01799
G1 X92.645 Y118.644 E.01076
G1 X92.587 Y118.31 F4200
G1 X92.807 Y118.849
;WIDTH:0.504801
G1 F1200
G1 X111.284 Y137.326 E1.10387
G1 X111.829 Y137.526 F4200
;WIDTH:0.4
G1 F1200
G1 X111.829 Y137.915 E.01272
G1 X111.44 Y137.526 E.01799
G1 X111.769 Y137.526 E.01076
G1 X111.492 Y137.331 F4200
G1 X112.029 Y137.557
;WIDTH:0.504802
G1 F1200
G1 X138.159 Y137.557 E1.10388
G1 X138.411 Y137.588 F4200
;WIDTH:0.4
G1 F1200
G1 X138.686 Y137.312 E.01272
G1 X138.961 Y137.588 E.01272
G1 X138.471 Y137.588 E.01603
G1 X138.512 Y137.964 F4200
; stop printing object OV-PAM_h_18mm_1F.stl id:0 copy 0
;LAYER_CHANGE
;Z:2.2
;HEIGHT:0.2
;BEFORE_LAYER_CHANGE
G92 E0.0
;2.2


G1 E-1 F2400
G1 Z2.2 F720
;AFTER_LAYER_CHANGE
;2.2
; printing object OV-PAM_h_18mm_1F.stl id:0 copy 0
M73 P12 R18
M73 Q12 S18
G1 X138.925 Y136.954 F4200
G1 E1 F1500
;WIDTH:0.504803
G1 F1200
G1 X157.21 Y118.669 E1.09247
G1 X157.41 Y117.949 F4200
;WIDTH:0.4
G1 F1200
G1 X157.974 Y117.949 E.01841
G1 X157.41 Y118.512 E.02604
G1 X157.41 Y118.009 E.01645
G1 X157.21 Y118.295 F4200
G1 X157.441 Y117.749
;WIDTH:0.504802
G1 F1200
G1 X157.441 Y91.889 E1.09247
G1 X157.074 Y91.238 F4200
;WIDTH:0.4
G1 F1200
G1 X157.472 Y90.84 E.01841
G1 X157.472 Y91.637 E.02604
G1 X157.116 Y91.281 E.01645
G1 X157.177 Y91.625 F4200
G1 X156.954 Y91.075
;WIDTH:0.504803
G1 F1200
G1 X138.669 Y72.79 E1.09247
G1 X137.949 Y72.59 F4200
;WIDTH:0.4
G1 F1200
G1 X137.949 Y72.026 E.01841
G1 X138.512 Y72.59 E.02604
G1 X138.009 Y72.59 E.01645
G1 X138.295 Y72.79 F4200
G1 X137.749 Y72.559
;WIDTH:0.504802
G1 F1200
G1 X111.889 Y72.559 E1.09247
G1 X111.238 Y72.926 F4200
;WIDTH:0.4
G1 F1200
G1 X110.84 Y72.528 E.01841
G1 X111.637 Y72.528 E.02604
G1 X111.281 Y72.884 E.01645
G1 X111.625 Y72.823 F4200
G1 X111.075 Y73.046
;WIDTH:0.504803
G1 F1200
G1 X92.79 Y91.331 E1.09247
G1 X92.59 Y92.051 F4200
;WIDTH:0.4
G1 F1200
G1 X92.026 Y92.051 E.01841
G1 X92.59 Y91.488 E.02604
G1 X92.59 Y91.991 E.01645
G1 X92.79 Y91.705 F4200
G1 X92.559 Y92.251
;WIDTH:0.504802
G1 F1200
G1 X92.559 Y118.111 E1.09247
G1 X92.926 Y118.762 F4200
;WIDTH:0.4
G1 F1200
G1 X92.528 Y119.16 E.01841
G1 X92.528 Y118.363 E.02604
G1 X92.884 Y118.719 E.01645
G1 X92.823 Y118.375 F4200
G1 X93.046 Y118.925
;WIDTH:0.504803
G1 F1200
G1 X111.331 Y137.21 E1.09247
G1 X112.051 Y137.41 F4200
;WIDTH:0.4
G1 F1200
G1 X112.051 Y137.974 E.01841
G1 X111.488 Y137.41 E.02604
G1 X111.991 Y137.41 E.01645
G1 X111.705 Y137.21 F4200
G1 X112.251 Y137.441
;WIDTH:0.504802
G1 F1200
G1 X138.111 Y137.441 E1.09247
G1 X138.762 Y137.074 F4200
;WIDTH:0.4
M73 P13 R18
M73 Q13 S18
G1 F1200
G1 X139.16 Y137.472 E.01841
G1 X138.363 Y137.472 E.02604
G1 X138.719 Y137.116 E.01645
G1 X138.375 Y137.177 F4200
; stop printing object OV-PAM_h_18mm_1F.stl id:0 copy 0
;LAYER_CHANGE
;Z:2.4
;HEIGHT:0.2
;BEFORE_LAYER_CHANGE
G92 E0.0
;2.4


G1 E-1 F2400
G1 Z2.4 F720
;AFTER_LAYER_CHANGE
;2.4
; printing object OV-PAM_h_18mm_1F.stl id:0 copy 0
G1 X112.298 Y137.384 F4200
G1 E1 F1500
;WIDTH:0.627598
G1 F1200
G1 X112.228 Y137.408 E.00396
;WIDTH:0.709462
G1 F1125.21
G1 X112.166 Y137.428 E.00395
G1 X112.135 Y137.492 E.00436
;WIDTH:0.783433
G1 F1012.812
G1 X112.088 Y137.586 E.00707
G1 X111.981 Y137.541 E.00789
;WIDTH:0.725191
G1 F1099.271
G1 X111.874 Y137.496 E.00727
;WIDTH:0.637034
G1 F1200
G1 X111.766 Y137.451 E.00633
;WIDTH:0.548878
G1 X111.712 Y137.428 E.0027
G1 X93.285 Y119 E1.20603
G1 X93.169 Y118.942 E.006
