; generated by PrusaSlicer 2.5.2+win64 on 2023-10-19 at 01:34:03 UTC


;
;
; 

; external perimeters extrusion width = 0.40mm
; perimeters extrusion width = 0.40mm
; infill extrusion width = 0.40mm
; solid infill extrusion width = 0.40mm
; top infill extrusion width = 0.40mm
; first layer extrusion width = 0.40mm

M73 P0 R31
M73 Q0 S31
M201 X1000 Y1000 Z200 E5000 ; sets maximum accelerations, mm/sec^2
M203 X200 Y200 Z12 E120 ; sets maximum feedrates, mm / sec
M204 P1250 R1250 T1250 ; sets acceleration (P, T) and retract acceleration (R), mm/sec^2
M205 X8.00 Y8.00 Z0.40 E4.50 ; sets the jerk limits, mm/sec
M205 S0 T0 ; sets the minimum extruding and travel feed rate, mm/sec
M107
;TYPE:Custom
M862.3 P "MK3S" ; printer model check
M862.1 P0.4 ; nozzle diameter check
M115 U3.12.2 ; tell printer latest fw version
G90 ; use absolute coordinates
M83 ; extruder relative mode
M104 S230 ; set extruder temp
M140 S50 ; set bed temp
M190 S50 ; wait for bed temp
M109 S230 ; wait for extruder temp
G28 W ; home all without mesh bed level
G80 ; mesh bed leveling

G1 Z0.2 F720
G1 Y-3 F1000 ; go outside print area
G92 E0
G1 X60 E9 F1000 ; intro line
G1 X100 E12.5 F1000 ; intro line

G92 E0
M221 S95

; Don't change E values below. Excessive value can damage the printer.
M907 E430 ; set extruder motor current
G21 ; set units to millimeters
G90 ; use absolute coordinates
M83 ; use relative distances for extrusion
M900 K0 ; Filament gcode
M107
;LAYER_CHANGE
;Z:0.2
;HEIGHT:0.2
;BEFORE_LAYER_CHANGE
G92 E0.0
;0.2


G1 E-1 F2400
G1 Z.2 F720
;AFTER_LAYER_CHANGE
;0.2
G1 X89.234 Y88.795 F4200
G1 E1 F1500
M204 S300
;TYPE:Skirt/Brim
;WIDTH:0.4
G1 F1200
G1 X108.795 Y69.234 E.90348
G1 X110.189 Y68.397 E.05312
G1 X111.169 Y68.251 E.03234
G1 X138.831 Y68.251 E.90348
G1 X140.409 Y68.645 E.05312
G1 X141.205 Y69.234 E.03234
G1 X160.766 Y88.795 E.90348
G1 X161.603 Y90.189 E.05312
G1 X161.749 Y91.169 E.03234
G1 X161.749 Y118.831 E.90348
G1 X161.355 Y120.409 E.05312
G1 X160.766 Y121.205 E.03234
G1 X141.205 Y140.766 E.90348
G1 X139.811 Y141.603 E.05312
G1 X138.831 Y141.749 E.03234
G1 X111.169 Y141.749 E.90348
G1 X109.591 Y141.355 E.05312
G1 X108.795 Y140.766 E.03234
G1 X89.234 Y121.205 E.90348
G1 X88.397 Y119.811 E.05312
G1 X88.251 Y118.831 E.03234
G1 X88.251 Y91.169 E.90348
G1 X88.645 Y89.591 E.05312
M73 P1 R30
M73 Q1 S30
G1 X89.199 Y88.843 E.03038
; printing object OV-PAM_h_30mm_1F.stl id:0 copy 0
G1 E-1 F2400
G1 X138.753 Y138.039 F4200
G1 E1 F1500
;TYPE:External perimeter
;WIDTH:0.666659
G1 F1200
G1 X138.702 Y138.08 E.00373
G1 X138.583 Y138.092 E.00684
G1 X111.298 Y138.08 E1.55662
G1 X91.92 Y118.702 E1.56343
G1 X91.92 Y91.298 E1.56343
G1 X111.298 Y71.92 E1.56343
G1 X138.702 Y71.92 E1.56343
G1 X158.08 Y91.298 E1.56343
G1 X158.08 Y118.702 E1.56343
G1 X138.799 Y138 E1.55631
G1 X138.774 Y138.101 F4200
; stop printing object OV-PAM_h_30mm_1F.stl id:0 copy 0
;LAYER_CHANGE
;Z:0.4
;HEIGHT:0.2
;BEFORE_LAYER_CHANGE
G92 E0.0
;0.4


G1 E-1 F2400
G1 Z.4 F720
;AFTER_LAYER_CHANGE
;0.4
G1 X140.657 Y141.095 F4200
G1 E1 F1500
;TYPE:Skirt/Brim
;WIDTH:0.4
G1 F2100.372
G1 X139.811 Y141.603 E.03224
G1 X138.831 Y141.749 E.03234
G1 X111.169 Y141.749 E.90348
G1 X109.591 Y141.355 E.05312
G1 X108.795 Y140.766 E.03234
G1 X89.234 Y121.205 E.90348
G1 X88.397 Y119.811 E.05312
G1 X88.251 Y118.831 E.03234
G1 X88.251 Y91.169 E.90348
G1 X88.645 Y89.591 E.05312
G1 X89.234 Y88.795 E.03234
G1 X108.795 Y69.234 E.90348
G1 X110.189 Y68.397 E.05312
G1 X111.169 Y68.251 E.03234
G1 X138.831 Y68.251 E.90348
G1 X140.409 Y68.645 E.05312
G1 X141.205 Y69.234 E.03234
G1 X160.766 Y88.795 E.90348
G1 X161.603 Y90.189 E.05312
M73 P2 R30
M73 Q2 S30
G1 X161.749 Y91.169 E.03234
G1 X161.749 Y118.831 E.90348
G1 X161.355 Y120.409 E.05312
G1 X160.766 Y121.205 E.03234
G1 X141.205 Y140.766 E.90348
G1 X140.708 Y141.064 E.01893
; printing object OV-PAM_h_30mm_1F.stl id:0 copy 0
G1 E-1 F2400
G1 X138.652 Y137.958 F4200
G1 X138.672 Y137.938
G1 X138.764 Y138.03
G1 E1 F1500
;TYPE:External perimeter
;WIDTH:0.666659
G1 F1200
G1 X138.702 Y138.08 E.00452
G1 X138.583 Y138.092 E.00684
G1 X111.298 Y138.08 E1.55662
G1 X91.92 Y118.702 E1.56343
G1 X91.92 Y91.298 E1.56343
G1 X111.298 Y71.92 E1.56343
G1 X138.702 Y71.92 E1.56343
G1 X158.08 Y91.298 E1.56343
G1 X158.08 Y118.702 E1.56343
G1 X138.809 Y137.99 E1.55552
G1 X138.789 Y138.105 F4200
; stop printing object OV-PAM_h_30mm_1F.stl id:0 copy 0
;LAYER_CHANGE
;Z:0.6
;HEIGHT:0.2
;BEFORE_LAYER_CHANGE
G92 E0.0
;0.6


G1 E-1 F2400
G1 Z.6 F720
;AFTER_LAYER_CHANGE
;0.6
G1 X140.668 Y141.088 F4200
G1 E1 F1500
;TYPE:Skirt/Brim
;WIDTH:0.4
G1 F2100.372
G1 X139.811 Y141.603 E.03268
G1 X138.831 Y141.749 E.03234
G1 X111.169 Y141.749 E.90348
G1 X109.591 Y141.355 E.05312
G1 X108.795 Y140.766 E.03234
G1 X89.234 Y121.205 E.90348
G1 X88.397 Y119.811 E.05312
G1 X88.251 Y118.831 E.03234
G1 X88.251 Y91.169 E.90348
G1 X88.645 Y89.591 E.05312
G1 X89.234 Y88.795 E.03234
G1 X108.795 Y69.234 E.90348
G1 X110.189 Y68.397 E.05312
G1 X111.169 Y68.251 E.03234
G1 X138.831 Y68.251 E.90348
G1 X140.409 Y68.645 E.05312
G1 X141.205 Y69.234 E.03234
G1 X160.766 Y88.795 E.90348
G1 X161.603 Y90.189 E.05312
M73 P3 R30
M73 Q3 S30
G1 X161.749 Y91.169 E.03234
G1 X161.749 Y118.831 E.90348
G1 X161.355 Y120.409 E.05312
G1 X160.766 Y121.205 E.03234
G1 X141.205 Y140.766 E.90348
G1 X140.72 Y141.057 E.01849
; printing object OV-PAM_h_30mm_1F.stl id:0 copy 0
G1 E-1 F2400
G1 X138.652 Y137.958 F4200
G1 X138.683 Y137.927
G1 X138.776 Y138.02
G1 E1 F1500
;TYPE:External perimeter
;WIDTH:0.666659
G1 F1200
G1 X138.702 Y138.08 E.00541
G1 X138.583 Y138.092 E.00684
G1 X111.298 Y138.08 E1.55662
G1 X91.92 Y118.702 E1.56343
G1 X91.92 Y91.298 E1.56343
G1 X111.298 Y71.92 E1.56343
G1 X138.702 Y71.92 E1.56343
G1 X158.08 Y91.298 E1.56343
G1 X158.08 Y118.702 E1.56343
G1 X138.82 Y137.979 E1.55463
G1 X138.806 Y138.11 F4200
; stop printing object OV-PAM_h_30mm_1F.stl id:0 copy 0
;LAYER_CHANGE
;Z:0.8
;HEIGHT:0.2
;BEFORE_LAYER_CHANGE
G92 E0.0
;0.8


G1 E-1 F2400
G1 Z.8 F720
;AFTER_LAYER_CHANGE
;0.8
; printing object OV-PAM_h_30mm_1F.stl id:0 copy 0
G1 X138.789 Y138.009 F4200
G1 E1 F1500
G1 F1200
G1 X138.702 Y138.08 E.0064
G1 X138.583 Y138.092 E.00684
G1 X111.298 Y138.08 E1.55662
G1 X91.92 Y118.702 E1.56343
G1 X91.92 Y91.298 E1.56343
G1 X111.298 Y71.92 E1.56343
G1 X138.702 Y71.92 E1.56343
M73 P4 R30
M73 Q4 S30
G1 X158.08 Y91.298 E1.56343
G1 X158.08 Y118.702 E1.56343
G1 X138.832 Y137.967 E1.55365
M73 P4 R29
M73 Q4 S29
G1 X138.825 Y138.115 F4200
; stop printing object OV-PAM_h_30mm_1F.stl id:0 copy 0
;LAYER_CHANGE
;Z:1
;HEIGHT:0.2
;BEFORE_LAYER_CHANGE
G92 E0.0
;1


G1 E-1 F2400
G1 Z1 F720
;AFTER_LAYER_CHANGE
;1
; printing object OV-PAM_h_30mm_1F.stl id:0 copy 0
G1 X138.807 Y137.992 F4200
G1 E1 F1500
G1 F1200
G1 X138.702 Y138.08 E.0078
G1 X138.583 Y138.092 E.00684
G1 X111.298 Y138.08 E1.55662
G1 X91.92 Y118.702 E1.56343
G1 X91.92 Y91.298 E1.56343
G1 X111.298 Y71.92 E1.56343
G1 X138.702 Y71.92 E1.56343
G1 X158.08 Y91.298 E1.56343
G1 X158.08 Y118.702 E1.56343
G1 X138.849 Y137.95 E1.55224
G1 X138.852 Y138.121 F4200
; stop printing object OV-PAM_h_30mm_1F.stl id:0 copy 0
;LAYER_CHANGE
;Z:1.2
;HEIGHT:0.2
;BEFORE_LAYER_CHANGE
G92 E0.0
;1.2


G1 E-1 F2400
G1 Z1.2 F720
;AFTER_LAYER_CHANGE
;1.2
; printing object OV-PAM_h_30mm_1F.stl id:0 copy 0
G1 X138.823 Y137.973 F4200
G1 E1 F1500
;WIDTH:0.670968
G1 F1194.177
G1 X138.701 Y138.078 E.00925
G1 X138.581 Y138.09 E.00694
G1 X111.299 Y138.078 E1.56723
G1 X91.922 Y118.701 E1.57413
M73 P5 R29
M73 Q5 S29
G1 X91.922 Y91.299 E1.57413
G1 X111.299 Y71.922 E1.57413
G1 X138.701 Y71.922 E1.57413
G1 X158.078 Y91.299 E1.57413
G1 X158.078 Y118.701 E1.57413
G1 X138.866 Y137.93 E1.56146
G1 X138.877 Y138.124 F4200
; stop printing object OV-PAM_h_30mm_1F.stl id:0 copy 0
;LAYER_CHANGE
;Z:1.4
;HEIGHT:0.2
;BEFORE_LAYER_CHANGE
G92 E0.0
;1.4


G1 E-1 F2400
G1 Z1.4 F720
;AFTER_LAYER_CHANGE
;1.4
; printing object OV-PAM_h_30mm_1F.stl id:0 copy 0
G1 X138.728 Y137.804 F4200
G1 E1 F1500
;WIDTH:0.523074
G1 F1200
G1 X138.625 Y137.894 E.00601
G1 X138.533 Y137.903 E.00405
G1 X111.375 Y137.894 E1.19273
G1 X92.106 Y118.625 E1.19677
G1 X92.106 Y91.375 E1.19677
G1 X111.375 Y72.106 E1.19677
G1 X138.625 Y72.106 E1.19677
G1 X157.894 Y91.375 E1.19677
G1 X157.894 Y118.625 E1.19677
G1 X138.771 Y137.762 E1.18814
M73 P6 R29
M73 Q6 S29
G1 X138.775 Y137.933 F4200
; stop printing object OV-PAM_h_30mm_1F.stl id:0 copy 0
;LAYER_CHANGE
;Z:1.6
;HEIGHT:0.2
;BEFORE_LAYER_CHANGE
G92 E0.0
;1.6


G1 E-1 F2400
G1 Z1.6 F720
;AFTER_LAYER_CHANGE
;1.6
; printing object OV-PAM_h_30mm_1F.stl id:0 copy 0
G1 X138.685 Y137.684 F4200
G1 E1 F1500
;WIDTH:0.523879
G1 F1200
G1 X138.579 Y137.778 E.00623
G1 X138.485 Y137.788 E.00415
G1 X111.424 Y137.78 E1.19045
G1 X92.222 Y118.579 E1.19458
G1 X92.22 Y91.424 E1.19458
G1 X111.421 Y72.222 E1.19458
G1 X138.576 Y72.22 E1.19458
G1 X157.778 Y91.421 E1.19458
G1 X157.78 Y118.576 E1.19458
G1 X138.727 Y137.642 E1.18572
G1 X138.545 Y137.66 F4200
; stop printing object OV-PAM_h_30mm_1F.stl id:0 copy 0
;LAYER_CHANGE
;Z:1.8
;HEIGHT:0.2
;BEFORE_LAYER_CHANGE
G92 E0.0
;1.8


G1 E-1 F2400
G1 Z1.8 F720
;AFTER_LAYER_CHANGE
;1.8
; printing object OV-PAM_h_30mm_1F.stl id:0 copy 0
G1 X138.652 Y137.554 F4200
G1 E1 F1500
;WIDTH:0.533856
G1 F1200
G1 X138.553 Y137.658 E.00643
G1 X138.438 Y137.672 E.00524
G1 X111.491 Y137.676 E1.20999
G1 X111.399 Y137.605 E.00524
G1 X92.342 Y118.553 E1.20999
G1 X92.328 Y118.438 E.00524
G1 X92.324 Y91.491 E1.20999
G1 X92.395 Y91.399 E.00524
G1 X111.447 Y72.342 E1.20999
G1 X111.562 Y72.328 E.00524
M73 P7 R29
M73 Q7 S29
G1 X138.509 Y72.324 E1.20999
G1 X138.601 Y72.395 E.00524
G1 X157.658 Y91.447 E1.20999
G1 X157.672 Y91.562 E.00524
G1 X157.676 Y118.509 E1.20999
G1 X157.605 Y118.601 E.00524
G1 X138.694 Y137.511 E1.20087
G1 X138.513 Y137.519 F4200
; stop printing object OV-PAM_h_30mm_1F.stl id:0 copy 0
;LAYER_CHANGE
;Z:2
;HEIGHT:0.2
;BEFORE_LAYER_CHANGE
G92 E0.0
;2


G1 E-1 F2400
G1 Z2 F720
;AFTER_LAYER_CHANGE
;2
; printing object OV-PAM_h_30mm_1F.stl id:0 copy 0
G1 X138.645 Y137.398 F4200
G1 E1 F1500
;WIDTH:0.554228
G1 F1200
G1 X138.541 Y137.532 E.00794
G1 X138.39 Y137.557 E.00716
G1 X111.718 Y137.557 E1.24735
G1 X111.571 Y137.579 E.00695
G1 X111.447 Y137.489 E.00716
G1 X92.587 Y118.629 E1.24735
G1 X92.468 Y118.541 E.00695
M73 P7 R28
M73 Q7 S28
G1 X92.443 Y118.39 E.00716
G1 X92.443 Y91.718 E1.24735
G1 X92.421 Y91.571 E.00695
G1 X92.511 Y91.447 E.00716
G1 X111.371 Y72.587 E1.24735
G1 X111.459 Y72.468 E.00695
G1 X111.61 Y72.443 E.00716
G1 X138.282 Y72.443 E1.24735
G1 X138.429 Y72.421 E.00695
G1 X138.553 Y72.511 E.00716
G1 X157.413 Y91.371 E1.24735
G1 X157.532 Y91.459 E.00695
G1 X157.557 Y91.61 E.00716
G1 X157.557 Y118.282 E1.24735
G1 X157.579 Y118.429 E.00695
G1 X157.489 Y118.553 E.00716
G1 X138.687 Y137.355 E1.24354
G1 X138.477 Y137.368 F4200
; stop printing object OV-PAM_h_30mm_1F.stl id:0 copy 0
;LAYER_CHANGE
;Z:2.2
;HEIGHT:0.2
;BEFORE_LAYER_CHANGE
G92 E0.0
;2.2


G1 E-1 F2400
G1 Z2.2 F720
;AFTER_LAYER_CHANGE
;2.2
; printing object OV-PAM_h_30mm_1F.stl id:0 copy 0
G1 X138.636 Y137.246 F4200
G1 E1 F1500
;WIDTH:0.504802
G1 F1200
G1 X138.588 Y137.319 E.00368
;WIDTH:0.584932
G1 X138.534 Y137.401 E.00487
G1 X138.342 Y137.441 E.00974
;WIDTH:0.504802
G1 X111.851 Y137.441 E1.11912
G1 X111.755 Y137.461 E.00415
;WIDTH:0.584932
G1 X111.659 Y137.481 E.00487
G1 X111.495 Y137.374 E.00974
;WIDTH:0.504802
G1 X92.763 Y118.642 E1.11912
G1 X92.681 Y118.588 E.00415
;WIDTH:0.584932
M73 P8 R28
M73 Q8 S28
G1 X92.599 Y118.534 E.00487
G1 X92.559 Y118.342 E.00974
;WIDTH:0.504802
G1 X92.559 Y91.851 E1.11912
G1 X92.539 Y91.755 E.00415
;WIDTH:0.584932
G1 X92.519 Y91.659 E.00487
G1 X92.626 Y91.495 E.00974
;WIDTH:0.504802
G1 X111.358 Y72.763 E1.11912
G1 X111.412 Y72.681 E.00415
;WIDTH:0.584932
G1 X111.466 Y72.599 E.00487
G1 X111.658 Y72.559 E.00974
;WIDTH:0.504802
G1 X138.149 Y72.559 E1.11912
G1 X138.245 Y72.539 E.00415
;WIDTH:0.584932
G1 X138.341 Y72.519 E.00487
G1 X138.505 Y72.626 E.00974
;WIDTH:0.504802
G1 X157.237 Y91.358 E1.11912
G1 X157.319 Y91.412 E.00415
;WIDTH:0.584932
G1 X157.401 Y91.466 E.00487
G1 X157.441 Y91.658 E.00974
;WIDTH:0.504802
G1 X157.441 Y118.149 E1.11912
G1 X157.461 Y118.245 E.00415
;WIDTH:0.584932
G1 X157.481 Y118.341 E.00487
;WIDTH:0.584932
G1 X157.374 Y118.505 E.00974
;WIDTH:0.504802
G1 X138.677 Y137.202 E1.11706
; stop printing object OV-PAM_h_30mm_1F.stl id:0 copy 0
;LAYER_CHANGE
;Z:2.4
;HEIGHT:0.2
;BEFORE_LAYER_CHANGE
G92 E0.0
;2.4


G1 E-1 F2400
G1 Z2.4 F720
;AFTER_LAYER_CHANGE
;2.4
; printing object OV-PAM_h_30mm_1F.stl id:0 copy 0
G1 X138.59 Y137.169 F4200
G1 E1 F1500
;WIDTH:0.544424
G1 F1200
G1 X138.573 Y137.198 E.00158
;WIDTH:0.622218
G1 X138.532 Y137.267 E.00424
G1 X138.39 Y137.306 E.00779
;WIDTH:0.544425
G1 X138.294 Y137.326 E.00448
G1 X111.985 Y137.326 E1.20682
G1 X111.83 Y137.365 E.00734
;WIDTH:0.622218
G1 X111.752 Y137.385 E.00424
G1 X111.624 Y137.312 E.00779
;WIDTH:0.544424
G1 X111.543 Y137.258 E.00448
G1 X92.939 Y118.655 E1.20681
G1 X92.802 Y118.573 E.00734
;WIDTH:0.622218
G1 X92.733 Y118.532 E.00424
G1 X92.694 Y118.39 E.00779
;WIDTH:0.544425
G1 X92.674 Y118.294 E.00448
G1 X92.674 Y91.985 E1.20682
G1 X92.635 Y91.83 E.00734
;WIDTH:0.622218
G1 X92.615 Y91.752 E.00424
G1 X92.688 Y91.624 E.00779
;WIDTH:0.544424
G1 X92.742 Y91.543 E.00448
G1 X111.345 Y72.939 E1.20681
G1 X111.427 Y72.802 E.00734
;WIDTH:0.622218
G1 X111.468 Y72.733 E.00424
G1 X111.61 Y72.694 E.00779
;WIDTH:0.544425
G1 X111.706 Y72.674 E.00448
G1 X138.015 Y72.674 E1.20682
G1 X138.17 Y72.635 E.00734
;WIDTH:0.622218
G1 X138.248 Y72.615 E.00424
G1 X138.376 Y72.688 E.00779
;WIDTH:0.544424
G1 X138.457 Y72.742 E.00448
G1 X157.061 Y91.345 E1.20681
G1 X157.198 Y91.427 E.00734
;WIDTH:0.622218
G1 X157.267 Y91.468 E.00424
G1 X157.306 Y91.61 E.00779
;WIDTH:0.544425
G1 X157.326 Y91.706 E.00448
G1 X157.326 Y118.015 E1.20682
G1 X157.365 Y118.17 E.00734
;WIDTH:0.622218
G1 X157.385 Y118.248 E.00424
;WIDTH:0.622218
G1 X157.312 Y118.376 E.00779
;WIDTH:0.544424
G1 X157.258 Y118.457 E.00448
G1 X138.655 Y137.061 E1.20681
G1 X138.621 Y137.117 E.00301
M73 P9 R28
M73 Q9 S28
G1 X138.556 Y137.166 F4200
; stop printing object OV-PAM_h_30mm_1F.stl id:0 copy 0
;LAYER_CHANGE
;Z:2.6
;HEIGHT:0.2
;BEFORE_LAYER_CHANGE
G92 E0.0
;2.6


G1 E-1 F2400
G1 Z2.6 F720
;AFTER_LAYER_CHANGE
;2.6
; printing object OV-PAM_h_30mm_1F.stl id:0 copy 0
G1 X138.562 Y137.077 F4200
G1 E1 F1500
;WIDTH:0.662439
G1 F1200
G1 X138.532 Y137.132 E.00353
G1 X138.438 Y137.171 E.0058
;WIDTH:0.584048
G1 X138.246 Y137.21 E.00967
;WIDTH:0.504802
G1 X112.118 Y137.21 E1.10382
G1 X112.051 Y137.23 E.00297
;WIDTH:0.58362
G1 X111.916 Y137.27 E.00695
;WIDTH:0.662438
G1 X111.848 Y137.289 E.00398
G1 X111.754 Y137.25 E.0058
;WIDTH:0.584048
G1 X111.59 Y137.143 E.00967
;WIDTH:0.504802
G1 X93.115 Y118.667 E1.10382
G1 X93.053 Y118.634 E.00297
;WIDTH:0.583619
G1 X92.93 Y118.566 E.00695
;WIDTH:0.662439
G1 X92.868 Y118.532 E.00398
G1 X92.829 Y118.438 E.0058
;WIDTH:0.584048
G1 X92.79 Y118.246 E.00967
;WIDTH:0.504802
G1 X92.79 Y92.118 E1.10382
G1 X92.77 Y92.051 E.00297
;WIDTH:0.58362
G1 X92.73 Y91.916 E.00695
;WIDTH:0.662438
G1 X92.711 Y91.848 E.00398
G1 X92.75 Y91.754 E.0058
;WIDTH:0.584048
G1 X92.857 Y91.59 E.00967
;WIDTH:0.504802
G1 X111.333 Y73.115 E1.10382
G1 X111.366 Y73.053 E.00297
;WIDTH:0.583619
G1 X111.434 Y72.93 E.00695
;WIDTH:0.662439
G1 X111.468 Y72.868 E.00398
G1 X111.562 Y72.829 E.0058
;WIDTH:0.584048
G1 X111.754 Y72.79 E.00967
;WIDTH:0.504802
G1 X137.882 Y72.79 E1.10382
G1 X137.949 Y72.77 E.00297
;WIDTH:0.58362
G1 X138.084 Y72.73 E.00695
;WIDTH:0.662438
G1 X138.152 Y72.711 E.00398
G1 X138.246 Y72.75 E.0058
;WIDTH:0.584048
G1 X138.41 Y72.857 E.00967
;WIDTH:0.504802
G1 X156.885 Y91.333 E1.10382
G1 X156.947 Y91.366 E.00297
;WIDTH:0.583619
G1 X157.07 Y91.434 E.00695
;WIDTH:0.662439
G1 X157.132 Y91.468 E.00398
G1 X157.171 Y91.562 E.0058
;WIDTH:0.584048
G1 X157.21 Y91.754 E.00967
;WIDTH:0.504802
G1 X157.21 Y117.882 E1.10382
G1 X157.23 Y117.949 E.00297
;WIDTH:0.58362
G1 X157.27 Y118.084 E.00695
;WIDTH:0.662438
G1 X157.289 Y118.152 E.00398
;WIDTH:0.662439
G1 X157.25 Y118.246 E.0058
;WIDTH:0.584048
G1 X157.143 Y118.41 E.00967
