; generated by PrusaSlicer 2.5.2+win64 on 2023-10-19 at 01:35:00 UTC


;
;
; 

; external perimeters extrusion width = 0.40mm
; perimeters extrusion width = 0.40mm
; infill extrusion width = 0.40mm
; solid infill extrusion width = 0.40mm
; top infill extrusion width = 0.40mm
; first layer extrusion width = 0.40mm

M73 P0 R42
M73 Q0 S42
M201 X1000 Y1000 Z200 E5000 ; sets maximum accelerations, mm/sec^2
M203 X200 Y200 Z12 E120 ; sets maximum feedrates, mm / sec
M204 P1250 R1250 T1250 ; sets acceleration (P, T) and retract acceleration (R), mm/sec^2
M205 X8.00 Y8.00 Z0.40 E4.50 ; sets the jerk limits, mm/sec
M205 S0 T0 ; sets the minimum extruding and travel feed rate, mm/sec
M107
;TYPE:Custom
M862.3 P "MK3S" ; printer model check
M862.1 P0.4 ; nozzle diameter check
M115 U3.12.2 ; tell printer latest fw version
G90 ; use absolute coordinates
M83 ; extruder relative mode
M104 S230 ; set extruder temp
M140 S50 ; set bed temp
M190 S50 ; wait for bed temp
M109 S230 ; wait for extruder temp
G28 W ; home all without mesh bed level
G80 ; mesh bed leveling

G1 Z0.2 F720
G1 Y-3 F1000 ; go outside print area
G92 E0
G1 X60 E9 F1000 ; intro line
G1 X100 E12.5 F1000 ; intro line

G92 E0
M221 S95

; Don't change E values below. Excessive value can damage the printer.
M907 E430 ; set extruder motor current
G21 ; set units to millimeters
G90 ; use absolute coordinates
M83 ; use relative distances for extrusion
M900 K0 ; Filament gcode
M107
;LAYER_CHANGE
;Z:0.2
;HEIGHT:0.2
;BEFORE_LAYER_CHANGE
G92 E0.0
;0.2


G1 E-1 F2400
G1 Z.2 F720
;AFTER_LAYER_CHANGE
;0.2
G1 X89.234 Y88.795 F4200
G1 E1 F1500
M204 S300
;TYPE:Skirt/Brim
;WIDTH:0.4
G1 F1200
G1 X108.795 Y69.234 E.90348
G1 X110.189 Y68.397 E.05312
G1 X111.169 Y68.251 E.03234
G1 X138.831 Y68.251 E.90348
G1 X140.409 Y68.645 E.05312
G1 X141.205 Y69.234 E.03234
G1 X160.766 Y88.795 E.90348
G1 X161.603 Y90.189 E.05312
G1 X161.749 Y91.169 E.03234
G1 X161.749 Y118.831 E.90348
G1 X161.355 Y120.409 E.05312
G1 X160.766 Y121.205 E.03234
G1 X141.205 Y140.766 E.90348
G1 X139.811 Y141.603 E.05312
G1 X138.831 Y141.749 E.03234
G1 X111.169 Y141.749 E.90348
G1 X109.591 Y141.355 E.05312
G1 X108.795 Y140.766 E.03234
G1 X89.234 Y121.205 E.90348
G1 X88.397 Y119.811 E.05312
G1 X88.251 Y118.831 E.03234
G1 X88.251 Y91.169 E.90348
G1 X88.645 Y89.591 E.05312
G1 X89.199 Y88.843 E.03038
; printing object OV-PAM_h_48mm_1F.stl id:0 copy 0
G1 E-1 F2400
G1 X138.765 Y138.028 F4200
G1 E1 F1500
;TYPE:External perimeter
;WIDTH:0.666659
G1 F1200
G1 X138.702 Y138.08 E.00464
G1 X138.583 Y138.092 E.00684
G1 X111.298 Y138.08 E1.55662
G1 X91.92 Y118.702 E1.56343
G1 X91.92 Y91.298 E1.56343
G1 X111.298 Y71.92 E1.56343
G1 X138.702 Y71.92 E1.56343
M73 P1 R42
M73 Q1 S42
G1 X158.08 Y91.298 E1.56343
G1 X158.08 Y118.702 E1.56343
G1 X138.81 Y137.989 E1.5554
G1 X138.791 Y138.106 F4200
; stop printing object OV-PAM_h_48mm_1F.stl id:0 copy 0
;LAYER_CHANGE
;Z:0.4
;HEIGHT:0.2
;BEFORE_LAYER_CHANGE
G92 E0.0
;0.4


M73 P1 R41
M73 Q1 S41
G1 E-1 F2400
G1 Z.4 F720
;AFTER_LAYER_CHANGE
;0.4
G1 X140.67 Y141.087 F4200
G1 E1 F1500
;TYPE:Skirt/Brim
;WIDTH:0.4
G1 F2100.372
G1 X139.811 Y141.603 E.03274
G1 X138.831 Y141.749 E.03234
G1 X111.169 Y141.749 E.90348
G1 X109.591 Y141.355 E.05312
G1 X108.795 Y140.766 E.03234
G1 X89.234 Y121.205 E.90348
G1 X88.397 Y119.811 E.05312
G1 X88.251 Y118.831 E.03234
G1 X88.251 Y91.169 E.90348
G1 X88.645 Y89.591 E.05312
G1 X89.234 Y88.795 E.03234
G1 X108.795 Y69.234 E.90348
G1 X110.189 Y68.397 E.05312
G1 X111.169 Y68.251 E.03234
G1 X138.831 Y68.251 E.90348
G1 X140.409 Y68.645 E.05312
G1 X141.205 Y69.234 E.03234
G1 X160.766 Y88.795 E.90348
G1 X161.603 Y90.189 E.05312
G1 X161.749 Y91.169 E.03234
G1 X161.749 Y118.831 E.90348
G1 X161.355 Y120.409 E.05312
G1 X160.766 Y121.205 E.03234
G1 X141.205 Y140.766 E.90348
G1 X140.722 Y141.056 E.01842
; printing object OV-PAM_h_48mm_1F.stl id:0 copy 0
G1 E-1 F2400
G1 X138.652 Y137.958 F4200
G1 X138.68 Y137.93
G1 X138.772 Y138.022
G1 E1 F1500
;TYPE:External perimeter
;WIDTH:0.666659
G1 F1200
G1 X138.702 Y138.08 E.00518
G1 X138.583 Y138.092 E.00684
G1 X111.298 Y138.08 E1.55662
G1 X91.92 Y118.702 E1.56343
G1 X91.92 Y91.298 E1.56343
G1 X111.298 Y71.92 E1.56343
G1 X138.702 Y71.92 E1.56343
G1 X158.08 Y91.298 E1.56343
G1 X158.08 Y118.702 E1.56343
G1 X138.817 Y137.982 E1.55486
G1 X138.802 Y138.108 F4200
; stop printing object OV-PAM_h_48mm_1F.stl id:0 copy 0
;LAYER_CHANGE
;Z:0.6
;HEIGHT:0.2
;BEFORE_LAYER_CHANGE
G92 E0.0
;0.6


M73 P2 R41
M73 Q2 S41
G1 E-1 F2400
G1 Z.6 F720
;AFTER_LAYER_CHANGE
;0.6
G1 X140.678 Y141.082 F4200
G1 E1 F1500
;TYPE:Skirt/Brim
;WIDTH:0.4
G1 F2100.372
G1 X139.811 Y141.603 E.03304
G1 X138.831 Y141.749 E.03234
G1 X111.169 Y141.749 E.90348
G1 X109.591 Y141.355 E.05312
G1 X108.795 Y140.766 E.03234
G1 X89.234 Y121.205 E.90348
G1 X88.397 Y119.811 E.05312
G1 X88.251 Y118.831 E.03234
G1 X88.251 Y91.169 E.90348
G1 X88.645 Y89.591 E.05312
G1 X89.234 Y88.795 E.03234
G1 X108.795 Y69.234 E.90348
G1 X110.189 Y68.397 E.05312
G1 X111.169 Y68.251 E.03234
G1 X138.831 Y68.251 E.90348
G1 X140.409 Y68.645 E.05312
G1 X141.205 Y69.234 E.03234
G1 X160.766 Y88.795 E.90348
G1 X161.603 Y90.189 E.05312
G1 X161.749 Y91.169 E.03234
G1 X161.749 Y118.831 E.90348
G1 X161.355 Y120.409 E.05312
G1 X160.766 Y121.205 E.03234
G1 X141.205 Y140.766 E.90348
G1 X140.729 Y141.051 E.01812
; printing object OV-PAM_h_48mm_1F.stl id:0 copy 0
G1 E-1 F2400
G1 X138.841 Y138.137 F4200
G1 X138.865 Y138.117
G1 X138.781 Y138.016
G1 E1 F1500
;TYPE:External perimeter
;WIDTH:0.666659
G1 F1200
G1 X138.702 Y138.08 E.00578
G1 X138.583 Y138.092 E.00684
G1 X111.298 Y138.08 E1.55662
G1 X91.92 Y118.702 E1.56343
G1 X91.92 Y91.298 E1.56343
G1 X111.298 Y71.92 E1.56343
G1 X138.702 Y71.92 E1.56343
G1 X158.08 Y91.298 E1.56343
G1 X158.08 Y118.702 E1.56343
G1 X138.824 Y137.975 E1.55426
G1 X138.813 Y138.112 F4200
; stop printing object OV-PAM_h_48mm_1F.stl id:0 copy 0
;LAYER_CHANGE
;Z:0.8
;HEIGHT:0.2
;BEFORE_LAYER_CHANGE
G92 E0.0
;0.8


G1 E-1 F2400
G1 Z.8 F720
;AFTER_LAYER_CHANGE
;0.8
; printing object OV-PAM_h_48mm_1F.stl id:0 copy 0
G1 X138.79 Y138.008 F4200
G1 E1 F1500
G1 F1200
G1 X138.702 Y138.08 E.00644
G1 X138.583 Y138.092 E.00684
G1 X111.298 Y138.08 E1.55662
G1 X91.92 Y118.702 E1.56343
G1 X91.92 Y91.298 E1.56343
G1 X111.298 Y71.92 E1.56343
G1 X138.702 Y71.92 E1.56343
G1 X158.08 Y91.298 E1.56343
M73 P3 R41
M73 Q3 S41
G1 X158.08 Y118.702 E1.56343
G1 X138.832 Y137.967 E1.5536
G1 X138.826 Y138.115 F4200
; stop printing object OV-PAM_h_48mm_1F.stl id:0 copy 0
;LAYER_CHANGE
;Z:1
;HEIGHT:0.2
;BEFORE_LAYER_CHANGE
G92 E0.0
;1


G1 E-1 F2400
G1 Z1 F720
;AFTER_LAYER_CHANGE
;1
; printing object OV-PAM_h_48mm_1F.stl id:0 copy 0
G1 X138.802 Y137.997 F4200
G1 E1 F1500
G1 F1200
G1 X138.702 Y138.08 E.00738
G1 X138.583 Y138.092 E.00684
G1 X111.298 Y138.08 E1.55662
G1 X91.92 Y118.702 E1.56343
G1 X91.92 Y91.298 E1.56343
G1 X111.298 Y71.92 E1.56343
G1 X138.702 Y71.92 E1.56343
G1 X158.08 Y91.298 E1.56343
G1 X158.08 Y118.702 E1.56343
G1 X138.844 Y137.955 E1.55266
G1 X138.844 Y138.12 F4200
; stop printing object OV-PAM_h_48mm_1F.stl id:0 copy 0
;LAYER_CHANGE
;Z:1.2
;HEIGHT:0.2
;BEFORE_LAYER_CHANGE
G92 E0.0
;1.2


M73 P3 R40
M73 Q3 S40
G1 E-1 F2400
G1 Z1.2 F720
;AFTER_LAYER_CHANGE
;1.2
; printing object OV-PAM_h_48mm_1F.stl id:0 copy 0
G1 X138.813 Y137.983 F4200
G1 E1 F1500
;WIDTH:0.670968
G1 F1194.178
G1 X138.701 Y138.078 E.00846
G1 X138.581 Y138.09 E.00694
G1 X111.299 Y138.078 E1.56723
G1 X91.922 Y118.701 E1.57413
G1 X91.922 Y91.299 E1.57413
G1 X111.299 Y71.922 E1.57413
G1 X138.701 Y71.922 E1.57413
G1 X158.078 Y91.299 E1.57413
G1 X158.078 Y118.701 E1.57413
G1 X138.856 Y137.94 E1.56226
M73 P4 R40
M73 Q4 S40
G1 X138.862 Y138.121 F4200
; stop printing object OV-PAM_h_48mm_1F.stl id:0 copy 0
;LAYER_CHANGE
;Z:1.4
;HEIGHT:0.2
;BEFORE_LAYER_CHANGE
G92 E0.0
;1.4


G1 E-1 F2400
G1 Z1.4 F720
;AFTER_LAYER_CHANGE
;1.4
; printing object OV-PAM_h_48mm_1F.stl id:0 copy 0
G1 X138.713 Y137.819 F4200
G1 E1 F1500
;WIDTH:0.523073
G1 F1200
G1 X138.625 Y137.894 E.00509
G1 X138.533 Y137.903 E.00405
G1 X111.375 Y137.894 E1.19273
G1 X92.106 Y118.625 E1.19676
G1 X92.106 Y91.375 E1.19676
G1 X111.375 Y72.106 E1.19676
G1 X138.625 Y72.106 E1.19676
G1 X157.894 Y91.375 E1.19676
G1 X157.894 Y118.625 E1.19676
G1 X138.756 Y137.776 E1.18906
G1 X138.752 Y137.928 F4200
; stop printing object OV-PAM_h_48mm_1F.stl id:0 copy 0
;LAYER_CHANGE
;Z:1.6
;HEIGHT:0.2
;BEFORE_LAYER_CHANGE
G92 E0.0
;1.6


G1 E-1 F2400
G1 Z1.6 F720
;AFTER_LAYER_CHANGE
;1.6
; printing object OV-PAM_h_48mm_1F.stl id:0 copy 0
G1 X138.664 Y137.705 F4200
G1 E1 F1500
;WIDTH:0.523072
G1 F1200
G1 X138.577 Y137.779 E.00501
G1 X138.485 Y137.788 E.00405
G1 X111.423 Y137.779 E1.18853
G1 X92.221 Y118.577 E1.19256
G1 X92.221 Y91.423 E1.19256
G1 X111.423 Y72.221 E1.19256
G1 X138.577 Y72.221 E1.19256
G1 X157.779 Y91.423 E1.19256
G1 X157.779 Y118.577 E1.19256
G1 X138.707 Y137.662 E1.18493
G1 X138.702 Y137.812 F4200
; stop printing object OV-PAM_h_48mm_1F.stl id:0 copy 0
;LAYER_CHANGE
;Z:1.8
;HEIGHT:0.2
;BEFORE_LAYER_CHANGE
G92 E0.0
;1.8


G1 E-1 F2400
G1 Z1.8 F720
;AFTER_LAYER_CHANGE
;1.8
; printing object OV-PAM_h_48mm_1F.stl id:0 copy 0
G1 X138.616 Y137.59 F4200
G1 E1 F1500
;WIDTH:0.523073
G1 F1200
G1 X138.53 Y137.663 E.00499
G1 X138.438 Y137.672 E.00405
G1 X111.47 Y137.663 E1.18433
G1 X92.337 Y118.53 E1.18836
M73 P5 R40
M73 Q5 S40
G1 X92.337 Y91.47 E1.18836
G1 X111.47 Y72.337 E1.18836
G1 X138.53 Y72.337 E1.18836
G1 X157.663 Y91.47 E1.18836
G1 X157.663 Y118.53 E1.18836
G1 X138.658 Y137.547 E1.18076
G1 X138.654 Y137.697 F4200
; stop printing object OV-PAM_h_48mm_1F.stl id:0 copy 0
;LAYER_CHANGE
;Z:2
;HEIGHT:0.2
;BEFORE_LAYER_CHANGE
G92 E0.0
;2


G1 E-1 F2400
G1 Z2 F720
;AFTER_LAYER_CHANGE
;2
; printing object OV-PAM_h_48mm_1F.stl id:0 copy 0
G1 X138.568 Y137.474 F4200
G1 E1 F1500
;WIDTH:0.523679
G1 F1200
G1 X138.483 Y137.547 E.00495
G1 X138.39 Y137.557 E.00413
G1 X111.52 Y137.549 E1.18156
G1 X92.453 Y118.483 E1.18566
G1 X92.451 Y91.52 E1.18566
G1 X111.517 Y72.453 E1.18566
G1 X138.48 Y72.451 E1.18566
G1 X157.547 Y91.517 E1.18566
G1 X157.549 Y118.48 E1.18566
G1 X138.611 Y137.431 E1.17809
G1 X138.458 Y137.454 F4200
; stop printing object OV-PAM_h_48mm_1F.stl id:0 copy 0
;LAYER_CHANGE
;Z:2.2
;HEIGHT:0.2
;BEFORE_LAYER_CHANGE
G92 E0.0
;2.2


G1 E-1 F2400
G1 Z2.2 F720
;AFTER_LAYER_CHANGE
;2.2
; printing object OV-PAM_h_48mm_1F.stl id:0 copy 0
G1 X138.522 Y137.357 F4200
G1 E1 F1500
;WIDTH:0.526328
G1 F1200
G1 X138.442 Y137.431 E.00479
G1 X138.342 Y137.441 E.00443
G1 X111.573 Y137.437 E1.1836
G1 X92.569 Y118.442 E1.18801
G1 X92.563 Y91.573 E1.18801
G1 X111.558 Y72.569 E1.18801
M73 P5 R39
M73 Q5 S39
G1 X138.427 Y72.563 E1.18801
M73 P6 R39
M73 Q6 S39
G1 X157.431 Y91.558 E1.18801
G1 X157.437 Y118.427 E1.18801
G1 X138.564 Y137.315 E1.18057
G1 X138.415 Y137.34 F4200
; stop printing object OV-PAM_h_48mm_1F.stl id:0 copy 0
;LAYER_CHANGE
;Z:2.4
;HEIGHT:0.2
;BEFORE_LAYER_CHANGE
G92 E0.0
;2.4


G1 E-1 F2400
G1 Z2.4 F720
;AFTER_LAYER_CHANGE
;2.4
; printing object OV-PAM_h_48mm_1F.stl id:0 copy 0
G1 X138.477 Y137.239 F4200
G1 E1 F1500
;WIDTH:0.530816
G1 F1200
G1 X138.404 Y137.313 E.00465
G1 X138.294 Y137.326 E.00493
G1 X111.629 Y137.327 E1.18993
G1 X111.543 Y137.258 E.00493
G1 X92.687 Y118.404 E1.18993
G1 X92.674 Y118.294 E.00493
G1 X92.673 Y91.629 E1.18993
G1 X92.742 Y91.543 E.00493
G1 X111.596 Y72.687 E1.18993
G1 X111.706 Y72.674 E.00493
G1 X138.371 Y72.673 E1.18993
G1 X138.457 Y72.742 E.00493
G1 X157.313 Y91.596 E1.18993
G1 X157.326 Y91.706 E.00493
G1 X157.327 Y118.371 E1.18993
G1 X157.258 Y118.457 E.00493
G1 X138.519 Y137.196 E1.18261
G1 X138.376 Y137.212 F4200
; stop printing object OV-PAM_h_48mm_1F.stl id:0 copy 0
;LAYER_CHANGE
;Z:2.6
;HEIGHT:0.2
;BEFORE_LAYER_CHANGE
G92 E0.0
;2.6


G1 E-1 F2400
G1 Z2.6 F720
;AFTER_LAYER_CHANGE
;2.6
; printing object OV-PAM_h_48mm_1F.stl id:0 copy 0
G1 X138.445 Y137.107 F4200
G1 E1 F1500
;WIDTH:0.537078
G1 F1200
G1 X138.368 Y137.194 E.00524
G1 X138.246 Y137.21 E.00557
G1 X111.688 Y137.218 E1.20038
G1 X111.59 Y137.143 E.00557
G1 X92.806 Y118.368 E1.20038
G1 X92.79 Y118.246 E.00557
G1 X92.782 Y91.688 E1.20038
G1 X92.857 Y91.59 E.00557
G1 X111.632 Y72.806 E1.20038
G1 X111.754 Y72.79 E.00557
G1 X138.312 Y72.782 E1.20038
G1 X138.41 Y72.857 E.00557
G1 X157.194 Y91.632 E1.20038
G1 X157.21 Y91.754 E.00557
M73 P7 R39
M73 Q7 S39
G1 X157.218 Y118.312 E1.20038
G1 X157.143 Y118.41 E.00557
G1 X138.488 Y137.065 E1.19244
G1 X138.332 Y137.082 F4200
; stop printing object OV-PAM_h_48mm_1F.stl id:0 copy 0
;LAYER_CHANGE
;Z:2.8
;HEIGHT:0.2
;BEFORE_LAYER_CHANGE
G92 E0.0
;2.8


G1 E-1 F2400
G1 Z2.8 F720
;AFTER_LAYER_CHANGE
;2.8
; printing object OV-PAM_h_48mm_1F.stl id:0 copy 0
G1 X138.415 Y136.974 F4200
G1 E1 F1500
;WIDTH:0.54513
G1 F1200
G1 X138.335 Y137.075 E.00589
G1 X138.198 Y137.095 E.00634
G1 X111.876 Y137.095 E1.2091
G1 X111.749 Y137.11 E.00589
G1 X111.638 Y137.027 E.00634
G1 X93.026 Y118.415 E1.2091
G1 X92.925 Y118.335 E.00589
G1 X92.905 Y118.198 E.00634
G1 X92.905 Y91.876 E1.2091
G1 X92.89 Y91.749 E.00589
G1 X92.973 Y91.638 E.00634
G1 X111.585 Y73.026 E1.2091
G1 X111.665 Y72.925 E.00589
G1 X111.802 Y72.905 E.00634
G1 X138.124 Y72.905 E1.2091
G1 X138.251 Y72.89 E.00589
G1 X138.362 Y72.973 E.00634
G1 X156.974 Y91.585 E1.2091
G1 X157.075 Y91.665 E.00589
G1 X157.095 Y91.802 E.00634
G1 X157.095 Y118.124 E1.2091
G1 X157.11 Y118.251 E.00589
G1 X157.027 Y118.362 E.00634
G1 X138.457 Y136.932 E1.20634
G1 X138.289 Y136.951 F4200
; stop printing object OV-PAM_h_48mm_1F.stl id:0 copy 0
;LAYER_CHANGE
;Z:3
;HEIGHT:0.2
;BEFORE_LAYER_CHANGE
G92 E0.0
;3


G1 E-1 F2400
G1 Z3 F720
;AFTER_LAYER_CHANGE
;3
; printing object OV-PAM_h_48mm_1F.stl id:0 copy 0
G1 X138.385 Y136.842 F4200
G1 E1 F1500
;WIDTH:0.504801
G1 F1200
G1 X138.323 Y136.921 E.00425
;WIDTH:0.554988
G1 X138.303 Y136.954 E.00183
G1 X138.151 Y136.979 E.00723
;WIDTH:0.5048
G1 X111.96 Y136.979 E1.10646
G1 X111.849 Y136.993 E.0047
;WIDTH:0.554989
G1 X111.811 Y137.002 E.00183
G1 X111.686 Y136.912 E.00723
;WIDTH:0.504801
G1 X93.166 Y118.392 E1.10646
G1 X93.079 Y118.323 E.0047
;WIDTH:0.554988
G1 X93.046 Y118.303 E.00183
G1 X93.021 Y118.151 E.00723
;WIDTH:0.5048
G1 X93.021 Y91.96 E1.10646
G1 X93.007 Y91.849 E.0047
;WIDTH:0.554989
G1 X92.998 Y91.811 E.00183
G1 X93.088 Y91.686 E.00723
;WIDTH:0.504801
G1 X111.608 Y73.166 E1.10646
G1 X111.677 Y73.079 E.0047
;WIDTH:0.554988
G1 X111.697 Y73.046 E.00183
G1 X111.849 Y73.021 E.00723
;WIDTH:0.5048
G1 X138.04 Y73.021 E1.10646
G1 X138.151 Y73.007 E.0047
;WIDTH:0.554989
G1 X138.189 Y72.998 E.00183
G1 X138.314 Y73.088 E.00723
;WIDTH:0.504801
G1 X156.834 Y91.608 E1.10646
G1 X156.921 Y91.677 E.0047
;WIDTH:0.554988
G1 X156.954 Y91.697 E.00183
G1 X156.979 Y91.849 E.00723
;WIDTH:0.5048
G1 X156.979 Y118.04 E1.10646
G1 X156.993 Y118.151 E.0047
;WIDTH:0.554989
G1 X157.002 Y118.189 E.00183
;WIDTH:0.554987
G1 X156.912 Y118.314 E.00723
;WIDTH:0.504801
G1 X138.427 Y136.799 E1.10438
; stop printing object OV-PAM_h_48mm_1F.stl id:0 copy 0
;LAYER_CHANGE
;Z:3.2
;HEIGHT:0.2
;BEFORE_LAYER_CHANGE
G92 E0.0
;3.2


G1 E-1 F2400
G1 Z3.2 F720
;AFTER_LAYER_CHANGE
;3.2
; printing object OV-PAM_h_48mm_1F.stl id:0 copy 0
G1 X138.357 Y136.71 F4200
G1 E1 F1500
G1 F1200
G1 X138.282 Y136.813 E.00536
;WIDTH:0.566638
G1 X138.272 Y136.833 E.0011
G1 X138.103 Y136.864 E.00823
;WIDTH:0.5048
G1 X112.043 Y136.864 E1.10092
G1 X111.897 Y136.887 E.00624
;WIDTH:0.566637
M73 P8 R39
M73 Q8 S39
G1 X111.875 Y136.894 E.0011
G1 X111.734 Y136.796 E.00823
;WIDTH:0.504801
G1 X93.307 Y118.369 E1.10092
G1 X93.187 Y118.282 E.00624
;WIDTH:0.566638
G1 X93.167 Y118.272 E.0011
G1 X93.136 Y118.103 E.00823
;WIDTH:0.5048
G1 X93.136 Y92.043 E1.10092
G1 X93.113 Y91.897 E.00624
;WIDTH:0.566637
G1 X93.106 Y91.875 E.0011
G1 X93.204 Y91.734 E.00823
;WIDTH:0.504801
G1 X111.631 Y73.307 E1.10092
G1 X111.718 Y73.187 E.00624
;WIDTH:0.566638
G1 X111.728 Y73.167 E.0011
G1 X111.897 Y73.136 E.00823
;WIDTH:0.5048
G1 X137.957 Y73.136 E1.10092
G1 X138.103 Y73.113 E.00624
;WIDTH:0.566637
G1 X138.125 Y73.106 E.0011
G1 X138.266 Y73.204 E.00823
;WIDTH:0.504801
G1 X156.693 Y91.631 E1.10092
G1 X156.813 Y91.718 E.00624
