; generated by PrusaSlicer 2.5.2+win64 on 2023-10-19 at 06:47:53 UTC


;
;
; 

; external perimeters extrusion width = 0.40mm
; perimeters extrusion width = 0.40mm
; infill extrusion width = 0.40mm
; solid infill extrusion width = 0.40mm
; top infill extrusion width = 0.40mm
; first layer extrusion width = 0.40mm

M73 P0 R22
M73 Q0 S22
M201 X1000 Y1000 Z200 E5000 ; sets maximum accelerations, mm/sec^2
M203 X200 Y200 Z12 E120 ; sets maximum feedrates, mm / sec
M204 P1250 R1250 T1250 ; sets acceleration (P, T) and retract acceleration (R), mm/sec^2
M205 X8.00 Y8.00 Z0.40 E4.50 ; sets the jerk limits, mm/sec
M205 S0 T0 ; sets the minimum extruding and travel feed rate, mm/sec
M107
;TYPE:Custom
M862.3 P "MK3S" ; printer model check
M862.1 P0.4 ; nozzle diameter check
M115 U3.12.2 ; tell printer latest fw version
G90 ; use absolute coordinates
M83 ; extruder relative mode
M104 S240 ; set extruder temp
M140 S60 ; set bed temp
M190 S60 ; wait for bed temp
M109 S240 ; wait for extruder temp
G28 W ; home all without mesh bed level
G80 ; mesh bed leveling

G1 Z0.2 F720
G1 Y-3 F1000 ; go outside print area
G92 E0
G1 X60 E9 F1000 ; intro line
G1 X100 E12.5 F1000 ; intro line

G92 E0
M221 S95

; Don't change E values below. Excessive value can damage the printer.
M907 E430 ; set extruder motor current
G21 ; set units to millimeters
G90 ; use absolute coordinates
M83 ; use relative distances for extrusion
M900 K0 ; Filament gcode
M107
;LAYER_CHANGE
;Z:0.2
;HEIGHT:0.2
;BEFORE_LAYER_CHANGE
G92 E0.0
;0.2


G1 E-1 F2400
G1 Z.2 F720
;AFTER_LAYER_CHANGE
;0.2
G1 X105.73 Y95.628 F4200
G1 E1 F1500
M204 S300
;TYPE:Skirt/Brim
;WIDTH:0.4
G1 F1200
G1 X115.628 Y85.73 E.45715
G1 X117.022 Y84.893 E.05312
G1 X118.001 Y84.747 E.03234
G1 X131.999 Y84.747 E.45715
G1 X133.577 Y85.141 E.05312
G1 X134.372 Y85.73 E.03234
G1 X144.27 Y95.628 E.45715
G1 X145.107 Y97.022 E.05312
G1 X145.253 Y98.001 E.03234
G1 X145.253 Y111.999 E.45715
G1 X144.859 Y113.577 E.05312
G1 X144.27 Y114.372 E.03234
G1 X134.372 Y124.27 E.45715
G1 X132.978 Y125.107 E.05312
G1 X131.999 Y125.253 E.03234
G1 X118.001 Y125.253 E.45715
G1 X116.423 Y124.859 E.05312
G1 X115.628 Y124.27 E.03234
G1 X105.73 Y114.372 E.45715
G1 X104.893 Y112.978 E.05312
G1 X104.747 Y111.999 E.03234
G1 X104.747 Y98.001 E.45715
G1 X105.141 Y96.423 E.05312
M73 P1 R22
M73 Q1 S22
G1 X105.695 Y95.676 E.03038
; printing object OV-PAM_tendon_1F.stl id:0 copy 0
G1 E-1 F2400
G1 X141.69 Y111.89 F4200
G1 E1 F1500
;TYPE:External perimeter
;WIDTH:0.458745
G1 F1200
G1 X141.637 Y111.974 E.00378
G1 X131.912 Y121.688 E.52278
G1 X118.088 Y121.688 E.52581
G1 X108.312 Y111.912 E.52581
G1 X108.312 Y98.088 E.52581
G1 X118.088 Y88.312 E.52581
G1 X131.912 Y88.312 E.52581
G1 X141.688 Y98.088 E.52581
G1 X141.696 Y111.83 E.52268
G1 X141.762 Y111.959 F4200
; stop printing object OV-PAM_tendon_1F.stl id:0 copy 0
;LAYER_CHANGE
;Z:0.4
;HEIGHT:0.2
;BEFORE_LAYER_CHANGE
G92 E0.0
;0.4


G1 E-1 F2400
G1 Z.4 F720
;AFTER_LAYER_CHANGE
;0.4
M104 S230 ; set temperature
M140 S50 ; set bed temperature
G1 X145.084 Y112.676 F4200
G1 E1 F1500
;TYPE:Skirt/Brim
;WIDTH:0.4
G1 F2100.372
G1 X144.859 Y113.577 E.03031
G1 X144.27 Y114.372 E.03234
G1 X134.372 Y124.27 E.45715
G1 X132.978 Y125.107 E.05312
G1 X131.999 Y125.253 E.03234
G1 X118.001 Y125.253 E.45715
G1 X116.423 Y124.859 E.05312
G1 X115.628 Y124.27 E.03234
G1 X105.73 Y114.372 E.45715
G1 X104.893 Y112.978 E.05312
G1 X104.747 Y111.999 E.03234
G1 X104.747 Y98.001 E.45715
G1 X105.141 Y96.423 E.05312
G1 X105.73 Y95.628 E.03234
G1 X115.628 Y85.73 E.45715
G1 X117.022 Y84.893 E.05312
G1 X118.001 Y84.747 E.03234
G1 X131.999 Y84.747 E.45715
G1 X133.577 Y85.141 E.05312
G1 X134.372 Y85.73 E.03234
G1 X144.27 Y95.628 E.45715
G1 X145.107 Y97.022 E.05312
G1 X145.253 Y98.001 E.03234
G1 X145.253 Y111.999 E.45715
G1 X145.098 Y112.618 E.02085
; printing object OV-PAM_tendon_1F.stl id:0 copy 0
G1 E-1 F2400
G1 X141.819 Y111.904 F4200
G1 X141.82 Y111.882
G1 X141.692 Y111.874
G1 E1 F1500
;TYPE:External perimeter
;WIDTH:0.458745
G1 F720
G1 X141.688 Y111.912 E.00146
G1 X141.637 Y111.974 E.00304
G1 X131.912 Y121.688 E.52278
G1 X118.088 Y121.688 E.52581
G1 X108.312 Y111.912 E.52581
M73 P2 R22
M73 Q2 S22
G1 X108.312 Y98.088 E.52581
G1 X118.088 Y88.312 E.52581
G1 X131.912 Y88.312 E.52581
G1 X141.688 Y98.088 E.52581
G1 X141.696 Y111.815 E.52209
G1 X141.726 Y111.891 F4200
; stop printing object OV-PAM_tendon_1F.stl id:0 copy 0
;LAYER_CHANGE
;Z:0.6
;HEIGHT:0.2
;BEFORE_LAYER_CHANGE
G92 E0.0
;0.6


G1 E-1 F2400
G1 Z.6 F720
;AFTER_LAYER_CHANGE
;0.6
G1 X145.088 Y112.661 F4200
G1 E1 F1500
;TYPE:Skirt/Brim
;WIDTH:0.4
G1 F2100.372
G1 X144.859 Y113.577 E.03081
G1 X144.27 Y114.372 E.03234
G1 X134.372 Y124.27 E.45715
G1 X132.978 Y125.107 E.05312
G1 X131.999 Y125.253 E.03234
G1 X118.001 Y125.253 E.45715
G1 X116.423 Y124.859 E.05312
G1 X115.628 Y124.27 E.03234
G1 X105.73 Y114.372 E.45715
G1 X104.893 Y112.978 E.05312
G1 X104.747 Y111.999 E.03234
G1 X104.747 Y98.001 E.45715
G1 X105.141 Y96.423 E.05312
G1 X105.73 Y95.628 E.03234
G1 X115.628 Y85.73 E.45715
G1 X117.022 Y84.893 E.05312
G1 X118.001 Y84.747 E.03234
G1 X131.999 Y84.747 E.45715
G1 X133.577 Y85.141 E.05312
G1 X134.372 Y85.73 E.03234
G1 X144.27 Y95.628 E.45715
G1 X145.107 Y97.022 E.05312
G1 X145.253 Y98.001 E.03234
G1 X145.253 Y111.999 E.45715
G1 X145.102 Y112.603 E.02035
; printing object OV-PAM_tendon_1F.stl id:0 copy 0
G1 E-1 F2400
G1 X141.82 Y111.886 F4200
G1 X141.822 Y111.864
G1 X141.694 Y111.857
G1 E1 F1500
;TYPE:External perimeter
;WIDTH:0.458745
G1 F720
G1 X141.688 Y111.912 E.00214
G1 X141.637 Y111.974 E.00304
G1 X131.912 Y121.688 E.52278
G1 X118.088 Y121.688 E.52581
G1 X108.312 Y111.912 E.52581
M73 P3 R22
M73 Q3 S22
G1 X108.312 Y98.088 E.52581
G1 X118.088 Y88.312 E.52581
G1 X131.912 Y88.312 E.52581
G1 X141.688 Y98.088 E.52581
G1 X141.696 Y111.797 E.5214
G1 X141.744 Y111.881 F4200
; stop printing object OV-PAM_tendon_1F.stl id:0 copy 0
;LAYER_CHANGE
;Z:0.8
;HEIGHT:0.2
;BEFORE_LAYER_CHANGE
G92 E0.0
;0.8


G1 E-1 F2400
G1 Z.8 F720
;AFTER_LAYER_CHANGE
;0.8
; printing object OV-PAM_tendon_1F.stl id:0 copy 0
G1 X141.696 Y111.836 F4200
G1 E1 F1500
G1 F720
G1 X141.688 Y111.912 E.00291
G1 X141.637 Y111.974 E.00304
G1 X131.912 Y121.688 E.52278
G1 X118.088 Y121.688 E.52581
G1 X108.312 Y111.912 E.52581
G1 X108.312 Y98.088 E.52581
M73 P3 R21
M73 Q3 S21
G1 X118.088 Y88.312 E.52581
G1 X131.912 Y88.312 E.52581
G1 X141.688 Y98.088 E.52581
M73 P4 R21
M73 Q4 S21
G1 X141.696 Y111.776 E.52063
G1 X141.764 Y111.87 F4200
; stop printing object OV-PAM_tendon_1F.stl id:0 copy 0
;LAYER_CHANGE
;Z:1
;HEIGHT:0.2
;BEFORE_LAYER_CHANGE
G92 E0.0
;1


G1 E-1 F2400
G1 Z1 F720
;AFTER_LAYER_CHANGE
;1
; printing object OV-PAM_tendon_1F.stl id:0 copy 0
G1 X141.696 Y111.809 F4200
G1 E1 F1500
G1 F720
G1 X141.688 Y111.912 E.00396
G1 X141.637 Y111.974 E.00304
G1 X131.912 Y121.688 E.52278
G1 X118.088 Y121.688 E.52581
G1 X108.312 Y111.912 E.52581
G1 X108.312 Y98.088 E.52581
G1 X118.088 Y88.312 E.52581
G1 X131.912 Y88.312 E.52581
G1 X141.688 Y98.088 E.52581
G1 X141.696 Y111.749 E.51958
G1 X141.79 Y111.853 F4200
; stop printing object OV-PAM_tendon_1F.stl id:0 copy 0
;LAYER_CHANGE
;Z:1.2
;HEIGHT:0.2
;BEFORE_LAYER_CHANGE
G92 E0.0
;1.2


G1 E-1 F2400
G1 Z1.2 F720
;AFTER_LAYER_CHANGE
;1.2
; printing object OV-PAM_tendon_1F.stl id:0 copy 0
G1 X141.694 Y111.779 F4200
G1 E1 F1500
;WIDTH:0.463055
G1 F720
G1 X141.686 Y111.912 E.00509
G1 X141.635 Y111.974 E.0031
G1 X131.912 Y121.686 E.5281
G1 X118.088 Y121.686 E.53119
M73 P5 R21
M73 Q5 S21
G1 X108.314 Y111.912 E.53119
G1 X108.314 Y98.088 E.53119
G1 X118.088 Y88.314 E.53119
G1 X131.912 Y88.314 E.53119
G1 X141.686 Y98.088 E.53119
G1 X141.694 Y111.719 E.52381
G1 X141.814 Y111.835 F4200
; stop printing object OV-PAM_tendon_1F.stl id:0 copy 0
;LAYER_CHANGE
;Z:1.4
;HEIGHT:0.2
;BEFORE_LAYER_CHANGE
G92 E0.0
;1.4


G1 E-1 F2400
G1 Z1.4 F720
;AFTER_LAYER_CHANGE
;1.4
; printing object OV-PAM_tendon_1F.stl id:0 copy 0
G1 X141.607 Y111.722 F4200
G1 E1 F1500
;WIDTH:0.523074
G1 F720
G1 X141.598 Y111.875 E.00673
G1 X141.54 Y111.947 E.00405
G1 X131.875 Y121.598 E.59985
G1 X118.125 Y121.598 E.60388
G1 X108.402 Y111.875 E.60388
G1 X108.402 Y98.125 E.60388
G1 X118.125 Y88.402 E.60388
G1 X131.875 Y88.402 E.60388
M73 P6 R21
M73 Q6 S21
G1 X141.598 Y98.125 E.60388
G1 X141.607 Y111.662 E.59453
G1 X141.746 Y111.786 F4200
; stop printing object OV-PAM_tendon_1F.stl id:0 copy 0
;LAYER_CHANGE
;Z:1.6
;HEIGHT:0.2
;BEFORE_LAYER_CHANGE
G92 E0.0
;1.6


G1 E-1 F2400
G1 Z1.6 F720
;AFTER_LAYER_CHANGE
;1.6
; printing object OV-PAM_tendon_1F.stl id:0 copy 0
G1 X141.492 Y111.662 F4200
G1 E1 F1500
;WIDTH:0.528437
G1 F720
G1 X141.49 Y111.817 E.00685
G1 X141.424 Y111.899 E.00467
G1 X131.84 Y121.48 E.60182
G1 X118.183 Y121.49 E.60646
G1 X108.52 Y111.84 E.60646
G1 X108.51 Y98.183 E.60646
G1 X118.16 Y88.52 E.60646
G1 X131.817 Y88.51 E.60646
G1 X141.48 Y98.16 E.60646
G1 X141.492 Y111.602 E.59694
G1 X141.369 Y111.755 F4200
; stop printing object OV-PAM_tendon_1F.stl id:0 copy 0
;LAYER_CHANGE
;Z:1.8
;HEIGHT:0.2
;BEFORE_LAYER_CHANGE
G92 E0.0
;1.8


G1 E-1 F2400
G1 Z1.8 F720
;AFTER_LAYER_CHANGE
;1.8
; printing object OV-PAM_tendon_1F.stl id:0 copy 0
G1 X141.376 Y111.542 F4200
G1 E1 F1500
;WIDTH:0.553563
G1 F720
G1 X141.398 Y111.728 E.00875
G1 X141.309 Y111.851 E.0071
G1 X131.926 Y121.234 E.61977
G1 X131.838 Y121.352 E.00687
M73 P7 R21
M73 Q7 S21
G1 X131.688 Y121.376 E.0071
G1 X118.418 Y121.376 E.61977
G1 X118.272 Y121.398 E.00687
G1 X118.149 Y121.309 E.0071
G1 X108.766 Y111.926 E.61977
G1 X108.648 Y111.838 E.00687
G1 X108.624 Y111.688 E.0071
G1 X108.624 Y98.418 E.61977
G1 X108.602 Y98.272 E.00687
G1 X108.691 Y98.149 E.0071
G1 X118.074 Y88.766 E.61977
G1 X118.162 Y88.648 E.00687
G1 X118.312 Y88.624 E.0071
G1 X131.582 Y88.624 E.61977
G1 X131.728 Y88.602 E.00687
G1 X131.851 Y88.691 E.0071
G1 X141.234 Y98.074 E.61977
G1 X141.352 Y98.162 E.00687
G1 X141.376 Y98.312 E.0071
G1 X141.376 Y111.482 E.61508
G1 X141.222 Y111.647 F4200
; stop printing object OV-PAM_tendon_1F.stl id:0 copy 0
;LAYER_CHANGE
;Z:2
;HEIGHT:0.2
;BEFORE_LAYER_CHANGE
G92 E0.0
;2


G1 E-1 F2400
G1 Z2 F720
;AFTER_LAYER_CHANGE
;2
; printing object OV-PAM_tendon_1F.stl id:0 copy 0
G1 X141.261 Y111.413 F4200
G1 E1 F1500
;WIDTH:0.544421
G1 F720
G1 X141.284 Y111.519 E.00499
;WIDTH:0.598088
G1 X141.308 Y111.623 E.0054
;WIDTH:0.598088
G1 X141.247 Y111.721 E.00588
;WIDTH:0.544422
G1 X141.193 Y111.803 E.00448
G1 X131.962 Y121.034 E.59884
G1 X131.905 Y121.124 E.00488
;WIDTH:0.598088
G1 X131.848 Y121.214 E.0054
G1 X131.735 Y121.241 E.00588
;WIDTH:0.544421
G1 X131.64 Y121.261 E.00448
G1 X118.585 Y121.261 E.59884
G1 X118.481 Y121.284 E.00488
;WIDTH:0.598088
G1 X118.377 Y121.308 E.0054
G1 X118.279 Y121.247 E.00588
;WIDTH:0.544422
G1 X118.197 Y121.193 E.00448
G1 X108.966 Y111.962 E.59884
G1 X108.876 Y111.905 E.00488
;WIDTH:0.598088
G1 X108.786 Y111.848 E.0054
G1 X108.759 Y111.735 E.00588
;WIDTH:0.544421
G1 X108.739 Y111.64 E.00448
G1 X108.739 Y98.585 E.59884
G1 X108.716 Y98.481 E.00488
;WIDTH:0.598088
G1 X108.692 Y98.377 E.0054
G1 X108.753 Y98.279 E.00588
;WIDTH:0.544422
G1 X108.807 Y98.197 E.00448
G1 X118.038 Y88.966 E.59884
G1 X118.095 Y88.876 E.00488
;WIDTH:0.598088
M73 P8 R21
M73 Q8 S21
G1 X118.152 Y88.786 E.0054
G1 X118.265 Y88.759 E.00588
;WIDTH:0.544421
G1 X118.36 Y88.739 E.00448
G1 X131.415 Y88.739 E.59884
G1 X131.519 Y88.716 E.00488
;WIDTH:0.598088
M73 P8 R20
M73 Q8 S20
G1 X131.623 Y88.692 E.0054
G1 X131.721 Y88.753 E.00588
;WIDTH:0.544422
G1 X131.803 Y88.807 E.00448
G1 X141.034 Y98.038 E.59884
G1 X141.124 Y98.095 E.00488
;WIDTH:0.598088
G1 X141.214 Y98.152 E.0054
G1 X141.241 Y98.265 E.00588
;WIDTH:0.544421
G1 X141.261 Y98.36 E.00448
G1 X141.261 Y111.353 E.59597
G1 X141.176 Y111.48 F4200
; stop printing object OV-PAM_tendon_1F.stl id:0 copy 0
;LAYER_CHANGE
;Z:2.2
;HEIGHT:0.2
;BEFORE_LAYER_CHANGE
G92 E0.0
;2.2


G1 E-1 F2400
G1 Z2.2 F720
;AFTER_LAYER_CHANGE
;2.2
; printing object OV-PAM_tendon_1F.stl id:0 copy 0
G1 X141.202 Y111.551 F4200
G1 E1 F1500
;WIDTH:0.652269
G1 F720
G1 X141.185 Y111.592 E.00248
;WIDTH:0.584045
G1 X141.078 Y111.755 E.00967
;WIDTH:0.504798
G1 X131.998 Y120.835 E.54246
G1 X131.954 Y120.914 E.00382
;WIDTH:0.603112
G1 X131.866 Y121.072 E.00926
G1 X131.688 Y121.126 E.00953
;WIDTH:0.544421
G1 X131.592 Y121.145 E.00448
G1 X118.751 Y121.145 E.589
G1 X118.664 Y121.17 E.00415
;WIDTH:0.603112
G1 X118.49 Y121.219 E.00926
G1 X118.326 Y121.131 E.00953
;WIDTH:0.544422
G1 X118.245 Y121.078 E.00448
G1 X109.165 Y111.998 E.589
G1 X109.086 Y111.954 E.00415
;WIDTH:0.603112
G1 X108.928 Y111.866 E.00926
G1 X108.874 Y111.688 E.00953
;WIDTH:0.544421
G1 X108.855 Y111.592 E.00448
G1 X108.855 Y98.751 E.589
G1 X108.83 Y98.664 E.00415
;WIDTH:0.603112
G1 X108.781 Y98.49 E.00926
G1 X108.869 Y98.326 E.00953
;WIDTH:0.544422
G1 X108.922 Y98.245 E.00448
G1 X118.002 Y89.165 E.589
G1 X118.046 Y89.086 E.00415
;WIDTH:0.603112
G1 X118.134 Y88.928 E.00926
G1 X118.312 Y88.874 E.00953
;WIDTH:0.544421
G1 X118.408 Y88.855 E.00448
G1 X131.249 Y88.855 E.589
G1 X131.336 Y88.83 E.00415
;WIDTH:0.603112
G1 X131.51 Y88.781 E.00926
G1 X131.671 Y88.856 E.00912
;WIDTH:0.529427
G1 X140.835 Y98.002 E.57613
G1 X140.914 Y98.046 E.00402
;WIDTH:0.603112
G1 X141.072 Y98.134 E.00926
G1 X141.126 Y98.312 E.00953
;WIDTH:0.544421
G1 X141.145 Y98.408 E.00448
G1 X141.145 Y111.249 E.589
G1 X141.17 Y111.336 E.00415
;WIDTH:0.603112
G1 X141.215 Y111.495 E.00847
; stop printing object OV-PAM_tendon_1F.stl id:0 copy 0
;LAYER_CHANGE
;Z:2.4
;HEIGHT:0.2
;BEFORE_LAYER_CHANGE
G92 E0.0
;2.4


G1 E-1 F2400
G1 Z2.4 F720
;AFTER_LAYER_CHANGE
;2.4
; printing object OV-PAM_tendon_1F.stl id:0 copy 0
G1 X132.034 Y120.635 F4200
G1 E1 F1500
;WIDTH:0.504801
M73 P9 R20
M73 Q9 S20
G1 F720
G1 X140.799 Y111.871 E.52365
G1 X140.999 Y111.282 F4200
;WIDTH:0.4
G1 F720
G1 X141.431 Y111.282 E.01413
G1 X140.999 Y111.715 E.01998
G1 X140.999 Y111.342 E.01217
G1 X140.799 Y111.628 F4200
G1 X141.03 Y111.082
;WIDTH:0.504798
G1 F720
G1 X141.03 Y98.687 E.52364
G1 X140.755 Y98.129 F4200
;WIDTH:0.4
G1 F720
G1 X141.061 Y97.823 E.01413
G1 X141.061 Y98.435 E.01998
G1 X140.797 Y98.171 E.01217
G1 X140.859 Y98.515 F4200
G1 X140.635 Y97.966
;WIDTH:0.504801
G1 F720
G1 X131.871 Y89.201 E.52365
G1 X131.282 Y89.001 F4200
;WIDTH:0.4
G1 F720
G1 X131.282 Y88.569 E.01413
G1 X131.715 Y89.001 E.01998
G1 X131.342 Y89.001 E.01217
G1 X131.628 Y89.201 F4200
G1 X131.082 Y88.97
;WIDTH:0.504798
G1 F720
G1 X118.687 Y88.97 E.52364
G1 X118.129 Y89.245 F4200
;WIDTH:0.4
G1 F720
G1 X117.823 Y88.939 E.01413
G1 X118.435 Y88.939 E.01998
G1 X118.171 Y89.203 E.01217
G1 X118.515 Y89.141 F4200
G1 X117.966 Y89.365
;WIDTH:0.504801
G1 F720
G1 X109.201 Y98.129 E.52365
G1 X109.001 Y98.718 F4200
;WIDTH:0.4
G1 F720
G1 X108.569 Y98.718 E.01413
G1 X109.001 Y98.285 E.01998
G1 X109.001 Y98.658 E.01217
G1 X109.201 Y98.372 F4200
G1 X108.97 Y98.918
;WIDTH:0.504798
G1 F720
G1 X108.97 Y111.313 E.52364
G1 X109.245 Y111.871 F4200
;WIDTH:0.4
G1 F720
G1 X108.939 Y112.177 E.01413
G1 X108.939 Y111.565 E.01998
G1 X109.203 Y111.829 E.01217
G1 X109.141 Y111.485 F4200
G1 X109.365 Y112.034
;WIDTH:0.504801
G1 F720
G1 X118.129 Y120.799 E.52365
G1 X118.718 Y120.999 F4200
;WIDTH:0.4
G1 F720
G1 X118.718 Y121.431 E.01413
G1 X118.285 Y120.999 E.01998
G1 X118.658 Y120.999 E.01217
G1 X118.372 Y120.799 F4200
G1 X118.918 Y121.03
;WIDTH:0.504798
G1 F720
G1 X131.313 Y121.03 E.52364
G1 X131.871 Y120.755 F4200
;WIDTH:0.4
G1 F720
G1 X132.177 Y121.061 E.01413
G1 X131.565 Y121.061 E.01998
G1 X131.829 Y120.797 E.01217
G1 X131.485 Y120.859 F4200
; stop printing object OV-PAM_tendon_1F.stl id:0 copy 0
;LAYER_CHANGE
;Z:2.6
;HEIGHT:0.2
;BEFORE_LAYER_CHANGE
G92 E0.0
;2.6


G1 E-1 F2400
G1 Z2.6 F720
;AFTER_LAYER_CHANGE
;2.6
; printing object OV-PAM_tendon_1F.stl id:0 copy 0
G1 X132.07 Y120.436 F4200
G1 E1 F1500
;WIDTH:0.504801
G1 F720
G1 X140.683 Y111.823 E.51459
G1 X140.884 Y111.115 F4200
;WIDTH:0.4
G1 F720
G1 X141.435 Y111.115 E.01801
G1 X140.884 Y111.667 E.02546
G1 X140.884 Y111.175 E.01605
G1 X140.684 Y111.462 F4200
G1 X140.914 Y110.915
;WIDTH:0.504798
G1 F720
G1 X140.914 Y98.735 E.51458
G1 X140.556 Y98.093 F4200
;WIDTH:0.4
G1 F720
