; generated by PrusaSlicer 2.5.2+win64 on 2023-10-19 at 07:40:45 UTC


;
;
; 

; external perimeters extrusion width = 0.40mm
; perimeters extrusion width = 0.40mm
; infill extrusion width = 0.40mm
; solid infill extrusion width = 0.40mm
; top infill extrusion width = 0.40mm
; first layer extrusion width = 0.40mm

M73 P0 R20
M73 Q0 S20
M201 X1000 Y1000 Z200 E5000 ; sets maximum accelerations, mm/sec^2
M203 X200 Y200 Z12 E120 ; sets maximum feedrates, mm / sec
M204 P1250 R1250 T1250 ; sets acceleration (P, T) and retract acceleration (R), mm/sec^2
M205 X8.00 Y8.00 Z0.40 E4.50 ; sets the jerk limits, mm/sec
M205 S0 T0 ; sets the minimum extruding and travel feed rate, mm/sec
M107
;TYPE:Custom
M862.3 P "MK3S" ; printer model check
M862.1 P0.4 ; nozzle diameter check
M115 U3.12.2 ; tell printer latest fw version
G90 ; use absolute coordinates
M83 ; extruder relative mode
M104 S240 ; set extruder temp
M140 S60 ; set bed temp
M190 S60 ; wait for bed temp
M109 S240 ; wait for extruder temp
G28 W ; home all without mesh bed level
G80 ; mesh bed leveling

G1 Z0.2 F720
G1 Y-3 F1000 ; go outside print area
G92 E0
G1 X60 E9 F1000 ; intro line
G1 X100 E12.5 F1000 ; intro line

G92 E0
M221 S95

; Don't change E values below. Excessive value can damage the printer.
M907 E430 ; set extruder motor current
G21 ; set units to millimeters
G90 ; use absolute coordinates
M83 ; use relative distances for extrusion
M900 K0 ; Filament gcode
M107
;LAYER_CHANGE
;Z:0.2
;HEIGHT:0.2
;BEFORE_LAYER_CHANGE
G92 E0.0
;0.2


G1 E-1 F2400
G1 Z.2 F720
;AFTER_LAYER_CHANGE
;0.2
G1 X105.73 Y95.628 F4200
G1 E1 F1500
M204 S300
;TYPE:Skirt/Brim
;WIDTH:0.4
M73 P0 R19
M73 Q0 S19
G1 F1200
G1 X115.628 Y85.73 E.45715
G1 X117.022 Y84.893 E.05312
G1 X118.001 Y84.747 E.03234
G1 X131.999 Y84.747 E.45715
G1 X133.577 Y85.141 E.05312
G1 X134.372 Y85.73 E.03234
G1 X144.27 Y95.628 E.45715
G1 X145.107 Y97.022 E.05312
G1 X145.253 Y98.001 E.03234
G1 X145.253 Y111.999 E.45715
G1 X144.859 Y113.577 E.05312
G1 X144.27 Y114.372 E.03234
G1 X134.372 Y124.27 E.45715
G1 X132.978 Y125.107 E.05312
G1 X131.999 Y125.253 E.03234
G1 X118.001 Y125.253 E.45715
G1 X116.423 Y124.859 E.05312
M73 P1 R19
M73 Q1 S19
G1 X115.628 Y124.27 E.03234
G1 X105.73 Y114.372 E.45715
G1 X104.893 Y112.978 E.05312
G1 X104.747 Y111.999 E.03234
G1 X104.747 Y98.001 E.45715
G1 X105.141 Y96.423 E.05312
G1 X105.695 Y95.676 E.03038
; printing object OV-PAM_tendon_1F.stl id:0 copy 0
G1 E-1 F2400
G1 X131.94 Y121.666 F4200
G1 E1 F1500
;TYPE:External perimeter
;WIDTH:0.458745
G1 F1200
G1 X131.912 Y121.688 E.00133
G1 X131.833 Y121.696 E.00304
G1 X118.088 Y121.688 E.52278
G1 X108.312 Y111.912 E.52581
G1 X108.312 Y98.088 E.52581
G1 X118.088 Y88.312 E.52581
G1 X131.912 Y88.312 E.52581
G1 X141.688 Y98.088 E.52581
G1 X141.688 Y111.912 E.52581
G1 X131.985 Y121.627 E.52221
G1 X131.951 Y121.699 F4200
; stop printing object OV-PAM_tendon_1F.stl id:0 copy 0
;LAYER_CHANGE
;Z:0.4
;HEIGHT:0.2
;BEFORE_LAYER_CHANGE
G92 E0.0
;0.4


G1 E-1 F2400
G1 Z.4 F720
;AFTER_LAYER_CHANGE
;0.4
M104 S230 ; set temperature
M140 S50 ; set bed temperature
G1 X131.97 Y121.612 F4200
G1 X131.96 Y121.621
G1 X133.784 Y124.623
G1 E1 F1500
;TYPE:Skirt/Brim
;WIDTH:0.4
G1 F2100.372
G1 X132.978 Y125.107 E.03071
G1 X131.999 Y125.253 E.03234
G1 X118.001 Y125.253 E.45715
G1 X116.423 Y124.859 E.05312
G1 X115.628 Y124.27 E.03234
G1 X105.73 Y114.372 E.45715
G1 X104.893 Y112.978 E.05312
G1 X104.747 Y111.999 E.03234
G1 X104.747 Y98.001 E.45715
G1 X105.141 Y96.423 E.05312
G1 X105.73 Y95.628 E.03234
G1 X115.628 Y85.73 E.45715
G1 X117.022 Y84.893 E.05312
G1 X118.001 Y84.747 E.03234
G1 X131.999 Y84.747 E.45715
G1 X133.577 Y85.141 E.05312
G1 X134.372 Y85.73 E.03234
G1 X144.27 Y95.628 E.45715
G1 X145.107 Y97.022 E.05312
M73 P2 R19
M73 Q2 S19
G1 X145.253 Y98.001 E.03234
G1 X145.253 Y111.999 E.45715
G1 X144.859 Y113.577 E.05312
G1 X144.27 Y114.372 E.03234
G1 X134.372 Y124.27 E.45715
G1 X133.835 Y124.592 E.02046
; printing object OV-PAM_tendon_1F.stl id:0 copy 0
G1 E-1 F2400
G1 X132.01 Y121.775 F4200
G1 X132.033 Y121.755
G1 X131.948 Y121.659
G1 E1 F1500
;TYPE:External perimeter
;WIDTH:0.458745
G1 F720
G1 X131.912 Y121.688 E.00176
G1 X131.833 Y121.696 E.00304
G1 X118.088 Y121.688 E.52278
G1 X108.312 Y111.912 E.52581
G1 X108.312 Y98.088 E.52581
G1 X118.088 Y88.312 E.52581
G1 X131.912 Y88.312 E.52581
G1 X141.688 Y98.088 E.52581
G1 X141.688 Y111.912 E.52581
G1 X131.993 Y121.619 E.52178
G1 X131.963 Y121.703 F4200
; stop printing object OV-PAM_tendon_1F.stl id:0 copy 0
;LAYER_CHANGE
;Z:0.6
;HEIGHT:0.2
;BEFORE_LAYER_CHANGE
G92 E0.0
;0.6


G1 E-1 F2400
G1 Z.6 F720
;AFTER_LAYER_CHANGE
;0.6
G1 X131.978 Y121.604 F4200
G1 X131.967 Y121.615
G1 X133.793 Y124.617
G1 E1 F1500
;TYPE:Skirt/Brim
;WIDTH:0.4
G1 F2100.372
G1 X132.978 Y125.107 E.03106
G1 X131.999 Y125.253 E.03234
G1 X118.001 Y125.253 E.45715
G1 X116.423 Y124.859 E.05312
G1 X115.628 Y124.27 E.03234
G1 X105.73 Y114.372 E.45715
G1 X104.893 Y112.978 E.05312
G1 X104.747 Y111.999 E.03234
M73 Q3 S19
G1 X104.747 Y98.001 E.45715
M73 P3 R19
G1 X105.141 Y96.423 E.05312
G1 X105.73 Y95.628 E.03234
G1 X115.628 Y85.73 E.45715
G1 X117.022 Y84.893 E.05312
G1 X118.001 Y84.747 E.03234
G1 X131.999 Y84.747 E.45715
G1 X133.577 Y85.141 E.05312
G1 X134.372 Y85.73 E.03234
G1 X144.27 Y95.628 E.45715
G1 X145.107 Y97.022 E.05312
G1 X145.253 Y98.001 E.03234
G1 X145.253 Y111.999 E.45715
G1 X144.859 Y113.577 E.05312
G1 X144.27 Y114.372 E.03234
G1 X134.372 Y124.27 E.45715
G1 X133.845 Y124.587 E.0201
; printing object OV-PAM_tendon_1F.stl id:0 copy 0
G1 E-1 F2400
G1 X132.019 Y121.768 F4200
G1 X132.043 Y121.747
G1 X131.958 Y121.651
G1 E1 F1500
;TYPE:External perimeter
;WIDTH:0.458745
G1 F720
G1 X131.912 Y121.688 E.00224
G1 X131.833 Y121.696 E.00304
G1 X118.088 Y121.688 E.52278
G1 X108.312 Y111.912 E.52581
G1 X108.312 Y98.088 E.52581
G1 X118.088 Y88.312 E.52581
G1 X131.912 Y88.312 E.52581
G1 X141.688 Y98.088 E.52581
G1 X141.688 Y111.912 E.52581
G1 X132.002 Y121.61 E.5213
G1 X131.977 Y121.706 F4200
; stop printing object OV-PAM_tendon_1F.stl id:0 copy 0
;LAYER_CHANGE
;Z:0.8
;HEIGHT:0.2
;BEFORE_LAYER_CHANGE
G92 E0.0
;0.8


M73 P4 R19
M73 Q4 S19
G1 E-1 F2400
G1 Z.8 F720
;AFTER_LAYER_CHANGE
;0.8
; printing object OV-PAM_tendon_1F.stl id:0 copy 0
G1 X131.969 Y121.642 F4200
G1 E1 F1500
G1 F720
G1 X131.912 Y121.688 E.00278
G1 X131.833 Y121.696 E.00304
G1 X118.088 Y121.688 E.52278
G1 X108.312 Y111.912 E.52581
G1 X108.312 Y98.088 E.52581
G1 X118.088 Y88.312 E.52581
G1 X131.912 Y88.312 E.52581
G1 X141.688 Y98.088 E.52581
G1 X141.688 Y111.912 E.52581
G1 X132.012 Y121.6 E.52076
G1 X131.992 Y121.711 F4200
; stop printing object OV-PAM_tendon_1F.stl id:0 copy 0
;LAYER_CHANGE
;Z:1
;HEIGHT:0.2
;BEFORE_LAYER_CHANGE
G92 E0.0
;1


G1 E-1 F2400
G1 Z1 F720
;AFTER_LAYER_CHANGE
;1
; printing object OV-PAM_tendon_1F.stl id:0 copy 0
G1 X131.983 Y121.629 F4200
G1 E1 F1500
G1 F720
G1 X131.912 Y121.688 E.00349
G1 X131.833 Y121.696 E.00304
G1 X118.088 Y121.688 E.52278
G1 X108.312 Y111.912 E.52581
G1 X108.312 Y98.088 E.52581
M73 P5 R19
M73 Q5 S19
G1 X118.088 Y88.312 E.52581
G1 X131.912 Y88.312 E.52581
G1 X141.688 Y98.088 E.52581
G1 X141.688 Y111.912 E.52581
G1 X132.025 Y121.587 E.52005
G1 X132.013 Y121.716 F4200
; stop printing object OV-PAM_tendon_1F.stl id:0 copy 0
;LAYER_CHANGE
;Z:1.2
;HEIGHT:0.2
;BEFORE_LAYER_CHANGE
G92 E0.0
;1.2


M73 P5 R18
M73 Q5 S18
G1 E-1 F2400
G1 Z1.2 F720
;AFTER_LAYER_CHANGE
;1.2
; printing object OV-PAM_tendon_1F.stl id:0 copy 0
G1 X131.997 Y121.612 F4200
G1 E1 F1500
;WIDTH:0.463055
G1 F720
G1 X131.912 Y121.686 E.00433
G1 X131.831 Y121.694 E.0031
G1 X118.088 Y121.686 E.5281
G1 X108.314 Y111.912 E.53119
G1 X108.314 Y98.088 E.53119
G1 X118.088 Y88.314 E.53119
G1 X131.912 Y88.314 E.53119
G1 X141.686 Y98.088 E.53119
M73 P6 R18
M73 Q6 S18
G1 X141.686 Y111.912 E.53119
G1 X132.039 Y121.57 E.52456
G1 X132.035 Y121.718 F4200
; stop printing object OV-PAM_tendon_1F.stl id:0 copy 0
;LAYER_CHANGE
;Z:1.4
;HEIGHT:0.2
;BEFORE_LAYER_CHANGE
G92 E0.0
;1.4


G1 E-1 F2400
G1 Z1.4 F720
;AFTER_LAYER_CHANGE
;1.4
; printing object OV-PAM_tendon_1F.stl id:0 copy 0
G1 X131.97 Y121.516 F4200
G1 E1 F1500
;WIDTH:0.523074
G1 F720
G1 X131.875 Y121.598 E.0055
G1 X131.783 Y121.607 E.00405
G1 X118.125 Y121.598 E.59984
G1 X108.402 Y111.875 E.60388
G1 X108.402 Y98.125 E.60388
G1 X118.125 Y88.402 E.60388
G1 X131.875 Y88.402 E.60388
G1 X141.598 Y98.125 E.60388
G1 X141.598 Y111.875 E.60388
G1 X132.012 Y121.474 E.59576
M73 P7 R18
M73 Q7 S18
G1 X132.012 Y121.634 F4200
; stop printing object OV-PAM_tendon_1F.stl id:0 copy 0
;LAYER_CHANGE
;Z:1.6
;HEIGHT:0.2
;BEFORE_LAYER_CHANGE
G92 E0.0
;1.6


G1 E-1 F2400
G1 Z1.6 F720
;AFTER_LAYER_CHANGE
;1.6
; printing object OV-PAM_tendon_1F.stl id:0 copy 0
G1 X131.924 Y121.399 F4200
G1 E1 F1500
;WIDTH:0.523088
G1 F720
G1 X131.827 Y121.483 E.00561
G1 X131.735 Y121.492 E.00406
G1 X118.173 Y121.483 E.59566
G1 X108.517 Y111.827 E.5997
G1 X108.517 Y98.173 E.5997
G1 X118.173 Y88.517 E.5997
G1 X131.827 Y88.517 E.5997
G1 X141.483 Y98.173 E.5997
G1 X141.483 Y111.827 E.5997
G1 X131.966 Y121.357 E.59147
G1 X131.798 Y121.376 F4200
; stop printing object OV-PAM_tendon_1F.stl id:0 copy 0
;LAYER_CHANGE
;Z:1.8
;HEIGHT:0.2
;BEFORE_LAYER_CHANGE
G92 E0.0
;1.8


G1 E-1 F2400
G1 Z1.8 F720
;AFTER_LAYER_CHANGE
;1.8
; printing object OV-PAM_tendon_1F.stl id:0 copy 0
G1 X131.879 Y121.28 F4200
G1 E1 F1500
;WIDTH:0.527677
G1 F720
G1 X131.79 Y121.365 E.00544
G1 X131.688 Y121.376 E.00459
G1 X118.23 Y121.373 E.5967
G1 X108.635 Y111.79 E.60126
M73 P8 R18
M73 Q8 S18
G1 X108.627 Y98.23 E.60126
G1 X118.21 Y88.635 E.60126
G1 X131.77 Y88.627 E.60126
G1 X141.365 Y98.21 E.60126
G1 X141.373 Y111.77 E.60126
G1 X131.922 Y121.238 E.59316
G1 X131.758 Y121.262 F4200
; stop printing object OV-PAM_tendon_1F.stl id:0 copy 0
;LAYER_CHANGE
;Z:2
;HEIGHT:0.2
;BEFORE_LAYER_CHANGE
G92 E0.0
;2


G1 E-1 F2400
G1 Z2 F720
;AFTER_LAYER_CHANGE
;2
; printing object OV-PAM_tendon_1F.stl id:0 copy 0
G1 X131.855 Y121.141 F4200
G1 E1 F1500
;WIDTH:0.539178
G1 F720
G1 X131.766 Y121.244 E.00616
G1 X131.64 Y121.261 E.00577
G1 X118.298 Y121.27 E.60558
G1 X118.197 Y121.193 E.00577
G1 X108.756 Y111.766 E.60558
G1 X108.739 Y111.64 E.00577
G1 X108.73 Y98.298 E.60558
G1 X108.807 Y98.197 E.00577
G1 X118.234 Y88.756 E.60558
G1 X118.36 Y88.739 E.00577
M73 P9 R18
M73 Q9 S18
G1 X131.702 Y88.73 E.60558
G1 X131.803 Y88.807 E.00577
G1 X141.244 Y98.234 E.60558
G1 X141.261 Y98.36 E.00577
G1 X141.27 Y111.702 E.60558
G1 X141.193 Y111.803 E.00577
G1 X131.897 Y121.099 E.59672
G1 X131.722 Y121.112 F4200
; stop printing object OV-PAM_tendon_1F.stl id:0 copy 0
;LAYER_CHANGE
;Z:2.2
;HEIGHT:0.2
;BEFORE_LAYER_CHANGE
G92 E0.0
;2.2


G1 E-1 F2400
G1 Z2.2 F720
;AFTER_LAYER_CHANGE
;2.2
; printing object OV-PAM_tendon_1F.stl id:0 copy 0
G1 X131.839 Y120.994 F4200
G1 E1 F1500
;WIDTH:0.5048
G1 F720
G1 X131.766 Y121.088 E.00504
;WIDTH:0.557417
G1 X131.748 Y121.119 E.00167
G1 X131.592 Y121.145 E.00744
;WIDTH:0.5048
G1 X118.526 Y121.145 E.55197
G1 X118.408 Y121.161 E.00504
;WIDTH:0.557416
G1 X118.374 Y121.169 E.00167
G1 X118.245 Y121.078 E.00744
;WIDTH:0.5048
G1 X109.006 Y111.839 E.55197
G1 X108.912 Y111.766 E.00504
;WIDTH:0.557417
G1 X108.881 Y111.748 E.00167
G1 X108.855 Y111.592 E.00744
;WIDTH:0.5048
G1 X108.855 Y98.526 E.55197
G1 X108.839 Y98.408 E.00504
;WIDTH:0.557416
G1 X108.831 Y98.374 E.00167
G1 X108.922 Y98.245 E.00744
;WIDTH:0.5048
G1 X118.161 Y89.006 E.55197
G1 X118.234 Y88.912 E.00504
;WIDTH:0.557417
G1 X118.252 Y88.881 E.00167
G1 X118.408 Y88.855 E.00744
;WIDTH:0.5048
G1 X131.474 Y88.855 E.55197
G1 X131.592 Y88.839 E.00504
;WIDTH:0.557416
G1 X131.626 Y88.831 E.00167
G1 X131.755 Y88.922 E.00744
;WIDTH:0.5048
G1 X140.994 Y98.161 E.55197
G1 X141.088 Y98.234 E.00504
;WIDTH:0.557417
M73 P10 R18
M73 Q10 S18
G1 X141.119 Y98.252 E.00167
G1 X141.145 Y98.408 E.00744
;WIDTH:0.5048
G1 X141.145 Y111.474 E.55197
G1 X141.161 Y111.592 E.00504
;WIDTH:0.557416
G1 X141.169 Y111.626 E.00167
;WIDTH:0.557418
G1 X141.078 Y111.755 E.00744
;WIDTH:0.5048
G1 X131.881 Y120.952 E.54943
; stop printing object OV-PAM_tendon_1F.stl id:0 copy 0
;LAYER_CHANGE
;Z:2.4
;HEIGHT:0.2
;BEFORE_LAYER_CHANGE
G92 E0.0
;2.4


G1 E-1 F2400
G1 Z2.4 F720
;AFTER_LAYER_CHANGE
;2.4
; printing object OV-PAM_tendon_1F.stl id:0 copy 0
G1 X131.802 Y120.887 F4200
G1 E1 F1500
;WIDTH:0.504802
G1 F720
G1 X131.787 Y120.91 E.00113
;WIDTH:0.580633
G1 X131.733 Y120.991 E.0048
G1 X131.544 Y121.03 E.0095
;WIDTH:0.5048
G1 X118.643 Y121.03 E.54502
G1 X118.549 Y121.049 E.00403
;WIDTH:0.580634
G1 X118.454 Y121.069 E.0048
G1 X118.293 Y120.962 E.0095
;WIDTH:0.504802
G1 X109.17 Y111.84 E.54502
G1 X109.09 Y111.787 E.00403
;WIDTH:0.580633
G1 X109.009 Y111.733 E.0048
G1 X108.97 Y111.544 E.0095
;WIDTH:0.5048
G1 X108.97 Y98.643 E.54502
G1 X108.951 Y98.549 E.00403
;WIDTH:0.580634
G1 X108.931 Y98.454 E.0048
G1 X109.038 Y98.293 E.0095
;WIDTH:0.504802
G1 X118.16 Y89.17 E.54502
G1 X118.213 Y89.09 E.00403
;WIDTH:0.580633
M73 P10 R17
M73 Q10 S17
G1 X118.267 Y89.009 E.0048
G1 X118.456 Y88.97 E.0095
;WIDTH:0.5048
G1 X131.357 Y88.97 E.54502
G1 X131.451 Y88.951 E.00403
;WIDTH:0.580634
G1 X131.546 Y88.931 E.0048
G1 X131.707 Y89.038 E.0095
;WIDTH:0.5048
G1 X140.83 Y98.16 E.54502
G1 X140.91 Y98.213 E.00403
;WIDTH:0.580633
G1 X140.991 Y98.267 E.0048
G1 X141.03 Y98.456 E.0095
;WIDTH:0.5048
G1 X141.03 Y111.357 E.54502
G1 X141.049 Y111.451 E.00403
;WIDTH:0.580634
G1 X141.069 Y111.546 E.0048
;WIDTH:0.582332
G1 X140.962 Y111.707 E.00953
;WIDTH:0.504802
G1 X131.835 Y120.837 E.54539
; stop printing object OV-PAM_tendon_1F.stl id:0 copy 0
;LAYER_CHANGE
;Z:2.6
;HEIGHT:0.2
;BEFORE_LAYER_CHANGE
G92 E0.0
;2.6


G1 E-1 F2400
G1 Z2.6 F720
;AFTER_LAYER_CHANGE
;2.6
; printing object OV-PAM_tendon_1F.stl id:0 copy 0
G1 X131.747 Y120.818 F4200
G1 E1 F1500
;WIDTH:0.61187
G1 F720
G1 X131.721 Y120.861 E.00259
G1 X131.592 Y120.895 E.00695
;WIDTH:0.544423
G1 X131.496 Y120.914 E.00448
G1 X118.76 Y120.914 E.58423
G1 X118.611 Y120.95 E.00699
;WIDTH:0.611868
M73 P11 R17
M73 Q11 S17
G1 X118.537 Y120.968 E.00397
G1 X118.422 Y120.9 E.00695
;WIDTH:0.544422
G1 X118.34 Y120.847 E.00448
G1 X109.334 Y111.841 E.58423
G1 X109.204 Y111.761 E.00699
;WIDTH:0.61187
G1 X109.139 Y111.721 E.00397
G1 X109.105 Y111.592 E.00695
;WIDTH:0.544423
G1 X109.086 Y111.496 E.00448
G1 X109.086 Y98.76 E.58423
G1 X109.05 Y98.611 E.00699
;WIDTH:0.611868
G1 X109.032 Y98.537 E.00397
G1 X109.1 Y98.422 E.00695
;WIDTH:0.544422
G1 X109.153 Y98.34 E.00448
G1 X118.159 Y89.334 E.58423
G1 X118.239 Y89.204 E.00699
;WIDTH:0.61187
G1 X118.279 Y89.139 E.00397
G1 X118.408 Y89.105 E.00695
;WIDTH:0.544423
G1 X118.504 Y89.086 E.00448
G1 X131.24 Y89.086 E.58423
G1 X131.389 Y89.05 E.00699
;WIDTH:0.611868
G1 X131.463 Y89.032 E.00397
G1 X131.578 Y89.1 E.00695
;WIDTH:0.544422
G1 X131.66 Y89.153 E.00448
G1 X140.666 Y98.159 E.58423
G1 X140.796 Y98.239 E.00699
;WIDTH:0.61187
G1 X140.861 Y98.279 E.00397
G1 X140.895 Y98.408 E.00695
;WIDTH:0.544423
G1 X140.914 Y98.504 E.00448
G1 X140.914 Y111.24 E.58423
G1 X140.95 Y111.389 E.00699
;WIDTH:0.611868
G1 X140.968 Y111.463 E.00397
;WIDTH:0.61187
G1 X140.9 Y111.578 E.00695
;WIDTH:0.544422
G1 X140.847 Y111.66 E.00448
G1 X131.841 Y120.666 E.58423
G1 X131.779 Y120.767 E.00546
G1 X131.698 Y120.813 F4200
; stop printing object OV-PAM_tendon_1F.stl id:0 copy 0
;LAYER_CHANGE
;Z:2.8
;HEIGHT:0.2
;BEFORE_LAYER_CHANGE
G92 E0.0
;2.8


G1 E-1 F2400
G1 Z2.8 F720
;AFTER_LAYER_CHANGE
;2.8
; printing object OV-PAM_tendon_1F.stl id:0 copy 0
G1 X131.726 Y120.705 F4200
G1 E1 F1500
;WIDTH:0.597236
G1 F720
G1 X131.712 Y120.73 E.00145
G1 X131.64 Y120.759 E.00394
G1 X131.544 Y120.779 E.00495
;WIDTH:0.544423
G1 X131.448 Y120.799 E.00448
G1 X118.876 Y120.799 E.57669
G1 X118.792 Y120.822 E.00401
;WIDTH:0.597236
G1 X118.623 Y120.868 E.00887
G1 X118.47 Y120.785 E.00885
;WIDTH:0.544422
G1 X118.388 Y120.731 E.00448
G1 X109.498 Y111.841 E.57669
G1 X109.422 Y111.798 E.00401
;WIDTH:0.597236
G1 X109.27 Y111.712 E.00887
G1 X109.221 Y111.544 E.00885
;WIDTH:0.544423
G1 X109.201 Y111.448 E.00448
G1 X109.201 Y98.876 E.57669
G1 X109.178 Y98.792 E.00401
;WIDTH:0.597236
G1 X109.132 Y98.623 E.00887
