; generated by PrusaSlicer 2.5.2+win64 on 2023-10-26 at 06:14:14 UTC


;
;
; 

; external perimeters extrusion width = 0.40mm
; perimeters extrusion width = 0.40mm
; infill extrusion width = 0.40mm
; solid infill extrusion width = 0.40mm
; top infill extrusion width = 0.40mm
; first layer extrusion width = 0.40mm

M73 P0 R28
M73 Q0 S28
M201 X1000 Y1000 Z200 E5000 ; sets maximum accelerations, mm/sec^2
M203 X200 Y200 Z12 E120 ; sets maximum feedrates, mm / sec
M204 P1250 R1250 T1250 ; sets acceleration (P, T) and retract acceleration (R), mm/sec^2
M205 X8.00 Y8.00 Z0.40 E4.50 ; sets the jerk limits, mm/sec
M205 S0 T0 ; sets the minimum extruding and travel feed rate, mm/sec
M107
;TYPE:Custom
M862.3 P "MK3S" ; printer model check
M862.1 P0.4 ; nozzle diameter check
M115 U3.12.2 ; tell printer latest fw version
G90 ; use absolute coordinates
M83 ; extruder relative mode
M104 S240 ; set extruder temp
M140 S60 ; set bed temp
M190 S60 ; wait for bed temp
M109 S240 ; wait for extruder temp
G28 W ; home all without mesh bed level
G80 ; mesh bed leveling

G1 Z0.2 F720
G1 Y-3 F1000 ; go outside print area
G92 E0
G1 X60 E9 F1000 ; intro line
G1 X100 E12.5 F1000 ; intro line

G92 E0
M221 S95

; Don't change E values below. Excessive value can damage the printer.
M907 E430 ; set extruder motor current
G21 ; set units to millimeters
G90 ; use absolute coordinates
M83 ; use relative distances for extrusion
M900 K0 ; Filament gcode
M107
;LAYER_CHANGE
;Z:0.2
;HEIGHT:0.2
;BEFORE_LAYER_CHANGE
G92 E0.0
;0.2


G1 E-1 F2400
G1 Z.2 F720
;AFTER_LAYER_CHANGE
;0.2
G1 X104.108 Y72.171 F4200
G1 E1 F1500
M204 S300
;TYPE:Skirt/Brim
;WIDTH:0.4
G1 F1200
G1 X105.238 Y71.001 E.05312
G1 X107.015 Y70.492 E.06037
G1 X142.985 Y70.492 E1.17479
G1 X144.563 Y70.886 E.05312
G1 X145.892 Y72.171 E.06037
G1 X163.877 Y103.321 E1.17479
G1 X164.325 Y104.885 E.05312
G1 X163.877 Y106.679 E.06037
G1 X145.892 Y137.829 E1.17479
G1 X144.762 Y138.999 E.05312
G1 X142.985 Y139.508 E.06037
G1 X107.015 Y139.508 E1.17479
G1 X105.437 Y139.114 E.05312
G1 X104.108 Y137.829 E.06037
G1 X86.123 Y106.679 E1.17479
G1 X85.675 Y105.115 E.05312
M73 P1 R28
M73 Q1 S28
G1 X86.123 Y103.321 E.06037
G1 X104.078 Y72.223 E1.17283
; printing object OV-PAM_n_6_1F.stl id:0 copy 0
G1 E-1 F2400
G1 X107.246 Y135.951 F4200
G1 E1 F1500
;TYPE:External perimeter
;WIDTH:0.471636
G1 F1200
G1 X107.139 Y135.936 E.00424
G1 X107.073 Y135.851 E.00424
G1 X89.319 Y105.1 E1.39236
G1 X89.278 Y105 E.00424
G1 X89.319 Y104.9 E.00424
G1 X107.073 Y74.149 E1.39236
G1 X107.139 Y74.064 E.00424
G1 X107.246 Y74.049 E.00424
G1 X142.754 Y74.049 E1.39236
G1 X142.861 Y74.064 E.00424
M73 P1 R27
M73 Q1 S27
G1 X142.927 Y74.149 E.00424
G1 X160.681 Y104.9 E1.39236
G1 X160.722 Y105 E.00424
G1 X160.681 Y105.1 E.00424
G1 X142.927 Y135.851 E1.39236
G1 X142.861 Y135.936 E.00424
G1 X142.754 Y135.951 E.00424
G1 X107.306 Y135.951 E1.39001
G1 X107.184 Y136.039 F4200
; stop printing object OV-PAM_n_6_1F.stl id:0 copy 0
;LAYER_CHANGE
;Z:0.4
;HEIGHT:0.2
;BEFORE_LAYER_CHANGE
G92 E0.0
;0.4


G1 E-1 F2400
G1 Z.4 F720
;AFTER_LAYER_CHANGE
;0.4
G1 X106.453 Y139.367 F4200
G1 E1 F1500
;TYPE:Skirt/Brim
;WIDTH:0.4
G1 F1200
G1 X105.437 Y139.114 E.0342
G1 X104.108 Y137.829 E.06037
G1 X86.123 Y106.679 E1.17479
G1 X85.675 Y105.115 E.05312
G1 X86.123 Y103.321 E.06037
G1 X104.108 Y72.171 E1.17479
G1 X105.238 Y71.001 E.05312
M73 P2 R27
M73 Q2 S27
G1 X107.015 Y70.492 E.06037
G1 X142.985 Y70.492 E1.17479
G1 X144.563 Y70.886 E.05312
G1 X145.892 Y72.171 E.06037
G1 X163.877 Y103.321 E1.17479
G1 X164.325 Y104.885 E.05312
G1 X163.877 Y106.679 E.06037
G1 X145.892 Y137.829 E1.17479
G1 X144.762 Y138.999 E.05312
G1 X142.985 Y139.508 E.06037
G1 X107.015 Y139.508 E1.17479
G1 X106.511 Y139.382 E.01697
; printing object OV-PAM_n_6_1F.stl id:0 copy 0
G1 E-1 F2400
G1 X107.218 Y136.077 F4200
G1 X107.231 Y136.079
G1 X107.246 Y135.951
G1 E1 F1500
;TYPE:External perimeter
;WIDTH:0.471636
G1 F1200
G1 X107.139 Y135.936 E.00424
G1 X107.073 Y135.851 E.00424
G1 X89.319 Y105.1 E1.39236
G1 X89.278 Y105 E.00424
G1 X89.319 Y104.9 E.00424
G1 X107.073 Y74.149 E1.39236
G1 X107.139 Y74.064 E.00424
G1 X107.246 Y74.049 E.00424
G1 X142.754 Y74.049 E1.39236
G1 X142.861 Y74.064 E.00424
G1 X142.927 Y74.149 E.00424
G1 X160.681 Y104.9 E1.39236
G1 X160.722 Y105 E.00424
G1 X160.681 Y105.1 E.00424
G1 X142.927 Y135.851 E1.39236
G1 X142.861 Y135.936 E.00424
M73 P3 R27
M73 Q3 S27
G1 X142.754 Y135.951 E.00424
G1 X107.306 Y135.951 E1.39001
G1 X107.184 Y136.039 F4200
; stop printing object OV-PAM_n_6_1F.stl id:0 copy 0
;LAYER_CHANGE
;Z:0.6
;HEIGHT:0.2
;BEFORE_LAYER_CHANGE
G92 E0.0
;0.6


G1 E-1 F2400
G1 Z.6 F720
;AFTER_LAYER_CHANGE
;0.6
G1 X106.453 Y139.367 F4200
G1 E1 F1500
;TYPE:Skirt/Brim
;WIDTH:0.4
G1 F1200
G1 X105.437 Y139.114 E.0342
G1 X104.108 Y137.829 E.06037
G1 X86.123 Y106.679 E1.17479
G1 X85.675 Y105.115 E.05312
G1 X86.123 Y103.321 E.06037
G1 X104.108 Y72.171 E1.17479
G1 X105.238 Y71.001 E.05312
G1 X107.015 Y70.492 E.06037
G1 X142.985 Y70.492 E1.17479
G1 X144.563 Y70.886 E.05312
G1 X145.892 Y72.171 E.06037
G1 X163.877 Y103.321 E1.17479
G1 X164.325 Y104.885 E.05312
G1 X163.877 Y106.679 E.06037
G1 X145.892 Y137.829 E1.17479
G1 X144.762 Y138.999 E.05312
G1 X142.985 Y139.508 E.06037
G1 X107.015 Y139.508 E1.17479
G1 X106.511 Y139.382 E.01697
; printing object OV-PAM_n_6_1F.stl id:0 copy 0
G1 E-1 F2400
G1 X107.218 Y136.077 F4200
G1 X107.231 Y136.079
G1 X107.246 Y135.951
G1 E1 F1500
;TYPE:External perimeter
;WIDTH:0.471636
G1 F1200
G1 X107.139 Y135.936 E.00424
G1 X107.073 Y135.851 E.00424
G1 X89.319 Y105.1 E1.39236
G1 X89.278 Y105 E.00424
M73 P4 R27
M73 Q4 S27
G1 X89.319 Y104.9 E.00424
G1 X107.073 Y74.149 E1.39236
G1 X107.139 Y74.064 E.00424
G1 X107.246 Y74.049 E.00424
G1 X142.754 Y74.049 E1.39236
G1 X142.861 Y74.064 E.00424
G1 X142.927 Y74.149 E.00424
G1 X160.681 Y104.9 E1.39236
G1 X160.722 Y105 E.00424
G1 X160.681 Y105.1 E.00424
G1 X142.927 Y135.851 E1.39236
G1 X142.861 Y135.936 E.00424
G1 X142.754 Y135.951 E.00424
G1 X107.306 Y135.951 E1.39001
G1 X107.184 Y136.039 F4200
; stop printing object OV-PAM_n_6_1F.stl id:0 copy 0
;LAYER_CHANGE
;Z:0.8
;HEIGHT:0.2
;BEFORE_LAYER_CHANGE
G92 E0.0
;0.8


G1 E-1 F2400
G1 Z.8 F720
;AFTER_LAYER_CHANGE
;0.8
; printing object OV-PAM_n_6_1F.stl id:0 copy 0
G1 X107.246 Y135.951 F4200
G1 E1 F1500
G1 F1200
G1 X107.139 Y135.936 E.00424
G1 X107.073 Y135.851 E.00424
G1 X89.319 Y105.1 E1.39236
G1 X89.278 Y105 E.00424
G1 X89.319 Y104.9 E.00424
G1 X107.073 Y74.149 E1.39236
G1 X107.139 Y74.064 E.00424
G1 X107.246 Y74.049 E.00424
G1 X142.754 Y74.049 E1.39236
G1 X142.861 Y74.064 E.00424
G1 X142.927 Y74.149 E.00424
G1 X160.681 Y104.9 E1.39236
G1 X160.722 Y105 E.00424
G1 X160.681 Y105.1 E.00424
G1 X142.927 Y135.851 E1.39236
G1 X142.861 Y135.936 E.00424
M73 P5 R26
M73 Q5 S26
G1 X142.754 Y135.951 E.00424
G1 X107.306 Y135.951 E1.39001
G1 X107.184 Y136.039 F4200
; stop printing object OV-PAM_n_6_1F.stl id:0 copy 0
;LAYER_CHANGE
;Z:1
;HEIGHT:0.2
;BEFORE_LAYER_CHANGE
G92 E0.0
;1


G1 E-1 F2400
G1 Z1 F720
;AFTER_LAYER_CHANGE
;1
; printing object OV-PAM_n_6_1F.stl id:0 copy 0
G1 X107.246 Y135.951 F4200
G1 E1 F1500
G1 F1200
G1 X107.139 Y135.936 E.00424
G1 X107.073 Y135.851 E.00424
G1 X92.451 Y110.526 E1.14669
G1 X89.319 Y105.1 E.24567
G1 X89.278 Y105 E.00424
G1 X89.319 Y104.9 E.00424
G1 X107.073 Y74.149 E1.39236
G1 X107.139 Y74.064 E.00424
G1 X107.246 Y74.049 E.00424
G1 X142.754 Y74.049 E1.39236
G1 X142.861 Y74.064 E.00424
G1 X142.927 Y74.149 E.00424
G1 X160.681 Y104.9 E1.39236
G1 X160.722 Y105 E.00424
G1 X160.681 Y105.1 E.00424
G1 X142.927 Y135.851 E1.39236
G1 X142.861 Y135.936 E.00424
G1 X142.754 Y135.951 E.00424
G1 X107.306 Y135.951 E1.39001
G1 X107.184 Y136.039 F4200
; stop printing object OV-PAM_n_6_1F.stl id:0 copy 0
;LAYER_CHANGE
;Z:1.2
;HEIGHT:0.2
;BEFORE_LAYER_CHANGE
G92 E0.0
;1.2


G1 E-1 F2400
G1 Z1.2 F720
;AFTER_LAYER_CHANGE
;1.2
; printing object OV-PAM_n_6_1F.stl id:0 copy 0
G1 X107.248 Y135.949 F4200
G1 E1 F1500
;WIDTH:0.476077
G1 F1200
G1 X107.14 Y135.934 E.00433
G1 X107.073 Y135.848 E.00433
G1 X89.322 Y105.101 E1.40659
G1 X89.28 Y105 E.00433
G1 X89.322 Y104.899 E.00433
G1 X107.073 Y74.152 E1.40659
G1 X107.14 Y74.066 E.00433
M73 P6 R26
M73 Q6 S26
G1 X107.248 Y74.051 E.00433
G1 X142.752 Y74.051 E1.40659
G1 X142.86 Y74.066 E.00433
G1 X142.927 Y74.152 E.00433
G1 X160.678 Y104.899 E1.40659
G1 X160.72 Y105 E.00433
G1 X160.678 Y105.101 E.00433
G1 X142.927 Y135.848 E1.40659
G1 X142.86 Y135.934 E.00433
G1 X142.752 Y135.949 E.00433
G1 X107.308 Y135.949 E1.40422
G1 X107.186 Y136.038 F4200
; stop printing object OV-PAM_n_6_1F.stl id:0 copy 0
;LAYER_CHANGE
;Z:1.4
;HEIGHT:0.2
;BEFORE_LAYER_CHANGE
G92 E0.0
;1.4


G1 E-1 F2400
G1 Z1.4 F720
;AFTER_LAYER_CHANGE
;1.4
; printing object OV-PAM_n_6_1F.stl id:0 copy 0
G1 X107.315 Y135.862 F4200
G1 E1 F1500
;WIDTH:0.537958
G1 F1200
G1 X107.191 Y135.846 E.00565
G1 X107.115 Y135.747 E.00565
G1 X89.43 Y105.115 E1.6015
G1 X89.383 Y105 E.00565
G1 X89.43 Y104.885 E.00565
G1 X107.115 Y74.253 E1.6015
G1 X107.191 Y74.154 E.00565
G1 X107.315 Y74.138 E.00565
G1 X142.685 Y74.138 E1.6015
G1 X142.809 Y74.154 E.00565
G1 X142.885 Y74.253 E.00565
G1 X160.57 Y104.885 E1.6015
G1 X160.617 Y105 E.00565
G1 X160.57 Y105.115 E.00565
G1 X142.885 Y135.747 E1.6015
G1 X142.809 Y135.846 E.00565
M73 P7 R26
M73 Q7 S26
G1 X142.685 Y135.862 E.00565
G1 X107.375 Y135.862 E1.59879
G1 X107.243 Y135.964 F4200
; stop printing object OV-PAM_n_6_1F.stl id:0 copy 0
;LAYER_CHANGE
;Z:1.6
;HEIGHT:0.2
;BEFORE_LAYER_CHANGE
G92 E0.0
;1.6


G1 E-1 F2400
G1 Z1.6 F720
;AFTER_LAYER_CHANGE
;1.6
; printing object OV-PAM_n_6_1F.stl id:0 copy 0
G1 X107.382 Y135.747 F4200
G1 E1 F1500
;WIDTH:0.538012
G1 F1200
G1 X107.258 Y135.73 E.00565
G1 X107.182 Y135.631 E.00566
G1 X89.564 Y105.115 E1.59564
G1 X89.516 Y105 E.00565
G1 X89.564 Y104.885 E.00566
G1 X107.182 Y74.369 E1.59564
G1 X107.258 Y74.27 E.00565
G1 X107.382 Y74.253 E.00566
G1 X142.618 Y74.253 E1.59564
G1 X142.742 Y74.27 E.00565
G1 X142.818 Y74.369 E.00566
G1 X160.436 Y104.885 E1.59564
G1 X160.484 Y105 E.00565
G1 X160.436 Y105.115 E.00566
G1 X142.818 Y135.631 E1.59564
G1 X142.742 Y135.73 E.00565
G1 X142.618 Y135.747 E.00566
G1 X107.442 Y135.747 E1.59292
G1 X107.31 Y135.849 F4200
; stop printing object OV-PAM_n_6_1F.stl id:0 copy 0
;LAYER_CHANGE
;Z:1.8
;HEIGHT:0.2
;BEFORE_LAYER_CHANGE
G92 E0.0
;1.8


G1 E-1 F2400
G1 Z1.8 F720
;AFTER_LAYER_CHANGE
;1.8
; printing object OV-PAM_n_6_1F.stl id:0 copy 0
G1 X107.448 Y135.631 F4200
G1 E1 F1500
;WIDTH:0.548218
G1 F1200
G1 X107.338 Y135.627 E.0051
G1 X107.248 Y135.516 E.00662
G1 X89.697 Y105.115 E1.62237
G1 X89.645 Y105.018 E.0051
G1 X89.697 Y104.885 E.00662
G1 X107.307 Y74.391 E1.62747
G1 X107.448 Y74.369 E.00662
G1 X142.662 Y74.373 E1.62747
G1 X142.752 Y74.484 E.00662
M73 P8 R26
M73 Q8 S26
G1 X160.303 Y104.885 E1.62237
G1 X160.355 Y104.982 E.0051
G1 X160.303 Y105.115 E.00662
G1 X142.693 Y135.609 E1.62747
G1 X142.552 Y135.631 E.00662
G1 X107.508 Y135.631 E1.6196
G1 X107.391 Y135.726 F4200
; stop printing object OV-PAM_n_6_1F.stl id:0 copy 0
;LAYER_CHANGE
;Z:2
;HEIGHT:0.2
;BEFORE_LAYER_CHANGE
G92 E0.0
;2


G1 E-1 F2400
G1 Z2 F720
;AFTER_LAYER_CHANGE
;2
; printing object OV-PAM_n_6_1F.stl id:0 copy 0
G1 X107.598 Y135.516 F4200
G1 E1 F1500
;WIDTH:0.519836
G1 F1200
G1 X107.515 Y135.523 E.00365
;WIDTH:0.57401
G1 X107.434 Y135.538 E.00398
G1 X107.375 Y135.469 E.00442
;WIDTH:0.519834
G1 X107.315 Y135.4 E.00397
G1 X89.824 Y105.119 E1.52542
;WIDTH:0.574008
G1 X89.771 Y105.057 E.00398
G1 X89.8 Y104.971 E.00442
;WIDTH:0.519834
G1 X89.83 Y104.885 E.00397
G1 X107.309 Y74.596 E1.52542
;WIDTH:0.574008
G1 X107.336 Y74.519 E.00398
M73 P8 R25
M73 Q8 S25
G1 X107.426 Y74.502 E.00442
;WIDTH:0.519836
G1 X107.515 Y74.484 E.00397
G1 X142.485 Y74.477 E1.52543
;WIDTH:0.57401
G1 X142.566 Y74.462 E.00398
G1 X142.625 Y74.531 E.00442
;WIDTH:0.519834
G1 X142.685 Y74.6 E.00397
G1 X160.176 Y104.881 E1.52542
;WIDTH:0.574008
G1 X160.229 Y104.943 E.00398
;WIDTH:0.574008
G1 X160.2 Y105.029 E.00442
;WIDTH:0.519834
G1 X160.17 Y105.115 E.00397
G1 X142.691 Y135.404 E1.52542
;WIDTH:0.574008
G1 X142.664 Y135.481 E.00398
G1 X142.574 Y135.498 E.00442
;WIDTH:0.519836
G1 X142.485 Y135.516 E.00397
G1 X107.658 Y135.516 E1.51918
G1 X107.561 Y135.591 F4200
; stop printing object OV-PAM_n_6_1F.stl id:0 copy 0
;LAYER_CHANGE
;Z:2.2
;HEIGHT:0.2
;BEFORE_LAYER_CHANGE
G92 E0.0
;2.2


M73 P9 R25
M73 Q9 S25
G1 E-1 F2400
G1 Z2.2 F720
;AFTER_LAYER_CHANGE
;2.2
; printing object OV-PAM_n_6_1F.stl id:0 copy 0
G1 X107.673 Y135.418 F4200
G1 E1 F1500
;WIDTH:0.614695
G1 F1200
G1 X107.542 Y135.452 E.0071
G1 X107.489 Y135.397 E.00404
;WIDTH:0.541184
G1 X107.382 Y135.285 E.00705
G1 X90.055 Y105.274 E1.57928
G1 X89.994 Y105.204 E.00426
;WIDTH:0.614695
G1 X89.898 Y105.107 E.0071
G1 X89.92 Y105.033 E.00404
;WIDTH:0.541184
G1 X89.964 Y104.885 E.00705
G1 X107.29 Y74.874 E1.57928
G1 X107.32 Y74.786 E.00426
;WIDTH:0.614696
G1 X107.356 Y74.655 E.0071
G1 X107.432 Y74.636 E.00404
;WIDTH:0.541185
G1 X107.582 Y74.6 E.00705
G1 X142.235 Y74.6 E1.57928
G1 X142.327 Y74.582 E.00426
;WIDTH:0.614695
G1 X142.458 Y74.548 E.0071
G1 X142.511 Y74.603 E.00404
;WIDTH:0.541184
G1 X142.618 Y74.715 E.00705
G1 X159.945 Y104.726 E1.57928
G1 X160.006 Y104.796 E.00426
;WIDTH:0.614694
G1 X160.102 Y104.893 E.0071
;WIDTH:0.614695
G1 X160.08 Y104.967 E.00404
;WIDTH:0.541184
G1 X160.036 Y105.115 E.00705
G1 X142.71 Y135.126 E1.57928
G1 X142.68 Y135.214 E.00426
;WIDTH:0.614696
G1 X142.644 Y135.345 E.0071
G1 X142.568 Y135.364 E.00404
;WIDTH:0.541185
G1 X142.418 Y135.4 E.00705
G1 X107.732 Y135.407 E1.58078
G1 X107.626 Y135.546 F4200
; stop printing object OV-PAM_n_6_1F.stl id:0 copy 0
;LAYER_CHANGE
;Z:2.4
;HEIGHT:0.2
;BEFORE_LAYER_CHANGE
G92 E0.0
;2.4


G1 E-1 F2400
G1 Z2.4 F720
;AFTER_LAYER_CHANGE
;2.4
; printing object OV-PAM_n_6_1F.stl id:0 copy 0
G1 X107.726 Y135.346 F4200
G1 E1 F1500
;WIDTH:0.65876
G1 F1200
G1 X107.657 Y135.367 E.00404
G1 X107.598 Y135.314 E.00444
;WIDTH:0.58178
G1 X107.498 Y135.217 E.00684
;WIDTH:0.504799
G1 X107.448 Y135.169 E.00293
G1 X90.239 Y105.361 E1.4541
;WIDTH:0.586628
G1 X90.134 Y105.262 E.00713
;WIDTH:0.658759
G1 X90.03 Y105.164 E.00808
G1 X90.047 Y105.087 E.00444
;WIDTH:0.581779
G1 X90.08 Y104.952 E.00684
;WIDTH:0.504799
G1 X90.097 Y104.885 E.00293
G1 X107.307 Y75.076 E1.4541
;WIDTH:0.586628
G1 X107.34 Y74.937 E.00713
;WIDTH:0.658762
G1 X107.373 Y74.797 E.00808
G1 X107.448 Y74.773 E.00444
;WIDTH:0.581782
G1 X107.582 Y74.734 E.00684
;WIDTH:0.504802
G1 X107.648 Y74.715 E.00293
G1 X142.068 Y74.715 E1.45411
;WIDTH:0.586628
G1 X142.206 Y74.674 E.00713
;WIDTH:0.658759
G1 X142.343 Y74.633 E.00808
G1 X142.402 Y74.686 E.00444
;WIDTH:0.58178
M73 P10 R25
M73 Q10 S25
G1 X142.502 Y74.783 E.00684
;WIDTH:0.5048
G1 X142.552 Y74.831 E.00293
G1 X159.761 Y104.639 E1.4541
;WIDTH:0.586628
G1 X159.866 Y104.738 E.00713
;WIDTH:0.668456
G1 F1198.972
G1 X159.97 Y104.836 E.00821
;WIDTH:0.658759
G1 F1200
G1 X159.953 Y104.913 E.00444
;WIDTH:0.581779
G1 X159.92 Y105.048 E.00684
;WIDTH:0.504799
G1 X159.903 Y105.115 E.00293
G1 X142.693 Y134.924 E1.4541
;WIDTH:0.586628
G1 X142.66 Y135.063 E.00713
;WIDTH:0.658762
G1 X142.627 Y135.203 E.00808
G1 X142.552 Y135.227 E.00444
;WIDTH:0.581782
G1 X142.418 Y135.266 E.00684
;WIDTH:0.504802
G1 X142.352 Y135.285 E.00293
G1 X107.932 Y135.285 E1.45411
;WIDTH:0.586628
G1 X107.794 Y135.326 E.00713
;WIDTH:0.65876
G1 X107.783 Y135.329 E.00066
; stop printing object OV-PAM_n_6_1F.stl id:0 copy 0
;LAYER_CHANGE
;Z:2.6
;HEIGHT:0.2
;BEFORE_LAYER_CHANGE
G92 E0.0
;2.6


G1 E-1 F2400
G1 Z2.6 F720
;AFTER_LAYER_CHANGE
;2.6
; printing object OV-PAM_n_6_1F.stl id:0 copy 0
G1 X107.789 Y135.038 F4200
G1 X107.983 Y135.043
G1 X142.341 Y135.035
G1 X142.509 Y134.759
G1 X142.564 Y134.659
G1 X142.677 Y134.722
G1 E1 F1500
;WIDTH:0.5048
G1 F1200
G1 X159.703 Y105.231 E1.43861
G1 X159.651 Y104.741 F4200
;WIDTH:0.4
G1 F1200
G1 X159.932 Y104.579 E.01057
G1 X160.048 Y104.696 E.00537
G1 X159.836 Y105.062 E.01381
G1 X159.681 Y104.793 E.01013
G1 X159.951 Y104.619 F4200
G1 X159.578 Y104.553
;WIDTH:0.504801
G1 F1200
G1 X142.552 Y75.062 E1.43861
G1 X142.102 Y74.862 F4200
;WIDTH:0.4
G1 F1200
