; generated by PrusaSlicer 2.5.2+win64 on 2023-10-26 at 06:05:42 UTC


;
;
; 

; external perimeters extrusion width = 0.40mm
; perimeters extrusion width = 0.40mm
; infill extrusion width = 0.40mm
; solid infill extrusion width = 0.40mm
; top infill extrusion width = 0.40mm
; first layer extrusion width = 0.40mm

M73 P0 R25
M73 Q0 S25
M201 X1000 Y1000 Z200 E5000 ; sets maximum accelerations, mm/sec^2
M203 X200 Y200 Z12 E120 ; sets maximum feedrates, mm / sec
M204 P1250 R1250 T1250 ; sets acceleration (P, T) and retract acceleration (R), mm/sec^2
M205 X8.00 Y8.00 Z0.40 E4.50 ; sets the jerk limits, mm/sec
M205 S0 T0 ; sets the minimum extruding and travel feed rate, mm/sec
M107
;TYPE:Custom
M862.3 P "MK3S" ; printer model check
M862.1 P0.4 ; nozzle diameter check
M115 U3.12.2 ; tell printer latest fw version
G90 ; use absolute coordinates
M83 ; extruder relative mode
M104 S240 ; set extruder temp
M140 S60 ; set bed temp
M190 S60 ; wait for bed temp
M109 S240 ; wait for extruder temp
G28 W ; home all without mesh bed level
G80 ; mesh bed leveling

G1 Z0.2 F720
G1 Y-3 F1000 ; go outside print area
G92 E0
G1 X60 E9 F1000 ; intro line
G1 X100 E12.5 F1000 ; intro line

G92 E0
M221 S95

; Don't change E values below. Excessive value can damage the printer.
M907 E430 ; set extruder motor current
G21 ; set units to millimeters
G90 ; use absolute coordinates
M83 ; use relative distances for extrusion
M900 K0 ; Filament gcode
M107
;LAYER_CHANGE
;Z:0.2
;HEIGHT:0.2
;BEFORE_LAYER_CHANGE
G92 E0.0
;0.2


G1 E-1 F2400
G1 Z.2 F720
;AFTER_LAYER_CHANGE
;0.2
G1 X96.492 Y77.877 F4200
G1 E1 F1500
M204 S300
;TYPE:Skirt/Brim
;WIDTH:0.4
G1 F1200
G1 X97.582 Y76.67 E.05312
G1 X99.455 Y76.098 E.06397
G1 X150.545 Y76.098 E1.6686
G1 X152.123 Y76.492 E.05312
G1 X153.33 Y77.582 E.05312
G1 X153.902 Y79.455 E.06397
G1 X153.902 Y130.545 E1.6686
G1 X153.508 Y132.123 E.05312
G1 X152.418 Y133.33 E.05312
G1 X150.545 Y133.902 E.06397
G1 X99.455 Y133.902 E1.6686
G1 X97.877 Y133.508 E.05312
M73 P1 R25
M73 Q1 S25
G1 X96.67 Y132.418 E.05312
G1 X96.098 Y130.545 E.06397
G1 X96.098 Y79.455 E1.6686
G1 X96.478 Y77.936 E.05116
; printing object OV-PAM_n_4_1F.stl id:0 copy 0
G1 E-1 F2400
G1 X150.345 Y130.145 F4200
G1 E1 F1500
;TYPE:External perimeter
;WIDTH:0.51155
G1 F1200
G1 X150.31 Y130.31 E.00725
G1 X150.227 Y130.327 E.00363
;WIDTH:0.44292
G1 X150.145 Y130.345 E.0031
G1 X99.855 Y130.345 E1.83989
;WIDTH:0.51155
G1 X99.69 Y130.31 E.00725
G1 X99.673 Y130.227 E.00363
;WIDTH:0.44292
G1 X99.655 Y130.145 E.0031
G1 X99.655 Y79.855 E1.83989
;WIDTH:0.511548
G1 X99.69 Y79.69 E.00725
;WIDTH:0.51155
G1 X99.773 Y79.673 E.00363
;WIDTH:0.44292
G1 X99.855 Y79.655 E.0031
G1 X150.145 Y79.655 E1.83989
;WIDTH:0.51155
G1 X150.31 Y79.69 E.00725
G1 X150.327 Y79.773 E.00363
;WIDTH:0.44292
G1 X150.345 Y79.855 E.0031
G1 X150.345 Y130.085 E1.83769
G1 X150.478 Y130.248 F4200
; stop printing object OV-PAM_n_4_1F.stl id:0 copy 0
;LAYER_CHANGE
;Z:0.4
;HEIGHT:0.2
;BEFORE_LAYER_CHANGE
G92 E0.0
;0.4


G1 E-1 F2400
G1 Z.4 F720
;AFTER_LAYER_CHANGE
;0.4
G1 X153.902 Y130.085 F4200
G1 E1 F1500
;TYPE:Skirt/Brim
;WIDTH:0.4
G1 F1200
M73 P2 R25
M73 Q2 S25
G1 X153.902 Y130.545 E.01502
G1 X153.508 Y132.123 E.05312
G1 X152.418 Y133.33 E.05312
G1 X150.545 Y133.902 E.06397
G1 X99.455 Y133.902 E1.6686
G1 X97.877 Y133.508 E.05312
G1 X96.67 Y132.418 E.05312
G1 X96.098 Y130.545 E.06397
G1 X96.098 Y79.455 E1.6686
G1 X96.492 Y77.877 E.05312
G1 X97.582 Y76.67 E.05312
G1 X99.455 Y76.098 E.06397
G1 X150.545 Y76.098 E1.6686
G1 X152.123 Y76.492 E.05312
M73 P2 R24
M73 Q2 S24
G1 X153.33 Y77.582 E.05312
G1 X153.902 Y79.455 E.06397
G1 X153.902 Y130.025 E1.65161
; printing object OV-PAM_n_4_1F.stl id:0 copy 0
G1 E-1 F2400
G1 X150.471 Y130.14 F4200
G1 X150.471 Y130.147
G1 X150.345 Y130.145
G1 E1 F1500
;TYPE:External perimeter
;WIDTH:0.51155
G1 F1200
G1 X150.31 Y130.31 E.00725
G1 X150.227 Y130.327 E.00363
;WIDTH:0.44292
G1 X150.145 Y130.345 E.0031
G1 X99.855 Y130.345 E1.83989
;WIDTH:0.51155
G1 X99.69 Y130.31 E.00725
G1 X99.673 Y130.227 E.00363
;WIDTH:0.44292
G1 X99.655 Y130.145 E.0031
G1 X99.655 Y79.855 E1.83989
;WIDTH:0.511548
G1 X99.69 Y79.69 E.00725
;WIDTH:0.51155
M73 P3 R24
M73 Q3 S24
G1 X99.773 Y79.673 E.00363
;WIDTH:0.44292
G1 X99.855 Y79.655 E.0031
G1 X150.145 Y79.655 E1.83989
;WIDTH:0.51155
G1 X150.31 Y79.69 E.00725
G1 X150.327 Y79.773 E.00363
;WIDTH:0.44292
G1 X150.345 Y79.855 E.0031
G1 X150.345 Y130.085 E1.83769
G1 X150.478 Y130.248 F4200
; stop printing object OV-PAM_n_4_1F.stl id:0 copy 0
;LAYER_CHANGE
;Z:0.6
;HEIGHT:0.2
;BEFORE_LAYER_CHANGE
G92 E0.0
;0.6


G1 E-1 F2400
G1 Z.6 F720
;AFTER_LAYER_CHANGE
;0.6
G1 X153.902 Y130.085 F4200
G1 E1 F1500
;TYPE:Skirt/Brim
;WIDTH:0.4
G1 F1200
G1 X153.902 Y130.545 E.01502
G1 X153.508 Y132.123 E.05312
G1 X152.418 Y133.33 E.05312
G1 X150.545 Y133.902 E.06397
G1 X99.455 Y133.902 E1.6686
G1 X97.877 Y133.508 E.05312
G1 X96.67 Y132.418 E.05312
G1 X96.098 Y130.545 E.06397
G1 X96.098 Y79.455 E1.6686
G1 X96.492 Y77.877 E.05312
G1 X97.582 Y76.67 E.05312
G1 X99.455 Y76.098 E.06397
G1 X150.545 Y76.098 E1.6686
G1 X152.123 Y76.492 E.05312
G1 X153.33 Y77.582 E.05312
G1 X153.902 Y79.455 E.06397
M73 P4 R24
M73 Q4 S24
G1 X153.902 Y130.025 E1.65161
; printing object OV-PAM_n_4_1F.stl id:0 copy 0
G1 E-1 F2400
G1 X150.471 Y130.14 F4200
G1 X150.471 Y130.147
G1 X150.345 Y130.145
G1 E1 F1500
;TYPE:External perimeter
;WIDTH:0.51155
G1 F1200
G1 X150.31 Y130.31 E.00725
G1 X150.227 Y130.327 E.00363
;WIDTH:0.44292
G1 X150.145 Y130.345 E.0031
G1 X99.855 Y130.345 E1.83989
;WIDTH:0.51155
G1 X99.69 Y130.31 E.00725
G1 X99.673 Y130.227 E.00363
;WIDTH:0.44292
G1 X99.655 Y130.145 E.0031
G1 X99.655 Y79.855 E1.83989
;WIDTH:0.511548
G1 X99.69 Y79.69 E.00725
;WIDTH:0.51155
G1 X99.773 Y79.673 E.00363
;WIDTH:0.44292
G1 X99.855 Y79.655 E.0031
G1 X150.145 Y79.655 E1.83989
;WIDTH:0.51155
G1 X150.31 Y79.69 E.00725
G1 X150.327 Y79.773 E.00363
;WIDTH:0.44292
G1 X150.345 Y79.855 E.0031
G1 X150.345 Y130.085 E1.83769
G1 X150.478 Y130.248 F4200
; stop printing object OV-PAM_n_4_1F.stl id:0 copy 0
;LAYER_CHANGE
;Z:0.8
;HEIGHT:0.2
;BEFORE_LAYER_CHANGE
G92 E0.0
;0.8


G1 E-1 F2400
G1 Z.8 F720
;AFTER_LAYER_CHANGE
;0.8
; printing object OV-PAM_n_4_1F.stl id:0 copy 0
G1 X150.345 Y130.145 F4200
G1 E1 F1500
;WIDTH:0.51155
G1 F1200
G1 X150.31 Y130.31 E.00725
G1 X150.227 Y130.327 E.00363
;WIDTH:0.44292
G1 X150.145 Y130.345 E.0031
G1 X99.855 Y130.345 E1.83989
;WIDTH:0.51155
G1 X99.69 Y130.31 E.00725
M73 P5 R24
M73 Q5 S24
G1 X99.673 Y130.227 E.00363
;WIDTH:0.44292
G1 X99.655 Y130.145 E.0031
G1 X99.655 Y79.855 E1.83989
;WIDTH:0.511548
G1 X99.69 Y79.69 E.00725
;WIDTH:0.51155
G1 X99.773 Y79.673 E.00363
;WIDTH:0.44292
G1 X99.855 Y79.655 E.0031
G1 X150.145 Y79.655 E1.83989
;WIDTH:0.51155
G1 X150.31 Y79.69 E.00725
G1 X150.327 Y79.773 E.00363
;WIDTH:0.44292
G1 X150.345 Y79.855 E.0031
G1 X150.345 Y130.085 E1.83769
G1 X150.478 Y130.248 F4200
; stop printing object OV-PAM_n_4_1F.stl id:0 copy 0
;LAYER_CHANGE
;Z:1
;HEIGHT:0.2
;BEFORE_LAYER_CHANGE
G92 E0.0
;1


G1 E-1 F2400
G1 Z1 F720
;AFTER_LAYER_CHANGE
;1
; printing object OV-PAM_n_4_1F.stl id:0 copy 0
G1 X150.345 Y130.145 F4200
G1 E1 F1500
;WIDTH:0.51155
G1 F1200
G1 X150.31 Y130.31 E.00725
G1 X150.227 Y130.327 E.00363
;WIDTH:0.44292
G1 X150.145 Y130.345 E.0031
G1 X99.855 Y130.345 E1.83989
;WIDTH:0.51155
G1 X99.69 Y130.31 E.00725
G1 X99.673 Y130.227 E.00363
;WIDTH:0.44292
G1 X99.655 Y130.145 E.0031
G1 X99.655 Y79.855 E1.83989
;WIDTH:0.511548
G1 X99.69 Y79.69 E.00725
;WIDTH:0.51155
G1 X99.773 Y79.673 E.00363
;WIDTH:0.44292
G1 X99.855 Y79.655 E.0031
G1 X150.145 Y79.655 E1.83989
;WIDTH:0.51155
G1 X150.31 Y79.69 E.00725
M73 P6 R24
M73 Q6 S24
G1 X150.327 Y79.773 E.00363
;WIDTH:0.44292
G1 X150.345 Y79.855 E.0031
G1 X150.345 Y130.085 E1.83769
G1 X150.478 Y130.248 F4200
; stop printing object OV-PAM_n_4_1F.stl id:0 copy 0
;LAYER_CHANGE
;Z:1.2
;HEIGHT:0.2
;BEFORE_LAYER_CHANGE
G92 E0.0
;1.2


G1 E-1 F2400
G1 Z1.2 F720
;AFTER_LAYER_CHANGE
;1.2
; printing object OV-PAM_n_4_1F.stl id:0 copy 0
G1 X150.343 Y130.14 F4200
G1 E1 F1500
;WIDTH:0.516406
G1 F1200
G1 X150.308 Y130.308 E.0074
G1 X150.224 Y130.325 E.0037
;WIDTH:0.447066
G1 X150.14 Y130.343 E.00316
G1 X99.86 Y130.343 E1.85865
;WIDTH:0.516406
G1 X99.692 Y130.308 E.0074
G1 X99.675 Y130.224 E.0037
;WIDTH:0.447066
G1 X99.657 Y130.14 E.00316
G1 X99.657 Y79.86 E1.85865
;WIDTH:0.516405
G1 X99.692 Y79.692 E.0074
;WIDTH:0.516406
M73 P6 R23
M73 Q6 S23
G1 X99.776 Y79.675 E.0037
;WIDTH:0.447066
G1 X99.86 Y79.657 E.00316
G1 X150.14 Y79.657 E1.85865
;WIDTH:0.516406
G1 X150.308 Y79.692 E.0074
G1 X150.325 Y79.776 E.0037
;WIDTH:0.447066
G1 X150.343 Y79.86 E.00316
G1 X150.343 Y130.08 E1.85643
G1 X150.478 Y130.245 F4200
; stop printing object OV-PAM_n_4_1F.stl id:0 copy 0
;LAYER_CHANGE
;Z:1.4
;HEIGHT:0.2
;BEFORE_LAYER_CHANGE
G92 E0.0
;1.4


G1 E-1 F2400
G1 Z1.4 F720
;AFTER_LAYER_CHANGE
;1.4
; printing object OV-PAM_n_4_1F.stl id:0 copy 0
G1 X150.256 Y130.025 F4200
G1 E1 F1500
;WIDTH:0.584046
G1 F1200
G1 X150.216 Y130.216 E.00967
G1 X150.121 Y130.236 E.00484
;WIDTH:0.5048
G1 X150.025 Y130.256 E.00413
G1 X99.975 Y130.256 E2.11441
;WIDTH:0.584046
G1 X99.784 Y130.216 E.00967
M73 P7 R23
M73 Q7 S23
G1 X99.764 Y130.121 E.00484
;WIDTH:0.5048
G1 X99.744 Y130.025 E.00413
G1 X99.744 Y79.975 E2.11441
;WIDTH:0.584047
G1 X99.784 Y79.784 E.00967
;WIDTH:0.584046
G1 X99.879 Y79.764 E.00484
;WIDTH:0.5048
G1 X99.975 Y79.744 E.00413
G1 X150.025 Y79.744 E2.11441
;WIDTH:0.584046
G1 X150.216 Y79.784 E.00967
G1 X150.236 Y79.879 E.00484
;WIDTH:0.5048
G1 X150.256 Y79.975 E.00413
G1 X150.256 Y129.965 E2.11188
G1 X150.41 Y130.145 F4200
; stop printing object OV-PAM_n_4_1F.stl id:0 copy 0
;LAYER_CHANGE
;Z:1.6
;HEIGHT:0.2
;BEFORE_LAYER_CHANGE
G92 E0.0
;1.6


G1 E-1 F2400
G1 Z1.6 F720
;AFTER_LAYER_CHANGE
;1.6
; printing object OV-PAM_n_4_1F.stl id:0 copy 0
G1 X150.14 Y129.91 F4200
G1 E1 F1500
;WIDTH:0.584046
G1 F1200
G1 X150.101 Y130.101 E.00967
G1 X150.005 Y130.121 E.00484
;WIDTH:0.5048
G1 X149.91 Y130.14 E.00413
G1 X100.09 Y130.14 E2.10466
;WIDTH:0.584046
G1 X99.899 Y130.101 E.00967
G1 X99.879 Y130.005 E.00484
;WIDTH:0.5048
G1 X99.86 Y129.91 E.00413
G1 X99.86 Y80.09 E2.10466
;WIDTH:0.584047
G1 X99.899 Y79.899 E.00967
;WIDTH:0.584046
G1 X99.995 Y79.879 E.00484
;WIDTH:0.5048
G1 X100.09 Y79.86 E.00413
G1 X149.91 Y79.86 E2.10466
;WIDTH:0.584046
G1 X150.101 Y79.899 E.00967
M73 P8 R23
M73 Q8 S23
G1 X150.121 Y79.995 E.00484
;WIDTH:0.5048
G1 X150.14 Y80.09 E.00413
G1 X150.14 Y129.85 E2.10212
G1 X150.295 Y130.029 F4200
; stop printing object OV-PAM_n_4_1F.stl id:0 copy 0
;LAYER_CHANGE
;Z:1.8
;HEIGHT:0.2
;BEFORE_LAYER_CHANGE
G92 E0.0
;1.8


G1 E-1 F2400
G1 Z1.8 F720
;AFTER_LAYER_CHANGE
;1.8
; printing object OV-PAM_n_4_1F.stl id:0 copy 0
G1 X150.025 Y129.794 F4200
G1 E1 F1500
;WIDTH:0.584046
G1 F1200
G1 X149.985 Y129.985 E.00967
G1 X149.89 Y130.005 E.00484
;WIDTH:0.5048
G1 X149.794 Y130.025 E.00413
G1 X100.206 Y130.025 E2.0949
;WIDTH:0.584046
G1 X100.015 Y129.985 E.00967
G1 X99.995 Y129.89 E.00484
;WIDTH:0.5048
G1 X99.975 Y129.794 E.00413
G1 X99.975 Y80.206 E2.0949
;WIDTH:0.584047
G1 X100.015 Y80.015 E.00967
;WIDTH:0.584046
G1 X100.11 Y79.995 E.00484
;WIDTH:0.5048
G1 X100.206 Y79.975 E.00413
G1 X149.794 Y79.975 E2.0949
;WIDTH:0.584046
G1 X149.985 Y80.015 E.00967
G1 X150.005 Y80.11 E.00484
;WIDTH:0.5048
G1 X150.025 Y80.206 E.00413
G1 X150.025 Y129.734 E2.09237
G1 X150.179 Y129.914 F4200
; stop printing object OV-PAM_n_4_1F.stl id:0 copy 0
;LAYER_CHANGE
;Z:2
;HEIGHT:0.2
;BEFORE_LAYER_CHANGE
G92 E0.0
;2


G1 E-1 F2400
G1 Z2 F720
;AFTER_LAYER_CHANGE
;2
; printing object OV-PAM_n_4_1F.stl id:0 copy 0
G1 X149.91 Y129.666 F4200
G1 E1 F1500
G1 F1200
G1 X149.89 Y129.774 E.00464
;WIDTH:0.584047
G1 X149.87 Y129.87 E.00484
;WIDTH:0.584046
G1 X149.679 Y129.91 E.00967
;WIDTH:0.5048
G1 X100.321 Y129.91 E2.08514
G1 X100.226 Y129.89 E.00413
;WIDTH:0.584047
M73 P9 R23
M73 Q9 S23
G1 X100.13 Y129.87 E.00484
G1 X100.09 Y129.679 E.00967
;WIDTH:0.5048
G1 X100.09 Y80.321 E2.08514
G1 X100.11 Y80.226 E.00413
;WIDTH:0.584047
G1 X100.13 Y80.13 E.00484
G1 X100.321 Y80.09 E.00967
;WIDTH:0.5048
G1 X149.679 Y80.09 E2.08514
G1 X149.774 Y80.11 E.00413
;WIDTH:0.584047
G1 X149.87 Y80.13 E.00484
G1 X149.91 Y80.321 E.00967
;WIDTH:0.5048
G1 X149.91 Y129.606 E2.08209
; stop printing object OV-PAM_n_4_1F.stl id:0 copy 0
;LAYER_CHANGE
;Z:2.2
;HEIGHT:0.2
;BEFORE_LAYER_CHANGE
G92 E0.0
;2.2


G1 E-1 F2400
G1 Z2.2 F720
;AFTER_LAYER_CHANGE
;2.2
; printing object OV-PAM_n_4_1F.stl id:0 copy 0
G1 X149.794 Y129.556 F4200
G1 E1 F1500
G1 F1200
G1 X149.774 Y129.659 E.00441
;WIDTH:0.584047
G1 X149.754 Y129.754 E.00484
;WIDTH:0.584046
G1 X149.563 Y129.794 E.00967
;WIDTH:0.5048
G1 X100.437 Y129.794 E2.07539
G1 X100.341 Y129.774 E.00413
;WIDTH:0.584047
G1 X100.246 Y129.754 E.00484
G1 X100.206 Y129.563 E.00967
;WIDTH:0.5048
G1 X100.206 Y80.437 E2.07539
G1 X100.226 Y80.341 E.00413
;WIDTH:0.584047
G1 X100.246 Y80.246 E.00484
G1 X100.437 Y80.206 E.00967
;WIDTH:0.5048
G1 X149.563 Y80.206 E2.07539
G1 X149.659 Y80.226 E.00413
;WIDTH:0.584047
M73 P10 R23
M73 Q10 S23
G1 X149.754 Y80.246 E.00484
G1 X149.794 Y80.437 E.00967
;WIDTH:0.5048
G1 X149.794 Y129.496 E2.07257
; stop printing object OV-PAM_n_4_1F.stl id:0 copy 0
;LAYER_CHANGE
;Z:2.4
;HEIGHT:0.2
;BEFORE_LAYER_CHANGE
G92 E0.0
;2.4


G1 E-1 F2400
G1 Z2.4 F720
;AFTER_LAYER_CHANGE
;2.4
; printing object OV-PAM_n_4_1F.stl id:0 copy 0
G1 X149.679 Y129.444 F4200
G1 E1 F1500
G1 F1200
G1 X149.661 Y129.538 E.00405
;WIDTH:0.575181
G1 X149.639 Y129.639 E.00504
;WIDTH:0.584176
G1 X149.448 Y129.679 E.00968
;WIDTH:0.5048
G1 X100.552 Y129.679 E2.06563
G1 X100.462 Y129.661 E.00388
;WIDTH:0.575181
M73 P10 R22
M73 Q10 S22
G1 X100.361 Y129.639 E.00504
G1 X100.321 Y129.448 E.00952
;WIDTH:0.5048
G1 X100.321 Y80.552 E2.06563
G1 X100.339 Y80.462 E.00388
;WIDTH:0.575181
G1 X100.361 Y80.361 E.00504
G1 X100.552 Y80.321 E.00952
;WIDTH:0.5048
G1 X149.448 Y80.321 E2.06563
G1 X149.538 Y80.339 E.00388
;WIDTH:0.575181
G1 X149.639 Y80.361 E.00504
G1 X149.679 Y80.552 E.00952
;WIDTH:0.5048
G1 X149.679 Y129.384 E2.06293
; stop printing object OV-PAM_n_4_1F.stl id:0 copy 0
;LAYER_CHANGE
;Z:2.6
;HEIGHT:0.2
;BEFORE_LAYER_CHANGE
G92 E0.0
;2.6


G1 E-1 F2400
G1 Z2.6 F720
;AFTER_LAYER_CHANGE
;2.6
; printing object OV-PAM_n_4_1F.stl id:0 copy 0
G1 X149.563 Y129.328 F4200
G1 E1 F1500
G1 F1200
G1 X149.545 Y129.461 E.00568
;WIDTH:0.588026
G1 X149.528 Y129.521 E.00312
;WIDTH:0.588028
G1 X149.332 Y129.563 E.00999
;WIDTH:0.5048
G1 X100.668 Y129.563 E2.05588
G1 X100.539 Y129.545 E.00551
;WIDTH:0.588026
M73 P11 R22
M73 Q11 S22
G1 X100.479 Y129.528 E.00312
G1 X100.437 Y129.332 E.00999
;WIDTH:0.5048
G1 X100.437 Y80.668 E2.05588
G1 X100.455 Y80.539 E.00551
;WIDTH:0.588026
G1 X100.472 Y80.479 E.00312
G1 X100.668 Y80.437 E.00999
;WIDTH:0.5048
G1 X149.332 Y80.437 E2.05588
G1 X149.461 Y80.455 E.00551
;WIDTH:0.588026
G1 X149.521 Y80.472 E.00312
G1 X149.563 Y80.668 E.00999
;WIDTH:0.5048
G1 X149.563 Y129.268 E2.05317
; stop printing object OV-PAM_n_4_1F.stl id:0 copy 0
;LAYER_CHANGE
;Z:2.8
;HEIGHT:0.2
;BEFORE_LAYER_CHANGE
G92 E0.0
;2.8


G1 E-1 F2400
G1 Z2.8 F720
;AFTER_LAYER_CHANGE
;2.8
; printing object OV-PAM_n_4_1F.stl id:0 copy 0
G1 X149.423 Y129.402 F4200
G1 E1 F1500
;WIDTH:0.596974
G1 F1200
G1 X149.441 Y129.295 E.0055
;WIDTH:0.517942
G1 X149.448 Y80.783 E2.10772
G1 X149.425 Y80.68 E.00459
;WIDTH:0.596972
G1 X149.402 Y80.577 E.00536
G1 E-1 F2400
G1 X149.59 Y80.593 F4200
G1 X149.62 Y79.99
G1 X149.446 Y79.988
G1 X149.487 Y79.455
G1 E1 F1500
;WIDTH:0.426894
G1 F1200
G1 X149.487 Y80.321 E.03042
;WIDTH:0.511934
G1 X149.444 Y80.449 E.00578
;WIDTH:0.596973
G1 X149.402 Y80.577 E.00682
;WIDTH:0.596974
G1 X149.295 Y80.559 E.0055
;WIDTH:0.517942
G1 X100.783 Y80.552 E2.10772
G1 X100.68 Y80.575 E.00459
;WIDTH:0.596972
G1 X100.577 Y80.598 E.00536
;WIDTH:0.596974
G1 X100.559 Y80.705 E.0055
;WIDTH:0.517942
G1 X100.552 Y129.217 E2.10772
G1 X100.575 Y129.32 E.00459
;WIDTH:0.596972
M73 P12 R22
M73 Q12 S22
G1 X100.598 Y129.423 E.00536
;WIDTH:0.557458
G1 X100.705 Y129.441 E.0051
;WIDTH:0.504802
G1 X149.217 Y129.448 E2.04942
;WIDTH:0.596972
G1 X149.423 Y129.402 E.01071
