; generated by PrusaSlicer 2.5.2+win64 on 2023-10-26 at 05:50:24 UTC


;
;
; 

; external perimeters extrusion width = 0.50mm
; perimeters extrusion width = 0.50mm
; infill extrusion width = 0.50mm
; solid infill extrusion width = 0.50mm
; top infill extrusion width = 0.50mm
; first layer extrusion width = 0.50mm

M73 P0 R14
M73 Q0 S14
M201 X1000 Y1000 Z200 E5000 ; sets maximum accelerations, mm/sec^2
M203 X200 Y200 Z12 E120 ; sets maximum feedrates, mm / sec
M204 P1250 R1250 T1250 ; sets acceleration (P, T) and retract acceleration (R), mm/sec^2
M205 X8.00 Y8.00 Z0.40 E4.50 ; sets the jerk limits, mm/sec
M205 S0 T0 ; sets the minimum extruding and travel feed rate, mm/sec
M107
;TYPE:Custom
M862.3 P "MK3S" ; printer model check
M862.1 P0.4 ; nozzle diameter check
M115 U3.12.2 ; tell printer latest fw version
G90 ; use absolute coordinates
M83 ; extruder relative mode
M104 S240 ; set extruder temp
M140 S60 ; set bed temp
M190 S60 ; wait for bed temp
M109 S240 ; wait for extruder temp
G28 W ; home all without mesh bed level
G80 ; mesh bed leveling

G1 Z0.2 F720
G1 Y-3 F1000 ; go outside print area
G92 E0
G1 X60 E9 F1000 ; intro line
G1 X100 E12.5 F1000 ; intro line

G92 E0
M221 S95

; Don't change E values below. Excessive value can damage the printer.
M907 E430 ; set extruder motor current
G21 ; set units to millimeters
G90 ; use absolute coordinates
M83 ; use relative distances for extrusion
M900 K0 ; Filament gcode
M107
;LAYER_CHANGE
;Z:0.2
;HEIGHT:0.2
;BEFORE_LAYER_CHANGE
G92 E0.0
;0.2


G1 E-1 F2400
G1 Z.2 F720
;AFTER_LAYER_CHANGE
;0.2
G1 X105.66 Y95.557 F4200
G1 E1 F1500
M204 S300
;TYPE:Skirt/Brim
;WIDTH:0.5
G1 F1200
G1 X115.557 Y85.66 E.58517
G1 X116.969 Y84.805 E.06902
G1 X118.001 Y84.647 E.04365
G1 X131.999 Y84.647 E.58517
G1 X133.602 Y85.041 E.06902
M73 P1 R14
M73 Q1 S14
G1 X134.443 Y85.66 E.04365
G1 X144.34 Y95.557 E.58517
G1 X145.195 Y96.969 E.06902
G1 X145.353 Y98.001 E.04365
G1 X145.353 Y111.999 E.58517
G1 X144.959 Y113.602 E.06902
G1 X144.34 Y114.443 E.04365
G1 X134.443 Y124.34 E.58517
G1 X133.031 Y125.195 E.06902
G1 X131.999 Y125.353 E.04365
G1 X118.001 Y125.353 E.58517
G1 X116.398 Y124.959 E.06902
G1 X115.557 Y124.34 E.04365
G1 X105.66 Y114.443 E.58517
G1 X104.805 Y113.031 E.06902
G1 X104.647 Y111.999 E.04365
G1 X104.647 Y98.001 E.58517
G1 X105.041 Y96.398 E.06902
G1 X105.624 Y95.605 E.04114
; printing object OV-PAM_tendon_1F.stl id:0 copy 0
G1 E-1 F2400
G1 X118.071 Y88.395 F4200
G1 E1 F1500
;TYPE:External perimeter
;WIDTH:0.562701
G1 F1200
G1 X118.109 Y88.364 E.00234
G1 X118.209 Y88.354 E.00475
G1 X131.891 Y88.364 E.65048
G1 X141.636 Y98.109 E.65521
G1 X141.636 Y111.891 E.65521
G1 X131.891 Y121.636 E.65521
G1 X118.109 Y121.636 E.65521
G1 X108.364 Y111.891 E.65521
M73 P2 R14
M73 Q2 S14
G1 X108.364 Y98.109 E.65521
G1 X118.025 Y88.434 E.65005
G1 X118.055 Y88.349 F4200
; stop printing object OV-PAM_tendon_1F.stl id:0 copy 0
;LAYER_CHANGE
;Z:0.4
;HEIGHT:0.2
;BEFORE_LAYER_CHANGE
G92 E0.0
;0.4


G1 E-1 F2400
G1 Z.4 F720
;AFTER_LAYER_CHANGE
;0.4
G1 X118.04 Y88.449 F4200
G1 X118.052 Y88.437
G1 X116.135 Y85.31
G1 E1 F1500
;TYPE:Skirt/Brim
;WIDTH:0.5
G1 F1200
G1 X116.969 Y84.805 E.0408
G1 X118.001 Y84.647 E.04365
G1 X131.999 Y84.647 E.58517
G1 X133.602 Y85.041 E.06902
G1 X134.443 Y85.66 E.04365
G1 X144.34 Y95.557 E.58517
G1 X145.195 Y96.969 E.06902
G1 X145.353 Y98.001 E.04365
G1 X145.353 Y111.999 E.58517
G1 X144.959 Y113.602 E.06902
G1 X144.34 Y114.443 E.04365
G1 X134.443 Y124.34 E.58517
G1 X133.031 Y125.195 E.06902
G1 X131.999 Y125.353 E.04365
G1 X118.001 Y125.353 E.58517
G1 X116.398 Y124.959 E.06902
G1 X115.557 Y124.34 E.04365
G1 X105.66 Y114.443 E.58517
G1 X104.805 Y113.031 E.06902
G1 X104.647 Y111.999 E.04365
G1 X104.647 Y98.001 E.58517
G1 X105.041 Y96.398 E.06902
G1 X105.66 Y95.557 E.04365
G1 X115.557 Y85.66 E.58517
G1 X116.083 Y85.341 E.02572
; printing object OV-PAM_tendon_1F.stl id:0 copy 0
M73 P3 R14
M73 Q3 S14
G1 E-1 F2400
G1 X117.981 Y88.255 F4200
G1 X117.951 Y88.281
G1 X118.06 Y88.404
G1 E1 F1500
;TYPE:External perimeter
;WIDTH:0.562701
G1 F1200
G1 X118.109 Y88.364 E.00301
G1 X118.209 Y88.354 E.00475
G1 X131.891 Y88.364 E.65048
G1 X141.636 Y98.109 E.65521
G1 X141.636 Y111.891 E.65521
G1 X131.891 Y121.636 E.65521
G1 X118.109 Y121.636 E.65521
G1 X108.364 Y111.891 E.65521
G1 X108.364 Y98.109 E.65521
G1 X118.015 Y88.444 E.64938
G1 X118.04 Y88.344 F4200
; stop printing object OV-PAM_tendon_1F.stl id:0 copy 0
;LAYER_CHANGE
;Z:0.6
;HEIGHT:0.2
;BEFORE_LAYER_CHANGE
G92 E0.0
;0.6


G1 E-1 F2400
G1 Z.6 F720
;AFTER_LAYER_CHANGE
;0.6
G1 X118.03 Y88.459 F4200
G1 X118.044 Y88.445
G1 X116.123 Y85.317
G1 E1 F1500
;TYPE:Skirt/Brim
;WIDTH:0.5
G1 F1200
G1 X116.969 Y84.805 E.04137
G1 X118.001 Y84.647 E.04365
G1 X131.999 Y84.647 E.58517
G1 X133.602 Y85.041 E.06902
G1 X134.443 Y85.66 E.04365
G1 X144.34 Y95.557 E.58517
G1 X145.195 Y96.969 E.06902
G1 X145.353 Y98.001 E.04365
G1 X145.353 Y111.999 E.58517
G1 X144.959 Y113.602 E.06902
M73 P4 R14
M73 Q4 S14
G1 X144.34 Y114.443 E.04365
G1 X134.443 Y124.34 E.58517
G1 X133.031 Y125.195 E.06902
G1 X131.999 Y125.353 E.04365
G1 X118.001 Y125.353 E.58517
G1 X116.398 Y124.959 E.06902
G1 X115.557 Y124.34 E.04365
G1 X105.66 Y114.443 E.58517
G1 X104.805 Y113.031 E.06902
G1 X104.647 Y111.999 E.04365
G1 X104.647 Y98.001 E.58517
G1 X105.041 Y96.398 E.06902
G1 X105.66 Y95.557 E.04365
G1 X115.557 Y85.66 E.58517
G1 X116.071 Y85.348 E.02514
; printing object OV-PAM_tendon_1F.stl id:0 copy 0
G1 E-1 F2400
G1 X117.971 Y88.264 F4200
G1 X117.939 Y88.292
G1 X118.048 Y88.414
G1 E1 F1500
;TYPE:External perimeter
;WIDTH:0.562701
G1 F1200
G1 X118.109 Y88.364 E.00377
G1 X118.209 Y88.354 E.00475
G1 X131.891 Y88.364 E.65048
G1 X141.636 Y98.109 E.65521
G1 X141.636 Y111.891 E.65521
G1 X131.891 Y121.636 E.65521
G1 X118.109 Y121.636 E.65521
G1 X108.364 Y111.891 E.65521
G1 X108.364 Y98.109 E.65521
M73 P5 R14
M73 Q5 S14
G1 X118.004 Y88.455 E.64861
G1 X118.022 Y88.339 F4200
; stop printing object OV-PAM_tendon_1F.stl id:0 copy 0
;LAYER_CHANGE
;Z:0.8
;HEIGHT:0.2
;BEFORE_LAYER_CHANGE
G92 E0.0
;0.8


G1 E-1 F2400
G1 Z.8 F720
;AFTER_LAYER_CHANGE
;0.8
; printing object OV-PAM_tendon_1F.stl id:0 copy 0
G1 X118.029 Y88.43 F4200
G1 E1 F1500
G1 F1200
G1 X118.109 Y88.364 E.00493
G1 X118.209 Y88.354 E.00475
G1 X131.891 Y88.364 E.65048
G1 X141.636 Y98.109 E.65521
G1 X141.636 Y111.891 E.65521
G1 X131.891 Y121.636 E.65521
G1 X118.109 Y121.636 E.65521
G1 X108.364 Y111.891 E.65521
G1 X108.364 Y98.109 E.65521
G1 X117.987 Y88.472 E.64745
G1 X117.996 Y88.332 F4200
; stop printing object OV-PAM_tendon_1F.stl id:0 copy 0
;LAYER_CHANGE
;Z:1
;HEIGHT:0.2
;BEFORE_LAYER_CHANGE
G92 E0.0
;1


G1 E-1 F2400
G1 Z1 F720
;AFTER_LAYER_CHANGE
;1
; printing object OV-PAM_tendon_1F.stl id:0 copy 0
G1 X118.014 Y88.445 F4200
G1 E1 F1500
G1 F1200
G1 X118.109 Y88.364 E.00596
G1 X118.209 Y88.354 E.00475
G1 X131.891 Y88.364 E.65048
G1 X141.636 Y98.109 E.65521
G1 X141.636 Y111.891 E.65521
M73 P6 R14
M73 Q6 S14
G1 X131.891 Y121.636 E.65521
G1 X118.109 Y121.636 E.65521
G1 X108.364 Y111.891 E.65521
G1 X108.364 Y98.109 E.65521
G1 X117.971 Y88.488 E.64642
G1 X117.972 Y88.327 F4200
; stop printing object OV-PAM_tendon_1F.stl id:0 copy 0
;LAYER_CHANGE
;Z:1.2
;HEIGHT:0.2
;BEFORE_LAYER_CHANGE
G92 E0.0
;1.2


G1 E-1 F2400
G1 Z1.2 F720
;AFTER_LAYER_CHANGE
;1.2
; printing object OV-PAM_tendon_1F.stl id:0 copy 0
G1 X118 Y88.473 F4200
G1 E1 F1500
;WIDTH:0.583094
G1 F1200
G1 X118.113 Y88.374 E.00741
G1 X118.217 Y88.364 E.00513
G1 X131.887 Y88.374 E.67539
G1 X141.626 Y98.113 E.6805
G1 X141.626 Y111.887 E.6805
M73 P6 R13
M73 Q6 S13
G1 X131.887 Y121.626 E.6805
G1 X118.113 Y121.626 E.6805
G1 X108.374 Y111.887 E.6805
G1 X108.374 Y98.113 E.6805
G1 X117.958 Y88.515 E.67014
M73 P7 R13
M73 Q7 S13
G1 X117.949 Y88.332 F4200
; stop printing object OV-PAM_tendon_1F.stl id:0 copy 0
;LAYER_CHANGE
;Z:1.4
;HEIGHT:0.2
;BEFORE_LAYER_CHANGE
G92 E0.0
;1.4


G1 E-1 F2400
G1 Z1.4 F720
;AFTER_LAYER_CHANGE
;1.4
; printing object OV-PAM_tendon_1F.stl id:0 copy 0
G1 X118.024 Y88.572 F4200
G1 E1 F1500
;WIDTH:0.643114
G1 F1200
G1 X118.15 Y88.462 E.00917
G1 X118.265 Y88.45 E.00634
G1 X131.85 Y88.462 E.74582
G1 X141.538 Y98.15 E.75212
G1 X141.538 Y111.85 E.75212
G1 X131.85 Y121.538 E.75212
G1 X118.15 Y121.538 E.75212
G1 X108.462 Y111.85 E.75212
G1 X108.462 Y98.15 E.75212
G1 X117.981 Y88.614 E.73968
G1 X117.967 Y88.415 F4200
; stop printing object OV-PAM_tendon_1F.stl id:0 copy 0
;LAYER_CHANGE
;Z:1.6
;HEIGHT:0.2
;BEFORE_LAYER_CHANGE
G92 E0.0
;1.6


G1 E-1 F2400
G1 Z1.6 F720
;AFTER_LAYER_CHANGE
;1.6
; printing object OV-PAM_tendon_1F.stl id:0 copy 0
G1 X118.066 Y88.693 F4200
G1 E1 F1500
;WIDTH:0.646318
G1 F1200
G1 X118.19 Y88.579 E.00931
G1 X118.312 Y88.566 E.00681
G1 X131.796 Y88.573 E.74415
G1 X131.892 Y88.65 E.00681
G1 X141.421 Y98.19 E.74415
G1 X141.434 Y98.312 E.00681
G1 X141.427 Y111.796 E.74415
G1 X141.35 Y111.892 E.00681
M73 P8 R13
M73 Q8 S13
G1 X131.81 Y121.421 E.74415
G1 X131.688 Y121.434 E.00681
G1 X118.204 Y121.427 E.74415
G1 X118.108 Y121.35 E.00681
G1 X108.579 Y111.81 E.74415
G1 X108.566 Y111.688 E.00681
G1 X108.573 Y98.204 E.74415
G1 X108.65 Y98.108 E.00681
G1 X118.023 Y88.736 E.73154
G1 X118.227 Y88.741 F4200
; stop printing object OV-PAM_tendon_1F.stl id:0 copy 0
;LAYER_CHANGE
;Z:1.8
;HEIGHT:0.2
;BEFORE_LAYER_CHANGE
G92 E0.0
;1.8


G1 E-1 F2400
G1 Z1.8 F720
;AFTER_LAYER_CHANGE
;1.8
; printing object OV-PAM_tendon_1F.stl id:0 copy 0
G1 X118.075 Y88.847 F4200
G1 E1 F1500
;WIDTH:0.667031
G1 F1200
G1 X118.196 Y88.705 E.01069
G1 X118.36 Y88.681 E.00947
G1 X131.561 Y88.681 E.75357
G1 X131.711 Y88.666 E.00861
G1 X131.844 Y88.766 E.00947
G1 X141.178 Y98.1 E.75357
G1 X141.295 Y98.196 E.00861
G1 X141.319 Y98.36 E.00947
G1 X141.319 Y111.561 E.75357
G1 X141.334 Y111.711 E.00861
G1 X141.234 Y111.844 E.00947
G1 X131.9 Y121.178 E.75357
G1 X131.804 Y121.295 E.00861
G1 X131.64 Y121.319 E.00947
G1 X118.439 Y121.319 E.75357
G1 X118.289 Y121.334 E.00861
G1 X118.156 Y121.234 E.00947
G1 X108.822 Y111.9 E.75357
G1 X108.705 Y111.804 E.00861
G1 X108.681 Y111.64 E.00947
G1 X108.681 Y98.439 E.75357
G1 X108.666 Y98.289 E.00861
G1 X108.766 Y98.156 E.00947
G1 X118.032 Y88.89 E.74806
G1 X118.258 Y88.886 F4200
; stop printing object OV-PAM_tendon_1F.stl id:0 copy 0
;LAYER_CHANGE
;Z:2
;HEIGHT:0.2
;BEFORE_LAYER_CHANGE
G92 E0.0
;2


M73 P9 R13
M73 Q9 S13
G1 E-1 F2400
G1 Z2 F720
;AFTER_LAYER_CHANGE
;2
; printing object OV-PAM_tendon_1F.stl id:0 copy 0
G1 X118.102 Y88.964 F4200
G1 E1 F1500
;WIDTH:0.62027
G1 F1200
G1 X118.118 Y88.941 E.00146
;WIDTH:0.693676
G1 F1152.506
G1 X118.185 Y88.84 E.00724
G1 X118.408 Y88.797 E.0135
;WIDTH:0.620268
G1 F1200
G1 X131.386 Y88.797 E.68534
G1 X131.489 Y88.779 E.00552
;WIDTH:0.693672
G1 F1152.513
G1 X131.608 Y88.754 E.00724
G1 X131.796 Y88.881 E.0135
;WIDTH:0.62027
G1 F1200
G1 X140.973 Y98.058 E.68534
G1 X141.059 Y98.118 E.00552
;WIDTH:0.693676
G1 F1152.506
G1 X141.16 Y98.185 E.00724
G1 X141.203 Y98.408 E.0135
;WIDTH:0.620268
G1 F1200
G1 X141.203 Y111.386 E.68534
G1 X141.221 Y111.489 E.00552
;WIDTH:0.693672
G1 F1152.513
G1 X141.246 Y111.608 E.00724
;WIDTH:0.706127
G1 F1130.869
G1 X141.119 Y111.796 E.01375
;WIDTH:0.62027
G1 F1200
G1 X131.942 Y120.973 E.68534
G1 X131.882 Y121.059 E.00552
;WIDTH:0.693676
G1 F1152.506
G1 X131.815 Y121.16 E.00724
G1 X131.592 Y121.203 E.0135
;WIDTH:0.620268
G1 F1200
G1 X118.614 Y121.203 E.68534
G1 X118.511 Y121.221 E.00552
;WIDTH:0.693672
G1 F1152.513
G1 X118.392 Y121.246 E.00724
G1 X118.204 Y121.119 E.0135
;WIDTH:0.62027
G1 F1200
G1 X109.027 Y111.942 E.68534
G1 X108.941 Y111.882 E.00552
;WIDTH:0.693676
G1 F1152.506
G1 X108.84 Y111.815 E.00724
G1 X108.797 Y111.592 E.0135
;WIDTH:0.620268
G1 F1200
G1 X108.797 Y98.614 E.68534
G1 X108.779 Y98.511 E.00552
;WIDTH:0.693672
G1 F1152.513
G1 X108.754 Y98.392 E.00724
G1 X108.881 Y98.204 E.0135
;WIDTH:0.62027
G1 F1200
G1 X118.068 Y89.013 E.68622
; stop printing object OV-PAM_tendon_1F.stl id:0 copy 0
;LAYER_CHANGE
;Z:2.2
;HEIGHT:0.2
;BEFORE_LAYER_CHANGE
G92 E0.0
;2.2


G1 E-1 F2400
G1 Z2.2 F720
;AFTER_LAYER_CHANGE
;2.2
; printing object OV-PAM_tendon_1F.stl id:0 copy 0
G1 X118.108 Y89.08 F4200
G1 E1 F1500
;WIDTH:0.669799
G1 F1196.404
G1 X118.117 Y89.066 E.00097
;WIDTH:0.759946
G1 F1045.987
G1 X118.168 Y88.982 E.00639
G1 X118.336 Y88.937 E.01145
;WIDTH:0.669797
G1 F1196.407
G1 X118.456 Y88.912 E.007
G1 X131.211 Y88.912 E.73136
G1 X131.4 Y88.866 E.01118
;WIDTH:0.759946
G1 F1045.987
G1 X131.495 Y88.843 E.00639
G1 X131.59 Y88.884 E.00678
;WIDTH:0.684111
G1 F1169.7
G1 X131.748 Y88.997 E.01141
;WIDTH:0.620269
G1 F1200
G1 X140.768 Y98.016 E.67357
G1 X140.851 Y98.067 E.00515
;WIDTH:0.713387
G1 F1118.624
G1 X141.018 Y98.168 E.01196
G1 X141.088 Y98.456 E.01818
;WIDTH:0.620268
G1 F1200
G1 X141.088 Y111.211 E.67357
G1 X141.111 Y111.306 E.00515
;WIDTH:0.713387
G1 F1118.624
G1 X141.157 Y111.495 E.01196
;WIDTH:0.759946
G1 F1045.987
G1 X141.07 Y111.646 E.01145
;WIDTH:0.669799
G1 F1196.404
G1 X141.003 Y111.748 E.007
G1 X131.984 Y120.768 E.73136
G1 X131.883 Y120.934 E.01118
;WIDTH:0.759946
G1 F1045.987
G1 X131.832 Y121.018 E.00639
G1 X131.664 Y121.063 E.01145
;WIDTH:0.669797
G1 F1196.407
G1 X131.544 Y121.088 E.007
G1 X118.789 Y121.088 E.73136
G1 X118.6 Y121.134 E.01118
;WIDTH:0.759946
M73 P10 R13
M73 Q10 S13
G1 F1045.987
G1 X118.505 Y121.157 E.00639
G1 X118.354 Y121.07 E.01145
;WIDTH:0.669799
G1 F1196.404
G1 X118.252 Y121.003 E.007
G1 X109.232 Y111.984 E.73136
G1 X109.066 Y111.883 E.01118
;WIDTH:0.759946
G1 F1045.987
G1 X108.982 Y111.832 E.00639
G1 X108.937 Y111.664 E.01145
;WIDTH:0.669797
G1 F1196.407
G1 X108.912 Y111.544 E.007
G1 X108.912 Y98.789 E.73136
G1 X108.866 Y98.6 E.01118
;WIDTH:0.759946
G1 F1045.987
G1 X108.843 Y98.505 E.00639
G1 X108.93 Y98.354 E.01145
;WIDTH:0.669799
G1 F1196.404
G1 X108.997 Y98.252 E.007
G1 X118.016 Y89.232 E.73136
G1 X118.077 Y89.131 E.00676
G1 X118.125 Y89.082 F4200
; stop printing object OV-PAM_tendon_1F.stl id:0 copy 0
;LAYER_CHANGE
;Z:2.4
;HEIGHT:0.2
;BEFORE_LAYER_CHANGE
G92 E0.0
;2.4


G1 E-1 F2400
G1 Z2.4 F720
;AFTER_LAYER_CHANGE
;2.4
; printing object OV-PAM_tendon_1F.stl id:0 copy 0
G1 X118.203 Y89.103 F4200
G1 E1 F1500
;WIDTH:0.819539
G1 F965.726
G1 X118.224 Y89.094 E.00164
;WIDTH:0.75273
G1 F1056.622
G1 X118.384 Y89.053 E.01072
;WIDTH:0.669797
G1 F1196.407
G1 X118.504 Y89.028 E.007
G1 X131.036 Y89.028 E.71858
G1 X131.121 Y89.003 E.00507
;WIDTH:0.719904
G1 F1107.855
G1 X131.291 Y88.953 E.01095
;WIDTH:0.81954
G1 F965.723
G1 X131.375 Y88.928 E.00628
G1 X131.456 Y88.962 E.0062
;WIDTH:0.752731
G1 F1056.62
G1 X131.598 Y89.045 E.01072
;WIDTH:0.669799
G1 F1196.404
G1 X131.7 Y89.112 E.007
G1 X140.562 Y97.974 E.71858
G1 X140.64 Y98.017 E.00507
;WIDTH:0.719903
G1 F1107.857
G1 X140.795 Y98.101 E.01095
;WIDTH:0.819539
G1 F965.726
G1 X140.873 Y98.144 E.00628
G1 X140.906 Y98.224 E.0062
;WIDTH:0.75273
G1 F1056.622
G1 X140.947 Y98.384 E.01072
;WIDTH:0.669797
G1 F1196.407
G1 X140.972 Y98.504 E.007
G1 X140.972 Y111.036 E.71858
G1 X140.997 Y111.121 E.00507
;WIDTH:0.719904
G1 F1107.855
G1 X141.047 Y111.291 E.01095
;WIDTH:0.81954
G1 F965.723
G1 X141.072 Y111.375 E.00628
;WIDTH:0.81954
G1 X141.038 Y111.456 E.0062
;WIDTH:0.752731
G1 F1056.62
G1 X140.955 Y111.598 E.01072
;WIDTH:0.669799
G1 F1196.404
G1 X140.888 Y111.7 E.007
G1 X132.026 Y120.562 E.71858
G1 X131.983 Y120.64 E.00507
;WIDTH:0.719903
G1 F1107.857
G1 X131.899 Y120.795 E.01095
;WIDTH:0.819539
G1 F965.726
G1 X131.856 Y120.873 E.00628
G1 X131.776 Y120.906 E.0062
;WIDTH:0.75273
G1 F1056.622
G1 X131.616 Y120.947 E.01072
;WIDTH:0.669797
G1 F1196.407
G1 X131.496 Y120.972 E.007
G1 X118.964 Y120.972 E.71858
G1 X118.879 Y120.997 E.00507
;WIDTH:0.719904
G1 F1107.855
G1 X118.709 Y121.047 E.01095
;WIDTH:0.81954
G1 F965.723
G1 X118.625 Y121.072 E.00628
G1 X118.544 Y121.038 E.0062
;WIDTH:0.752731
G1 F1056.62
G1 X118.402 Y120.955 E.01072
;WIDTH:0.669799
G1 F1196.404
G1 X118.3 Y120.888 E.007
G1 X109.438 Y112.026 E.71858
G1 X109.36 Y111.983 E.00507
;WIDTH:0.719903
G1 F1107.857
G1 X109.205 Y111.899 E.01095
;WIDTH:0.819539
G1 F965.726
G1 X109.127 Y111.856 E.00628
G1 X109.094 Y111.776 E.0062
;WIDTH:0.75273
G1 F1056.622
G1 X109.053 Y111.616 E.01072
