; generated by PrusaSlicer 2.5.2+win64 on 2023-06-21 at 07:53:34 UTC


;
;
; 

; external perimeters extrusion width = 0.45mm
; perimeters extrusion width = 0.45mm
; infill extrusion width = 0.45mm
; solid infill extrusion width = 0.45mm
; top infill extrusion width = 0.40mm
; first layer extrusion width = 0.42mm

; external perimeters extrusion width = 0.45mm
; perimeters extrusion width = 0.45mm
; infill extrusion width = 0.45mm
; solid infill extrusion width = 0.45mm
; top infill extrusion width = 0.40mm
; first layer extrusion width = 0.42mm

; external perimeters extrusion width = 0.45mm
; perimeters extrusion width = 0.45mm
; infill extrusion width = 0.45mm
; solid infill extrusion width = 0.45mm
; top infill extrusion width = 0.40mm
; first layer extrusion width = 0.42mm

; external perimeters extrusion width = 0.45mm
; perimeters extrusion width = 0.45mm
; infill extrusion width = 0.45mm
; solid infill extrusion width = 0.45mm
; top infill extrusion width = 0.40mm
; first layer extrusion width = 0.42mm

; external perimeters extrusion width = 0.45mm
; perimeters extrusion width = 0.45mm
; infill extrusion width = 0.45mm
; solid infill extrusion width = 0.45mm
; top infill extrusion width = 0.40mm
; first layer extrusion width = 0.42mm

M73 P0 R97
M73 Q0 S98
M201 X1000 Y1000 Z200 E5000 ; sets maximum accelerations, mm/sec^2
M203 X200 Y200 Z12 E120 ; sets maximum feedrates, mm / sec
M204 P1250 R1250 T1250 ; sets acceleration (P, T) and retract acceleration (R), mm/sec^2
M205 X8.00 Y8.00 Z0.40 E4.50 ; sets the jerk limits, mm/sec
M205 S0 T0 ; sets the minimum extruding and travel feed rate, mm/sec
M107
;TYPE:Custom
M862.3 P "MK3S" ; printer model check
M862.1 P0.4 ; nozzle diameter check
M115 U3.12.2 ; tell printer latest fw version
G90 ; use absolute coordinates
M83 ; extruder relative mode
M104 S240 ; set extruder temp
M140 S50 ; set bed temp
M190 S50 ; wait for bed temp
M109 S240 ; wait for extruder temp
G28 W ; home all without mesh bed level
G80 ; mesh bed leveling

G1 Z0.2 F720
G1 Y-3 F1000 ; go outside print area
G92 E0
G1 X60 E9 F1000 ; intro line
G1 X100 E12.5 F1000 ; intro line

G92 E0
M221 S95

; Don't change E values below. Excessive value can damage the printer.
M907 E430 ; set extruder motor current
G21 ; set units to millimeters
G90 ; use absolute coordinates
M83 ; use relative distances for extrusion
M900 K0 ; Filament gcode
M107
;LAYER_CHANGE
;Z:0.2
;HEIGHT:0.2
;BEFORE_LAYER_CHANGE
G92 E0.0
;0.2


G1 E-1 F2400
G1 Z.2 F720
;AFTER_LAYER_CHANGE
;0.2
G1 X57.06 Y44.904 F10800
G1 E1 F1500
M204 S800
;TYPE:Skirt/Brim
;WIDTH:0.42
G1 F1200
G1 X58.803 Y43.349 E.08057
G1 X84.541 Y33.211 E.95408
M73 P0 R96
G1 X85.802 Y32.976 E.04426
G1 X161.735 Y33.512 E2.61898
G1 X163.058 Y33.792 E.04663
G1 X188.427 Y44.823 E.95408
G1 X190.048 Y46.309 E.07586
G1 X233.319 Y126.041 E3.12881
G1 X233.727 Y127.652 E.05732
G1 X233.727 Y155.315 E.95408
G1 X233.333 Y156.898 E.05627
G1 X232.738 Y157.703 E.03452
G1 X213.178 Y177.263 E.95408
G1 X211.78 Y178.104 E.05627
G1 X210.827 Y178.252 E.03326
G1 X63.23 Y179.867 E5.09089
G1 X35.53 Y179.868 E.95535
G1 X33.947 Y179.474 E.05627
G1 X33.142 Y178.879 E.03452
G1 X13.581 Y159.318 E.95408
G1 X12.741 Y157.92 E.05627
M73 Q0 S97
G1 X12.592 Y156.93 E.03452
G1 X12.592 Y129.267 E.95408
G1 X12.988 Y127.68 E.05642
G1 X57.031 Y44.957 E3.23228
M204 S1000
; printing object OV-PAM_10_patterns_1f.stl id:2 copy 0
G1 E-1 F2400
G1 X110.642 Y47.824 F10800
G1 E1 F1500
M204 S800
;TYPE:External perimeter
;WIDTH:0.414481
G1 F1200
G1 X110.715 Y47.9 E.00357
G1 X120.617 Y73.038 E.91824
;WIDTH:0.417224
G1 X120.626 Y73.15 E.00384
G1 X120.615 Y73.181 E.00111
;WIDTH:0.414408
G1 X109.841 Y97.959 E.91806
G1 X109.738 Y98.057 E.00483
G1 X84.6 Y107.96 E.91806
G1 X84.457 Y107.957 E.00483
G1 X59.679 Y97.184 E.91806
G1 X59.581 Y97.081 E.00483
G1 X49.678 Y71.942 E.91806
G1 X49.681 Y71.8 E.00483
G1 X60.454 Y47.022 E.91806
G1 X60.557 Y46.923 E.00483
;WIDTH:0.419998
G1 X85.53 Y37.083 E.92578
;WIDTH:0.431039
G1 X85.767 Y37 E.00891
G1 X86.005 Y37.093 E.00908
;WIDTH:0.419998
G1 X110.595 Y47.788 E.92484
M204 S1000
G1 X110.806 Y47.476 F10800
M204 S800
;WIDTH:0.429128
G1 F1200
G1 X110.97 Y47.554 E.0064
G1 X110.999 Y47.628 E.00282
G1 X111.06 Y47.763 E.00523
;WIDTH:0.414408
G1 X120.963 Y72.902 E.91806
;WIDTH:0.429106
G1 X121.039 Y73.117 E.00805
G1 X120.955 Y73.329 E.00805
;WIDTH:0.414408
G1 X110.181 Y98.107 E.91806
;WIDTH:0.429105
G1 X110.084 Y98.313 E.00805
G1 X109.875 Y98.403 E.00805
;WIDTH:0.414408
G1 X84.736 Y108.306 E.91806
;WIDTH:0.429106
G1 X84.521 Y108.382 E.00805
G1 X84.309 Y108.298 E.00805
;WIDTH:0.414408
G1 X59.531 Y97.524 E.91806
;WIDTH:0.429106
G1 X59.325 Y97.427 E.00805
G1 X59.235 Y97.218 E.00805
;WIDTH:0.414408
G1 X49.332 Y72.079 E.91806
;WIDTH:0.429106
G1 X49.256 Y71.864 E.00805
G1 X49.34 Y71.652 E.00805
;WIDTH:0.414409
G1 X60.114 Y46.874 E.91806
;WIDTH:0.429123
G1 X60.211 Y46.668 E.00805
G1 X60.42 Y46.578 E.00805
;WIDTH:0.419998
G1 X85.392 Y36.732 E.92578
;WIDTH:0.431039
G1 X85.774 Y36.598 E.01438
M73 P1 R96
M73 Q1 S97
G1 X86.156 Y36.747 E.01455
;WIDTH:0.419998
G1 X110.752 Y47.451 E.92516
M204 S1000
; stop printing object OV-PAM_10_patterns_1f.stl id:2 copy 0
; printing object OV-PAM_10_patterns_1f.stl id:4 copy 0
G1 E-1 F2400
G1 X186.581 Y48.367 F10800
G1 E1 F1500
M204 S800
;WIDTH:0.414481
G1 F1200
G1 X186.648 Y48.436 E.00325
G1 X196.55 Y73.575 E.91824
;WIDTH:0.417224
G1 X196.559 Y73.687 E.00384
G1 X196.548 Y73.717 E.00111
;WIDTH:0.414408
G1 X185.774 Y98.495 E.91806
G1 X185.672 Y98.594 E.00483
G1 X160.533 Y108.496 E.91806
G1 X160.391 Y108.494 E.00483
G1 X135.613 Y97.72 E.91806
G1 X135.514 Y97.618 E.00483
G1 X125.611 Y72.479 E.91806
G1 X125.614 Y72.337 E.00483
M73 P1 R95
G1 X136.388 Y47.559 E.91806
G1 X136.49 Y47.46 E.00483
;WIDTH:0.419998
G1 X161.464 Y37.62 E.92578
;WIDTH:0.431039
G1 X161.7 Y37.536 E.00891
G1 X161.938 Y37.63 E.00908
;WIDTH:0.419998
G1 X186.537 Y48.328 E.92515
M204 S1000
G1 E-1 F2400
G1 X186.101 Y98.672 F10800
G1 E1 F1500
M204 S800
;WIDTH:0.429105
G1 F1200
G1 X186.017 Y98.849 E.00694
G1 X185.808 Y98.939 E.00805
;WIDTH:0.414408
G1 X160.669 Y108.842 E.91806
;WIDTH:0.429106
G1 X160.454 Y108.919 E.00805
G1 X160.243 Y108.835 E.00805
;WIDTH:0.414408
G1 X135.465 Y98.061 E.91806
;WIDTH:0.429106
G1 X135.259 Y97.963 E.00805
G1 X135.168 Y97.754 E.00805
;WIDTH:0.414408
G1 X125.266 Y72.615 E.91806
;WIDTH:0.429106
G1 X125.189 Y72.4 E.00805
G1 X125.273 Y72.189 E.00805
;WIDTH:0.414409
G1 X136.047 Y47.411 E.91806
;WIDTH:0.429123
G1 X136.145 Y47.205 E.00805
G1 X136.354 Y47.114 E.00805
;WIDTH:0.419998
G1 X161.327 Y37.268 E.92586
;WIDTH:0.431039
G1 X161.707 Y37.134 E.0143
G1 X162.089 Y37.284 E.01455
;WIDTH:0.419998
G1 X186.697 Y47.993 E.92562
;WIDTH:0.429128
G1 X186.903 Y48.091 E.00805
G1 X186.993 Y48.3 E.00805
;WIDTH:0.414408
G1 X196.896 Y73.439 E.91806
;WIDTH:0.429106
G1 X196.973 Y73.653 E.00805
G1 X196.888 Y73.865 E.00805
;WIDTH:0.414408
G1 X186.126 Y98.617 E.91709
M204 S1000
; stop printing object OV-PAM_10_patterns_1f.stl id:4 copy 0
; printing object OV-PAM_10_patterns_1f.stl id:3 copy 0
G1 E-1 F2400
G1 X210.478 Y108.312 F10800
G1 E1 F1500
M204 S800
;WIDTH:0.429106
G1 F1200
G1 X210.696 Y108.319 E.00769
G1 X210.862 Y108.475 E.00805
;WIDTH:0.414408
G1 X229.967 Y127.58 E.91806
;WIDTH:0.429106
G1 X230.123 Y127.746 E.00805
G1 X230.123 Y127.826 E.00283
G1 X230.131 Y127.974 E.00523
;WIDTH:0.414408
G1 X230.131 Y154.993 E.91806
;WIDTH:0.429106
G1 X230.123 Y155.221 E.00805
G1 X229.967 Y155.387 E.00805
;WIDTH:0.414408
G1 X210.862 Y174.492 E.91806
;WIDTH:0.429106
G1 X210.696 Y174.648 E.00805
G1 X210.468 Y174.656 E.00805
;WIDTH:0.414408
G1 X183.449 Y174.656 E.91806
;WIDTH:0.429106
G1 X183.221 Y174.648 E.00805
G1 X183.055 Y174.492 E.00805
;WIDTH:0.414408
G1 X163.95 Y155.387 E.91806
;WIDTH:0.429106
G1 X163.794 Y155.221 E.00805
M73 Q1 S96
G1 X163.786 Y154.993 E.00805
;WIDTH:0.414408
G1 X163.786 Y127.974 E.91806
;WIDTH:0.429106
G1 X163.794 Y127.746 E.00805
G1 X163.95 Y127.58 E.00805
;WIDTH:0.414408
G1 X183.055 Y108.475 E.91806
;WIDTH:0.429106
G1 X183.221 Y108.319 E.00805
G1 X183.449 Y108.311 E.00805
;WIDTH:0.414408
G1 X210.418 Y108.311 E.91637
M204 S1000
G1 X210.513 Y108.702 F10800
M204 S800
G1 F1200
G1 X210.599 Y108.737 E.00319
G1 X229.705 Y127.843 E.91806
G1 X229.759 Y127.974 E.00483
G1 X229.759 Y154.993 E.91806
;WIDTH:0.417224
G1 X229.727 Y155.101 E.00384
G1 X229.705 Y155.124 E.00111
;WIDTH:0.414408
G1 X210.599 Y174.23 E.91806
G1 X210.468 Y174.284 E.00483
G1 X183.449 Y174.284 E.91806
G1 X183.318 Y174.23 E.00483
G1 X164.212 Y155.124 E.91806
G1 X164.158 Y154.993 E.00483
G1 X164.158 Y127.974 E.91806
G1 X164.212 Y127.843 E.00483
G1 X183.318 Y108.737 E.91806
G1 X183.449 Y108.683 E.00483
G1 X210.456 Y108.683 E.91766
M204 S1000
G1 X210.579 Y108.635 F10800
; stop printing object OV-PAM_10_patterns_1f.stl id:3 copy 0
; printing object OV-PAM_10_patterns_1f.stl id:1 copy 0
G1 E-1 F2400
G1 X136.585 Y108.63 F10800
G1 E1 F1500
M204 S800
;WIDTH:0.429106
G1 F1200
G1 X136.805 Y108.637 E.00778
G1 X136.972 Y108.793 E.00805
;WIDTH:0.414408
G1 X156.077 Y127.899 E.91806
;WIDTH:0.429106
G1 X156.233 Y128.065 E.00805
G1 X156.233 Y128.145 E.00283
G1 X156.24 Y128.293 E.00523
;WIDTH:0.414408
G1 X156.24 Y155.312 E.91806
;WIDTH:0.429106
G1 X156.233 Y155.539 E.00805
G1 X156.077 Y155.706 E.00805
;WIDTH:0.414408
G1 X136.972 Y174.811 E.91806
;WIDTH:0.429106
G1 X136.805 Y174.967 E.00805
G1 X136.578 Y174.974 E.00805
;WIDTH:0.414408
G1 X109.559 Y174.974 E.91806
;WIDTH:0.429106
G1 X109.331 Y174.967 E.00805
G1 X109.165 Y174.811 E.00805
;WIDTH:0.414408
G1 X90.059 Y155.706 E.91806
;WIDTH:0.429106
G1 X89.903 Y155.539 E.00805
G1 X89.896 Y155.312 E.00805
;WIDTH:0.414408
G1 X89.896 Y128.293 E.91806
;WIDTH:0.429106
G1 X89.903 Y128.065 E.00805
G1 X90.059 Y127.899 E.00805
;WIDTH:0.414408
G1 X109.165 Y108.793 E.91806
;WIDTH:0.429106
G1 X109.331 Y108.637 E.00805
G1 X109.559 Y108.63 E.00805
;WIDTH:0.414408
G1 X136.525 Y108.63 E.91628
M204 S1000
G1 X136.622 Y109.02 F10800
M204 S800
M73 P2 R95
M73 Q2 S96
G1 F1200
G1 X136.709 Y109.056 E.00319
G1 X155.814 Y128.161 E.91806
G1 X155.869 Y128.293 E.00483
G1 X155.869 Y155.312 E.91806
;WIDTH:0.417224
G1 X155.836 Y155.419 E.00384
G1 X155.814 Y155.443 E.00111
;WIDTH:0.414408
G1 X136.709 Y174.548 E.91806
G1 X136.578 Y174.603 E.00483
G1 X109.559 Y174.603 E.91806
G1 X109.427 Y174.548 E.00483
G1 X90.322 Y155.443 E.91806
G1 X90.268 Y155.312 E.00483
G1 X90.268 Y128.293 E.91806
G1 X90.322 Y128.161 E.00483
G1 X109.427 Y109.056 E.91806
G1 X109.559 Y109.002 E.00483
M73 P2 R94
G1 X136.566 Y109.002 E.91766
M204 S1000
G1 X136.689 Y108.954 F10800
; stop printing object OV-PAM_10_patterns_1f.stl id:1 copy 0
; printing object OV-PAM_10_patterns_1f.stl id:0 copy 0
G1 E-1 F2400
G1 X62.878 Y109.927 F10800
G1 E1 F1500
M204 S800
;WIDTH:0.429106
G1 F1200
G1 X63.099 Y109.934 E.00779
G1 X63.265 Y110.09 E.00805
;WIDTH:0.414408
G1 X82.37 Y129.195 E.91806
;WIDTH:0.429106
G1 X82.526 Y129.361 E.00805
G1 X82.526 Y129.441 E.00283
G1 X82.533 Y129.589 E.00523
;WIDTH:0.414408
G1 X82.533 Y156.608 E.91806
;WIDTH:0.429106
G1 X82.526 Y156.836 E.00805
G1 X82.37 Y157.002 E.00805
;WIDTH:0.414408
G1 X63.265 Y176.108 E.91806
;WIDTH:0.429106
G1 X63.099 Y176.263 E.00805
G1 X62.871 Y176.271 E.00805
;WIDTH:0.414408
G1 X35.852 Y176.271 E.91806
;WIDTH:0.429106
G1 X35.624 Y176.263 E.00805
G1 X35.458 Y176.108 E.00805
;WIDTH:0.414408
G1 X16.352 Y157.002 E.91806
;WIDTH:0.429106
G1 X16.197 Y156.836 E.00805
G1 X16.189 Y156.608 E.00805
;WIDTH:0.414408
G1 X16.189 Y129.589 E.91806
;WIDTH:0.429106
G1 X16.197 Y129.361 E.00805
G1 X16.352 Y129.195 E.00805
;WIDTH:0.414408
G1 X35.458 Y110.09 E.91806
;WIDTH:0.429106
G1 X35.624 Y109.934 E.00805
G1 X35.852 Y109.927 E.00805
;WIDTH:0.414408
G1 X62.818 Y109.927 E.91627
M204 S1000
G1 X62.918 Y110.318 F10800
M204 S800
G1 F1200
G1 X63.002 Y110.353 E.00311
G1 X82.107 Y129.458 E.91806
G1 X82.162 Y129.589 E.00483
G1 X82.162 Y156.608 E.91806
G1 X82.107 Y156.74 E.00483
G1 X63.002 Y175.845 E.91806
G1 X62.871 Y175.899 E.00483
G1 X35.852 Y175.899 E.91806
;WIDTH:0.429106
G1 X35.778 Y175.892 E.00262
G1 X35.72 Y175.845 E.00262
;WIDTH:0.414408
G1 X16.615 Y156.74 E.91806
G1 X16.561 Y156.608 E.00483
G1 X16.561 Y129.589 E.91806
G1 X16.615 Y129.458 E.00483
G1 X35.72 Y110.353 E.91806
G1 X35.852 Y110.298 E.00483
M73 Q2 S95
G1 X62.861 Y110.298 E.91774
M204 S1000
G1 X62.982 Y110.253 F10800
; stop printing object OV-PAM_10_patterns_1f.stl id:0 copy 0
;LAYER_CHANGE
;Z:0.4
;HEIGHT:0.2
;BEFORE_LAYER_CHANGE
G92 E0.0
;0.4


G1 E-1 F2400
G1 Z.4 F720
;AFTER_LAYER_CHANGE
;0.4
G1 X31.214 Y93.449 F10800
G1 E1 F1500
;TYPE:Skirt/Brim
;WIDTH:0.42
G1 F1988.97
G1 X57.06 Y44.904 E1.8968
G1 X58.803 Y43.349 E.08057
G1 X84.541 Y33.211 E.95408
G1 X85.802 Y32.976 E.04426
G1 X161.735 Y33.512 E2.61898
G1 X163.058 Y33.792 E.04663
G1 X188.427 Y44.823 E.95408
G1 X190.048 Y46.309 E.07586
G1 X233.319 Y126.041 E3.12881
G1 X233.727 Y127.652 E.05732
G1 X233.727 Y155.315 E.95408
G1 X233.333 Y156.898 E.05627
G1 X232.738 Y157.703 E.03452
G1 X213.178 Y177.263 E.95408
G1 X211.78 Y178.104 E.05627
G1 X210.827 Y178.252 E.03326
G1 X63.23 Y179.867 E5.09089
G1 X35.53 Y179.868 E.95535
G1 X33.947 Y179.474 E.05627
G1 X33.142 Y178.879 E.03452
G1 X13.581 Y159.318 E.95408
G1 X12.741 Y157.92 E.05627
G1 X12.592 Y156.93 E.03452
G1 X12.592 Y129.267 E.95408
G1 X12.988 Y127.68 E.05642
G1 X31.186 Y93.502 E1.33548
; printing object OV-PAM_10_patterns_1f.stl id:2 copy 0
G1 E-1 F2400
G1 X110.653 Y47.833 F10800
G1 E1 F1500
M204 S800
;TYPE:External perimeter
;WIDTH:0.421461
G1 X110.717 Y47.899 E.00318
G1 X120.619 Y73.037 E.93545
;WIDTH:0.42433
G1 X120.628 Y73.151 E.00399
G1 X120.616 Y73.182 E.00115
;WIDTH:0.421461
G1 X109.843 Y97.959 E.93545
G1 X109.739 Y98.06 E.00502
G1 X84.601 Y107.962 E.93545
G1 X84.456 Y107.959 E.00502
G1 X59.679 Y97.186 E.93545
G1 X59.578 Y97.082 E.00502
M73 P3 R94
G1 X49.676 Y71.944 E.93545
G1 X49.679 Y71.799 E.00502
M73 Q3 S95
G1 X60.452 Y47.022 E.93545
G1 X60.556 Y46.921 E.00502
G1 X85.694 Y37.019 E.93545
G1 X85.839 Y37.022 E.00502
G1 X110.61 Y47.792 E.9352
M204 S1000
G1 X110.738 Y47.799 F10800
G1 X110.841 Y47.483
M204 S800
;WIDTH:0.436436
G1 F1500
G1 X110.977 Y47.547 E.0054
G1 X111.007 Y47.623 E.00293
G1 X111.069 Y47.761 E.00543
;WIDTH:0.421461
G1 X120.971 Y72.898 E.93545
;WIDTH:0.436438
G1 X121.049 Y73.117 E.00836
G1 X120.963 Y73.333 E.00836
;WIDTH:0.421461
G1 X110.19 Y98.11 E.93545
;WIDTH:0.436437
G1 X110.091 Y98.32 E.00836
G1 X109.877 Y98.412 E.00836
;WIDTH:0.421461
G1 X84.74 Y108.314 E.93545
;WIDTH:0.436438
G1 X84.521 Y108.392 E.00836
G1 X84.305 Y108.306 E.00836
;WIDTH:0.421461
G1 X59.528 Y97.533 E.93545
;WIDTH:0.436436
G1 X59.318 Y97.433 E.00836
G1 X59.226 Y97.22 E.00836
;WIDTH:0.421461
G1 X49.324 Y72.082 E.93545
;WIDTH:0.436438
G1 X49.246 Y71.864 E.00836
G1 X49.332 Y71.648 E.00836
;WIDTH:0.421462
G1 X60.105 Y46.871 E.93545
;WIDTH:0.436436
G1 X60.205 Y46.661 E.00836
G1 X60.418 Y46.569 E.00836
;WIDTH:0.421461
G1 X85.556 Y36.667 E.93545
;WIDTH:0.436438
G1 X85.774 Y36.589 E.00836
M73 P3 R93
G1 X85.99 Y36.675 E.00836
;WIDTH:0.421461
G1 X110.767 Y47.448 E.93545
;WIDTH:0.436436
G1 X110.787 Y47.457 E.0008
M204 S1000
; stop printing object OV-PAM_10_patterns_1f.stl id:2 copy 0
; printing object OV-PAM_10_patterns_1f.stl id:4 copy 0
G1 E-1 F2400
G1 X186.592 Y48.375 F10800
G1 E1 F1500
M204 S800
;WIDTH:0.421461
G1 X186.65 Y48.436 E.0029
G1 X196.552 Y73.574 E.93545
;WIDTH:0.42433
G1 X196.561 Y73.688 E.00399
G1 X196.549 Y73.718 E.00115
;WIDTH:0.421461
G1 X185.776 Y98.495 E.93545
G1 X185.672 Y98.596 E.00502
G1 X160.534 Y108.498 E.93545
G1 X160.389 Y108.496 E.00502
G1 X135.612 Y97.722 E.93545
G1 X135.512 Y97.618 E.00502
G1 X125.61 Y72.48 E.93545
G1 X125.612 Y72.335 E.00502
G1 X136.386 Y47.558 E.93545
G1 X136.49 Y47.458 E.00502
G1 X161.628 Y37.556 E.93545
G1 X161.772 Y37.558 E.00502
G1 X186.55 Y48.332 E.93548
M204 S1000
G1 X186.67 Y48.345 F10800
G1 E-1 F2400
G1 X186.095 Y98.707 F10800
G1 E1 F1500
M204 S800
;WIDTH:0.436437
G1 X186.024 Y98.856 E.00595
G1 X185.811 Y98.948 E.00836
;WIDTH:0.421461
G1 X160.673 Y108.85 E.93545
;WIDTH:0.436438
G1 X160.454 Y108.928 E.00836
G1 X160.238 Y108.843 E.00836
