; generated by PrusaSlicer 2.5.2+win64 on 2023-06-22 at 05:50:21 UTC


;
;
; 

; external perimeters extrusion width = 0.45mm
; perimeters extrusion width = 0.45mm
; infill extrusion width = 0.45mm
; solid infill extrusion width = 0.45mm
; top infill extrusion width = 0.40mm
; first layer extrusion width = 0.42mm

; external perimeters extrusion width = 0.45mm
; perimeters extrusion width = 0.45mm
; infill extrusion width = 0.45mm
; solid infill extrusion width = 0.45mm
; top infill extrusion width = 0.40mm
; first layer extrusion width = 0.42mm

; external perimeters extrusion width = 0.45mm
; perimeters extrusion width = 0.45mm
; infill extrusion width = 0.45mm
; solid infill extrusion width = 0.45mm
; top infill extrusion width = 0.40mm
; first layer extrusion width = 0.42mm

; external perimeters extrusion width = 0.45mm
; perimeters extrusion width = 0.45mm
; infill extrusion width = 0.45mm
; solid infill extrusion width = 0.45mm
; top infill extrusion width = 0.40mm
; first layer extrusion width = 0.42mm

; external perimeters extrusion width = 0.45mm
; perimeters extrusion width = 0.45mm
; infill extrusion width = 0.45mm
; solid infill extrusion width = 0.45mm
; top infill extrusion width = 0.40mm
; first layer extrusion width = 0.42mm

M73 P0 R198
M73 Q0 S202
M201 X1000 Y1000 Z200 E5000 ; sets maximum accelerations, mm/sec^2
M203 X200 Y200 Z12 E120 ; sets maximum feedrates, mm / sec
M204 P1250 R1250 T1250 ; sets acceleration (P, T) and retract acceleration (R), mm/sec^2
M205 X8.00 Y8.00 Z0.40 E4.50 ; sets the jerk limits, mm/sec
M205 S0 T0 ; sets the minimum extruding and travel feed rate, mm/sec
M107
;TYPE:Custom
M862.3 P "MK3S" ; printer model check
M862.1 P0.4 ; nozzle diameter check
M115 U3.12.2 ; tell printer latest fw version
G90 ; use absolute coordinates
M83 ; extruder relative mode
M104 S240 ; set extruder temp
M140 S50 ; set bed temp
M190 S50 ; wait for bed temp
M109 S240 ; wait for extruder temp
G28 W ; home all without mesh bed level
G80 ; mesh bed leveling

G1 Z0.2 F720
G1 Y-3 F1000 ; go outside print area
G92 E0
G1 X60 E9 F1000 ; intro line
G1 X100 E12.5 F1000 ; intro line

G92 E0
M221 S95

; Don't change E values below. Excessive value can damage the printer.
M907 E430 ; set extruder motor current
G21 ; set units to millimeters
G90 ; use absolute coordinates
M83 ; use relative distances for extrusion
M900 K0 ; Filament gcode
M107
;LAYER_CHANGE
;Z:0.2
;HEIGHT:0.2
;BEFORE_LAYER_CHANGE
G92 E0.0
;0.2


G1 E-1 F2400
G1 Z.2 F720
;AFTER_LAYER_CHANGE
;0.2
G1 X54.424 Y53.389 F10800
G1 E1 F1500
M204 S800
;TYPE:Skirt/Brim
;WIDTH:0.42
G1 F1200
G1 X73.984 Y33.828 E.95408
G1 X75.382 Y32.988 E.05627
G1 X76.354 Y32.839 E.03389
G1 X148.381 Y32.447 E2.48425
G1 X176.062 Y32.447 E.95471
G1 X177.646 Y32.841 E.05627
G1 X178.45 Y33.436 E.03452
G1 X198.011 Y52.997 E.95408
G1 X198.687 Y53.964 E.0407
G1 X231.194 Y124.069 E2.66519
G1 X231.507 Y125.49 E.05018
G1 X231.507 Y153.152 E.95408
G1 X231.113 Y154.736 E.05627
G1 X230.518 Y155.54 E.03452
G1 X210.958 Y175.101 E.95408
G1 X209.559 Y175.942 E.05627
G1 X208.578 Y176.09 E.03424
G1 X66.212 Y176.434 E4.91017
G1 X38.541 Y176.434 E.95436
G1 X36.958 Y176.04 E.05627
G1 X36.153 Y175.444 E.03452
G1 X16.593 Y155.884 E.95408
G1 X15.752 Y154.486 E.05627
G1 X15.604 Y153.496 E.03452
G1 X15.604 Y125.833 E.95408
G1 X16.009 Y124.229 E.05708
G1 X53.84 Y54.172 E2.74601
G1 X54.388 Y53.437 E.03162
M204 S1000
; printing object OV-PAM_5_patterns_1f.stl id:2 copy 0
G1 E-1 F2400
G1 X103.916 Y102.774 F10800
G1 E1 F1500
M204 S800
;TYPE:External perimeter
;WIDTH:0.429106
G1 F1200
G1 X103.713 Y102.78 E.00718
;WIDTH:0.414408
G1 X76.694 Y102.78 E.91806
;WIDTH:0.429106
G1 X76.466 Y102.773 E.00805
M73 P0 R197
G1 X76.3 Y102.617 E.00805
;WIDTH:0.414408
G1 X57.195 Y83.512 E.91806
;WIDTH:0.429106
G1 X57.039 Y83.345 E.00805
G1 X57.031 Y83.118 E.00805
;WIDTH:0.414408
G1 X57.031 Y56.099 E.91806
;WIDTH:0.429106
G1 X57.039 Y55.871 E.00805
G1 X57.195 Y55.705 E.00805
;WIDTH:0.414408
G1 X76.3 Y36.599 E.91806
;WIDTH:0.429106
G1 X76.466 Y36.444 E.00805
G1 X76.694 Y36.436 E.00805
;WIDTH:0.414408
G1 X103.713 Y36.436 E.91806
;WIDTH:0.429106
G1 X103.941 Y36.444 E.00805
G1 X104.107 Y36.599 E.00805
;WIDTH:0.414408
G1 X123.212 Y55.705 E.91806
;WIDTH:0.429106
G1 X123.368 Y55.871 E.00805
G1 X123.368 Y55.951 E.00283
G1 X123.375 Y56.099 E.00523
;WIDTH:0.414408
G1 X123.375 Y83.118 E.91806
;WIDTH:0.429106
G1 X123.368 Y83.345 E.00805
G1 X123.212 Y83.512 E.00805
;WIDTH:0.414408
G1 X104.107 Y102.617 E.91806
;WIDTH:0.429106
G1 X103.967 Y102.749 E.0068
M204 S1000
G1 X103.724 Y102.404 F10800
M204 S800
;WIDTH:0.414408
G1 F1200
G1 X76.694 Y102.409 E.91842
G1 X76.563 Y102.354 E.00483
G1 X57.457 Y83.249 E.91806
G1 X57.403 Y83.118 E.00483
G1 X57.403 Y56.099 E.91806
G1 X57.457 Y55.967 E.00483
G1 X76.563 Y36.862 E.91806
G1 X76.694 Y36.808 E.00483
G1 X103.713 Y36.808 E.91806
G1 X103.844 Y36.862 E.00483
G1 X122.95 Y55.967 E.91806
G1 X123.004 Y56.099 E.00483
M73 Q0 S201
G1 X123.004 Y83.118 E.91806
;WIDTH:0.417224
G1 X122.971 Y83.225 E.00384
G1 X122.95 Y83.249 E.00111
;WIDTH:0.414408
G1 X103.844 Y102.354 E.91806
G1 X103.779 Y102.381 E.0024
M204 S1000
G1 X103.62 Y102.791 F10800
; stop printing object OV-PAM_5_patterns_1f.stl id:2 copy 0
; printing object OV-PAM_5_patterns_1f.stl id:1 copy 0
G1 E-1 F2400
G1 X175.944 Y102.382 F10800
G1 E1 F1500
M204 S800
;WIDTH:0.429106
G1 F1200
G1 X175.74 Y102.388 E.0072
;WIDTH:0.414408
G1 X148.721 Y102.388 E.91806
;WIDTH:0.429106
G1 X148.494 Y102.381 E.00805
G1 X148.327 Y102.225 E.00805
;WIDTH:0.414408
G1 X129.222 Y83.12 E.91806
;WIDTH:0.429106
G1 X129.066 Y82.954 E.00805
G1 X129.059 Y82.726 E.00805
;WIDTH:0.414408
G1 X129.059 Y55.707 E.91806
;WIDTH:0.429106
G1 X129.066 Y55.479 E.00805
G1 X129.222 Y55.313 E.00805
;WIDTH:0.414408
G1 X148.327 Y36.207 E.91806
;WIDTH:0.429106
G1 X148.494 Y36.052 E.00805
G1 X148.721 Y36.044 E.00805
;WIDTH:0.414408
G1 X175.74 Y36.044 E.91806
;WIDTH:0.429106
G1 X175.968 Y36.052 E.00805
G1 X176.135 Y36.207 E.00805
;WIDTH:0.414408
G1 X195.24 Y55.313 E.91806
;WIDTH:0.429106
G1 X195.396 Y55.479 E.00805
G1 X195.396 Y55.559 E.00283
G1 X195.403 Y55.707 E.00523
;WIDTH:0.414408
G1 X195.403 Y82.726 E.91806
;WIDTH:0.429106
G1 X195.396 Y82.954 E.00805
G1 X195.24 Y83.12 E.00805
;WIDTH:0.414408
G1 X176.135 Y102.225 E.91806
;WIDTH:0.429106
G1 X175.994 Y102.356 E.00678
M204 S1000
G1 X175.751 Y102.012 F10800
M204 S800
;WIDTH:0.414408
G1 F1200
G1 X148.721 Y102.017 E.91842
G1 X148.59 Y101.962 E.00483
G1 X129.485 Y82.857 E.91806
G1 X129.43 Y82.726 E.00483
G1 X129.43 Y55.707 E.91806
G1 X129.485 Y55.575 E.00483
G1 X148.59 Y36.47 E.91806
G1 X148.721 Y36.416 E.00483
G1 X175.74 Y36.416 E.91806
G1 X175.872 Y36.47 E.00483
G1 X194.977 Y55.575 E.91806
G1 X195.032 Y55.707 E.00483
G1 X195.032 Y82.726 E.91806
;WIDTH:0.417224
G1 X194.999 Y82.833 E.00384
G1 X194.977 Y82.857 E.00111
;WIDTH:0.414408
G1 X175.872 Y101.962 E.91806
G1 X175.807 Y101.989 E.0024
M204 S1000
G1 X175.648 Y102.399 F10800
; stop printing object OV-PAM_5_patterns_1f.stl id:1 copy 0
; printing object OV-PAM_5_patterns_1f.stl id:3 copy 0
G1 E-1 F2400
G1 X208.262 Y172.117 F10800
G1 E1 F1500
M204 S800
;WIDTH:0.417219
G1 F1200
G1 X208.248 Y172.122 E.00051
;WIDTH:0.414408
G1 X181.229 Y172.122 E.91806
G1 X181.097 Y172.067 E.00483
G1 X161.992 Y152.962 E.91806
G1 X161.938 Y152.831 E.00483
G1 X161.938 Y125.812 E.91806
G1 X161.992 Y125.68 E.00483
G1 X181.097 Y106.575 E.91806
G1 X181.229 Y106.521 E.00483
G1 X208.248 Y106.521 E.91806
G1 X208.379 Y106.575 E.00483
G1 X227.484 Y125.68 E.91806
G1 X227.539 Y125.812 E.00483
G1 X227.539 Y152.831 E.91806
G1 X227.484 Y152.962 E.00483
G1 X208.379 Y172.067 E.91806
;WIDTH:0.417219
G1 X208.355 Y172.089 E.00111
G1 X208.319 Y172.1 E.00128
M204 S1000
G1 X208.451 Y172.487 F10800
M204 S800
;WIDTH:0.429106
G1 F1200
G1 X208.248 Y172.493 E.00718
;WIDTH:0.414408
G1 X181.229 Y172.493 E.91806
;WIDTH:0.429106
G1 X181.001 Y172.486 E.00805
G1 X180.835 Y172.33 E.00805
;WIDTH:0.414408
G1 X161.729 Y153.225 E.91806
;WIDTH:0.429106
G1 X161.574 Y153.058 E.00805
G1 X161.566 Y152.831 E.00805
;WIDTH:0.414408
G1 X161.566 Y125.812 E.91806
;WIDTH:0.429106
G1 X161.574 Y125.584 E.00805
G1 X161.729 Y125.418 E.00805
;WIDTH:0.414408
G1 X180.835 Y106.312 E.91806
;WIDTH:0.429106
G1 X181.001 Y106.156 E.00805
M73 P0 R196
G1 X181.229 Y106.149 E.00805
;WIDTH:0.414408
G1 X208.248 Y106.149 E.91806
;WIDTH:0.429106
G1 X208.475 Y106.156 E.00805
G1 X208.642 Y106.312 E.00805
;WIDTH:0.414408
G1 X227.747 Y125.418 E.91806
;WIDTH:0.429106
G1 X227.903 Y125.584 E.00805
G1 X227.903 Y125.664 E.00283
G1 X227.91 Y125.812 E.00523
;WIDTH:0.414408
G1 X227.91 Y152.831 E.91806
;WIDTH:0.429106
G1 X227.903 Y153.058 E.00805
G1 X227.747 Y153.225 E.00805
;WIDTH:0.414408
G1 X208.642 Y172.33 E.91806
;WIDTH:0.429106
G1 X208.501 Y172.462 E.0068
M204 S1000
; stop printing object OV-PAM_5_patterns_1f.stl id:3 copy 0
; printing object OV-PAM_5_patterns_1f.stl id:4 copy 0
G1 E-1 F2400
G1 X137.137 Y172.421 F10800
G1 E1 F1500
M204 S800
G1 F1200
G1 X136.939 Y172.427 E.00698
;WIDTH:0.414408
G1 X109.92 Y172.427 E.91806
;WIDTH:0.429106
G1 X109.693 Y172.42 E.00805
G1 X109.526 Y172.264 E.00805
;WIDTH:0.414408
G1 X90.421 Y153.159 E.91806
;WIDTH:0.429106
G1 X90.265 Y152.993 E.00805
G1 X90.258 Y152.765 E.00805
;WIDTH:0.414408
G1 X90.258 Y125.746 E.91806
;WIDTH:0.429106
G1 X90.265 Y125.518 E.00805
G1 X90.421 Y125.352 E.00805
;WIDTH:0.414408
G1 X109.526 Y106.247 E.91806
;WIDTH:0.429106
G1 X109.693 Y106.091 E.00805
G1 X109.92 Y106.083 E.00805
;WIDTH:0.414408
G1 X136.939 Y106.083 E.91806
;WIDTH:0.429106
G1 X137.167 Y106.091 E.00805
G1 X137.333 Y106.247 E.00805
;WIDTH:0.414408
G1 X156.439 Y125.352 E.91806
;WIDTH:0.429106
G1 X156.594 Y125.518 E.00805
G1 X156.594 Y125.598 E.00283
G1 X156.602 Y125.746 E.00523
;WIDTH:0.414408
G1 X156.602 Y152.765 E.91806
;WIDTH:0.429106
G1 X156.594 Y152.993 E.00805
G1 X156.439 Y153.159 E.00805
;WIDTH:0.414408
G1 X137.333 Y172.264 E.91806
;WIDTH:0.429106
G1 X137.189 Y172.4 E.007
M204 S1000
M73 Q0 S200
G1 X136.95 Y172.052 F10800
M204 S800
;WIDTH:0.414408
G1 F1200
G1 X109.92 Y172.056 E.91842
G1 X109.789 Y172.002 E.00483
G1 X90.684 Y152.896 E.91806
G1 X90.629 Y152.765 E.00483
M73 P1 R196
G1 X90.629 Y125.746 E.91806
G1 X90.684 Y125.615 E.00483
M73 Q1 S200
G1 X109.789 Y106.509 E.91806
G1 X109.92 Y106.455 E.00483
G1 X136.939 Y106.455 E.91806
G1 X137.071 Y106.509 E.00483
G1 X156.176 Y125.615 E.91806
G1 X156.23 Y125.746 E.00483
G1 X156.23 Y152.765 E.91806
;WIDTH:0.417224
G1 X156.198 Y152.872 E.00384
G1 X156.176 Y152.896 E.00111
;WIDTH:0.414408
G1 X137.071 Y172.002 E.91806
G1 X137.005 Y172.029 E.0024
M204 S1000
G1 X136.846 Y172.438 F10800
; stop printing object OV-PAM_5_patterns_1f.stl id:4 copy 0
; printing object OV-PAM_5_patterns_1f.stl id:0 copy 0
G1 E-1 F2400
G1 X66.086 Y172.83 F10800
G1 E1 F1500
M204 S800
;WIDTH:0.429106
G1 F1200
G1 X65.882 Y172.837 E.00722
;WIDTH:0.414408
G1 X38.863 Y172.837 E.91806
;WIDTH:0.429106
G1 X38.635 Y172.829 E.00805
G1 X38.469 Y172.673 E.00805
;WIDTH:0.414408
G1 X19.364 Y153.568 E.91806
;WIDTH:0.429106
G1 X19.208 Y153.402 E.00805
G1 X19.201 Y153.174 E.00805
;WIDTH:0.414408
G1 X19.201 Y126.155 E.91806
;WIDTH:0.429106
G1 X19.208 Y125.927 E.00805
G1 X19.364 Y125.761 E.00805
;WIDTH:0.414408
G1 X38.469 Y106.656 E.91806
;WIDTH:0.429106
G1 X38.635 Y106.5 E.00805
G1 X38.863 Y106.493 E.00805
;WIDTH:0.414408
G1 X65.882 Y106.493 E.91806
;WIDTH:0.429106
G1 X66.11 Y106.5 E.00805
G1 X66.276 Y106.656 E.00805
;WIDTH:0.414408
G1 X85.381 Y125.761 E.91806
;WIDTH:0.429106
G1 X85.537 Y125.927 E.00805
G1 X85.537 Y126.007 E.00283
G1 X85.545 Y126.155 E.00523
;WIDTH:0.414408
G1 X85.545 Y153.174 E.91806
;WIDTH:0.429106
G1 X85.537 Y153.402 E.00805
G1 X85.381 Y153.568 E.00805
;WIDTH:0.414408
G1 X66.276 Y172.673 E.91806
;WIDTH:0.429106
G1 X66.136 Y172.804 E.00676
M204 S1000
G1 X65.882 Y172.465 F10800
M204 S800
;WIDTH:0.414408
G1 F1200
G1 X38.863 Y172.465 E.91806
G1 X38.732 Y172.411 E.00483
G1 X19.626 Y153.305 E.91806
G1 X19.572 Y153.174 E.00483
G1 X19.572 Y126.155 E.91806
G1 X19.626 Y126.024 E.00483
G1 X38.732 Y106.919 E.91806
G1 X38.863 Y106.864 E.00483
G1 X65.882 Y106.864 E.91806
G1 X66.013 Y106.919 E.00483
G1 X85.119 Y126.024 E.91806
G1 X85.173 Y126.155 E.00483
G1 X85.173 Y153.174 E.91806
;WIDTH:0.417224
G1 X85.141 Y153.282 E.00384
G1 X85.119 Y153.305 E.00111
;WIDTH:0.414408
G1 X66.013 Y172.411 E.91806
G1 X65.938 Y172.442 E.00279
M204 S1000
G1 X65.778 Y172.852 F10800
; stop printing object OV-PAM_5_patterns_1f.stl id:0 copy 0
;LAYER_CHANGE
;Z:0.4
;HEIGHT:0.2
;BEFORE_LAYER_CHANGE
G92 E0.0
;0.4


G1 E-1 F2400
G1 Z.4 F720
;AFTER_LAYER_CHANGE
;0.4
G1 X65.938 Y176.434 F10800
G1 E1 F1500
;TYPE:Skirt/Brim
;WIDTH:0.42
G1 F1988.97
G1 X38.541 Y176.434 E.94489
G1 X36.958 Y176.04 E.05627
G1 X36.153 Y175.444 E.03452
G1 X16.593 Y155.884 E.95408
G1 X15.752 Y154.486 E.05627
G1 X15.604 Y153.496 E.03452
G1 X15.604 Y125.833 E.95408
G1 X16.009 Y124.229 E.05708
G1 X53.84 Y54.172 E2.74601
G1 X54.424 Y53.389 E.03369
G1 X73.984 Y33.828 E.95408
G1 X75.382 Y32.988 E.05627
G1 X76.354 Y32.839 E.03389
G1 X148.381 Y32.447 E2.48425
G1 X176.062 Y32.447 E.95471
M73 P1 R195
G1 X177.646 Y32.841 E.05627
G1 X178.45 Y33.436 E.03452
G1 X198.011 Y52.997 E.95408
G1 X198.687 Y53.964 E.0407
G1 X231.194 Y124.069 E2.66519
G1 X231.507 Y125.49 E.05018
G1 X231.507 Y153.152 E.95408
G1 X231.113 Y154.736 E.05627
G1 X230.518 Y155.54 E.03452
G1 X210.958 Y175.101 E.95408
G1 X209.559 Y175.942 E.05627
G1 X208.578 Y176.09 E.03424
G1 X65.998 Y176.434 E4.91757
; printing object OV-PAM_5_patterns_1f.stl id:2 copy 0
G1 E-1 F2400
G1 X103.942 Y102.782 F10800
G1 E1 F1500
M204 S800
;TYPE:External perimeter
;WIDTH:0.436436
G1 X103.712 Y102.789 E.00827
;WIDTH:0.42146
G1 X76.694 Y102.789 E.93544
;WIDTH:0.436437
G1 X76.462 Y102.782 E.00836
G1 X76.293 Y102.623 E.00836
;WIDTH:0.421459
G1 X57.189 Y83.519 E.93544
;WIDTH:0.436437
G1 X57.03 Y83.349 E.00836
G1 X57.022 Y83.117 E.00836
;WIDTH:0.42146
G1 X57.022 Y56.099 E.93544
;WIDTH:0.436437
G1 X57.03 Y55.867 E.00836
G1 X57.189 Y55.698 E.00836
;WIDTH:0.421459
G1 X76.293 Y36.593 E.93544
;WIDTH:0.436437
G1 X76.462 Y36.435 E.00836
G1 X76.694 Y36.427 E.00836
;WIDTH:0.42146
G1 X103.712 Y36.427 E.93544
;WIDTH:0.436436
G1 X103.944 Y36.435 E.00836
G1 X104.114 Y36.593 E.00836
;WIDTH:0.421459
G1 X123.218 Y55.698 E.93544
;WIDTH:0.436437
G1 X123.377 Y55.867 E.00836
M73 Q1 S199
G1 X123.377 Y55.949 E.00293
G1 X123.385 Y56.099 E.00543
;WIDTH:0.42146
G1 X123.385 Y83.117 E.93544
;WIDTH:0.436437
G1 X123.377 Y83.349 E.00836
G1 X123.218 Y83.519 E.00836
;WIDTH:0.421459
G1 X104.114 Y102.623 E.93544
;WIDTH:0.436436
G1 X103.986 Y102.743 E.00629
M204 S1000
G1 X103.718 Y102.409 F10800
M204 S800
;WIDTH:0.42146
G1 F1500
G1 X76.694 Y102.411 E.93563
G1 X76.561 Y102.355 E.00502
G1 X57.456 Y83.251 E.93544
G1 X57.401 Y83.117 E.00502
G1 X57.401 Y56.099 E.93544
G1 X57.456 Y55.965 E.00502
G1 X76.561 Y36.861 E.93544
G1 X76.694 Y36.806 E.00502
G1 X103.712 Y36.806 E.93544
G1 X103.846 Y36.861 E.00502
G1 X122.951 Y55.965 E.93544
G1 X123.006 Y56.099 E.00502
G1 X123.006 Y83.117 E.93544
G1 X122.951 Y83.251 E.00502
G1 X103.846 Y102.355 E.93544
G1 X103.773 Y102.386 E.00273
M204 S1000
G1 X103.614 Y102.795 F10800
; stop printing object OV-PAM_5_patterns_1f.stl id:2 copy 0
; printing object OV-PAM_5_patterns_1f.stl id:1 copy 0
G1 E-1 F2400
G1 X175.97 Y102.39 F10800
G1 E1 F1500
M204 S800
;WIDTH:0.436436
G1 X175.74 Y102.397 E.00828
;WIDTH:0.42146
G1 X148.722 Y102.397 E.93544
;WIDTH:0.436437
G1 X148.49 Y102.39 E.00836
G1 X148.321 Y102.231 E.00836
;WIDTH:0.421459
G1 X129.216 Y83.127 E.93544
;WIDTH:0.436437
G1 X129.057 Y82.957 E.00836
G1 X129.05 Y82.725 E.00836
;WIDTH:0.42146
G1 X129.05 Y55.707 E.93544
;WIDTH:0.436437
G1 X129.057 Y55.475 E.00836
G1 X129.216 Y55.306 E.00836
;WIDTH:0.421459
G1 X148.321 Y36.201 E.93544
;WIDTH:0.436437
G1 X148.49 Y36.043 E.00836
G1 X148.722 Y36.035 E.00836
;WIDTH:0.42146
G1 X175.74 Y36.035 E.93544
;WIDTH:0.436436
G1 X175.972 Y36.043 E.00836
G1 X176.141 Y36.201 E.00836
;WIDTH:0.421459
G1 X195.246 Y55.306 E.93544
;WIDTH:0.436437
G1 X195.405 Y55.475 E.00836
G1 X195.405 Y55.557 E.00293
G1 X195.412 Y55.707 E.00543
