; generated by PrusaSlicer 2.5.2+win64 on 2023-06-23 at 06:14:44 UTC


;
;
; 

; external perimeters extrusion width = 0.45mm
; perimeters extrusion width = 0.45mm
; infill extrusion width = 0.45mm
; solid infill extrusion width = 0.45mm
; top infill extrusion width = 0.40mm
; first layer extrusion width = 0.42mm

; external perimeters extrusion width = 0.45mm
; perimeters extrusion width = 0.45mm
; infill extrusion width = 0.45mm
; solid infill extrusion width = 0.45mm
; top infill extrusion width = 0.40mm
; first layer extrusion width = 0.42mm

; external perimeters extrusion width = 0.45mm
; perimeters extrusion width = 0.45mm
; infill extrusion width = 0.45mm
; solid infill extrusion width = 0.45mm
; top infill extrusion width = 0.40mm
; first layer extrusion width = 0.42mm

M73 P0 R206
M73 Q0 S210
M201 X1000 Y1000 Z200 E5000 ; sets maximum accelerations, mm/sec^2
M203 X200 Y200 Z12 E120 ; sets maximum feedrates, mm / sec
M204 P1250 R1250 T1250 ; sets acceleration (P, T) and retract acceleration (R), mm/sec^2
M205 X8.00 Y8.00 Z0.40 E4.50 ; sets the jerk limits, mm/sec
M205 S0 T0 ; sets the minimum extruding and travel feed rate, mm/sec
M107
;TYPE:Custom
M862.3 P "MK3S" ; printer model check
M862.1 P0.4 ; nozzle diameter check
M115 U3.12.2 ; tell printer latest fw version
G90 ; use absolute coordinates
M83 ; extruder relative mode
M104 S240 ; set extruder temp
M140 S50 ; set bed temp
M190 S50 ; wait for bed temp
M109 S240 ; wait for extruder temp
G28 W ; home all without mesh bed level
G80 ; mesh bed leveling

G1 Z0.2 F720
G1 Y-3 F1000 ; go outside print area
G92 E0
G1 X60 E9 F1000 ; intro line
G1 X100 E12.5 F1000 ; intro line

G92 E0
M221 S95

; Don't change E values below. Excessive value can damage the printer.
M907 E430 ; set extruder motor current
G21 ; set units to millimeters
G90 ; use absolute coordinates
M83 ; use relative distances for extrusion
M900 K0 ; Filament gcode
M107
;LAYER_CHANGE
;Z:0.2
;HEIGHT:0.2
;BEFORE_LAYER_CHANGE
G92 E0.0
;0.2


G1 E-1 F2400
G1 Z.2 F720
;AFTER_LAYER_CHANGE
;0.2
G1 X89.024 Y50.522 F10800
G1 E1 F1500
M204 S800
;TYPE:Skirt/Brim
;WIDTH:0.42
G1 F1200
G1 X92.615 Y44.195 E.2509
G1 X93.164 Y43.474 E.03126
G1 X112.724 Y23.914 E.95408
G1 X114.122 Y23.073 E.05627
G1 X115.112 Y22.925 E.03452
G1 X142.775 Y22.925 E.95408
G1 X144.358 Y23.319 E.05627
G1 X145.163 Y23.914 E.03452
G1 X164.724 Y43.474 E.95408
G1 X165.253 Y44.162 E.02993
G1 X203.89 Y110.446 E2.64618
G1 X204.35 Y112.147 E.06076
G1 X204.35 Y139.81 E.95408
G1 X203.956 Y141.393 E.05627
G1 X203.36 Y142.198 E.03452
G1 X183.8 Y161.758 E.95408
G1 X182.402 Y162.599 E.05627
G1 X181.419 Y162.747 E.03429
G1 X77.408 Y162.901 E3.58732
G1 X75.825 Y162.507 E.05627
M73 Q0 S209
G1 X75.02 Y161.912 E.03452
G1 X55.459 Y142.351 E.95408
G1 X54.618 Y140.953 E.05627
G1 X54.47 Y139.963 E.03452
G1 X54.47 Y112.301 E.95408
G1 X54.91 Y110.634 E.05946
G1 X88.995 Y50.574 E2.38176
M204 S1000
; printing object OV-PAM_3_patterns_1f.stl id:2 copy 0
G1 E-1 F2400
G1 X162.116 Y73.136 F10800
G1 E1 F1500
M204 S800
;TYPE:External perimeter
;WIDTH:0.414408
G1 F1200
G1 X162.116 Y73.203 E.00227
;WIDTH:0.429106
G1 X162.108 Y73.431 E.00805
G1 X161.953 Y73.597 E.00805
;WIDTH:0.414408
G1 X142.847 Y92.702 E.91806
;WIDTH:0.429106
G1 X142.681 Y92.858 E.00805
G1 X142.453 Y92.866 E.00805
;WIDTH:0.414408
G1 X115.434 Y92.866 E.91806
;WIDTH:0.429106
G1 X115.206 Y92.858 E.00805
G1 X115.04 Y92.702 E.00805
;WIDTH:0.414408
G1 X95.935 Y73.597 E.91806
;WIDTH:0.429106
G1 X95.779 Y73.431 E.00805
G1 X95.772 Y73.203 E.00805
;WIDTH:0.414408
G1 X95.772 Y46.184 E.91806
;WIDTH:0.429106
G1 X95.779 Y45.956 E.00805
G1 X95.935 Y45.79 E.00805
;WIDTH:0.414408
G1 X115.04 Y26.685 E.91806
;WIDTH:0.429106
G1 X115.206 Y26.529 E.00805
G1 X115.434 Y26.522 E.00805
;WIDTH:0.414408
G1 X142.453 Y26.522 E.91806
;WIDTH:0.429106
G1 X142.681 Y26.529 E.00805
M73 P0 R205
G1 X142.847 Y26.685 E.00805
;WIDTH:0.414408
G1 X161.953 Y45.79 E.91806
;WIDTH:0.429106
G1 X162.108 Y45.956 E.00805
G1 X162.108 Y46.036 E.00283
G1 X162.116 Y46.184 E.00523
;WIDTH:0.414408
G1 X162.116 Y73.076 E.91375
M204 S1000
G1 E-1 F2400
G1 X161.69 Y46.053 F10800
G1 E1 F1500
M204 S800
G1 F1200
G1 X161.744 Y46.184 E.00483
G1 X161.744 Y73.203 E.91806
;WIDTH:0.417224
G1 X161.712 Y73.311 E.00384
G1 X161.69 Y73.334 E.00111
;WIDTH:0.414408
G1 X142.585 Y92.44 E.91806
G1 X142.453 Y92.494 E.00483
G1 X115.434 Y92.494 E.91806
G1 X115.303 Y92.44 E.00483
G1 X96.198 Y73.334 E.91806
G1 X96.143 Y73.203 E.00483
G1 X96.143 Y46.184 E.91806
G1 X96.198 Y46.053 E.00483
G1 X115.303 Y26.947 E.91806
G1 X115.434 Y26.893 E.00483
G1 X142.453 Y26.893 E.91806
G1 X142.585 Y26.947 E.00483
G1 X161.647 Y46.01 E.91602
M204 S1000
G1 X161.832 Y46.053 F10800
; stop printing object OV-PAM_3_patterns_1f.stl id:2 copy 0
; printing object OV-PAM_3_patterns_1f.stl id:1 copy 0
G1 E-1 F2400
G1 X124.411 Y139.574 F10800
G1 E1 F1500
M204 S800
G1 F1200
G1 X124.411 Y139.642 E.00229
;WIDTH:0.429106
G1 X124.404 Y139.869 E.00805
G1 X124.248 Y140.036 E.00805
;WIDTH:0.414408
G1 X105.143 Y159.141 E.91806
;WIDTH:0.429106
G1 X104.976 Y159.297 E.00805
G1 X104.749 Y159.304 E.00805
;WIDTH:0.414408
G1 X77.73 Y159.304 E.91806
;WIDTH:0.429106
G1 X77.502 Y159.297 E.00805
G1 X77.336 Y159.141 E.00805
;WIDTH:0.414408
G1 X58.23 Y140.036 E.91806
;WIDTH:0.429106
G1 X58.074 Y139.869 E.00805
G1 X58.067 Y139.642 E.00805
;WIDTH:0.414408
G1 X58.067 Y112.623 E.91806
;WIDTH:0.429106
G1 X58.074 Y112.395 E.00805
G1 X58.23 Y112.229 E.00805
;WIDTH:0.414408
G1 X77.336 Y93.123 E.91806
;WIDTH:0.429106
G1 X77.502 Y92.967 E.00805
G1 X77.73 Y92.96 E.00805
;WIDTH:0.414408
G1 X104.749 Y92.96 E.91806
;WIDTH:0.429106
G1 X104.976 Y92.967 E.00805
G1 X105.143 Y93.123 E.00805
;WIDTH:0.414408
G1 X124.248 Y112.229 E.91806
;WIDTH:0.429106
G1 X124.404 Y112.395 E.00805
G1 X124.404 Y112.475 E.00283
G1 X124.411 Y112.623 E.00523
;WIDTH:0.414408
G1 X124.411 Y139.514 E.91373
M204 S1000
G1 E-1 F2400
G1 X123.985 Y112.491 F10800
G1 E1 F1500
M204 S800
G1 F1200
G1 X124.04 Y112.623 E.00483
G1 X124.04 Y139.642 E.91806
;WIDTH:0.417224
G1 X124.007 Y139.749 E.00384
G1 X123.985 Y139.773 E.00111
;WIDTH:0.414408
G1 X104.88 Y158.878 E.91806
G1 X104.749 Y158.933 E.00483
G1 X77.73 Y158.933 E.91806
G1 X77.598 Y158.878 E.00483
G1 X58.493 Y139.773 E.91806
G1 X58.439 Y139.642 E.00483
G1 X58.439 Y112.623 E.91806
G1 X58.493 Y112.491 E.00483
G1 X77.598 Y93.386 E.91806
G1 X77.73 Y93.332 E.00483
G1 X104.749 Y93.332 E.91806
G1 X104.88 Y93.386 E.00483
G1 X123.943 Y112.449 E.91602
M204 S1000
G1 X124.127 Y112.491 F10800
; stop printing object OV-PAM_3_patterns_1f.stl id:1 copy 0
; printing object OV-PAM_3_patterns_1f.stl id:0 copy 0
G1 E-1 F2400
G1 X200.753 Y139.415 F10800
G1 E1 F1500
M204 S800
G1 F1200
G1 X200.753 Y139.488 E.00249
;WIDTH:0.429106
G1 X200.745 Y139.716 E.00805
G1 X200.589 Y139.882 E.00805
;WIDTH:0.414408
G1 X181.484 Y158.987 E.91806
;WIDTH:0.429106
G1 X181.318 Y159.143 E.00805
G1 X181.09 Y159.151 E.00805
;WIDTH:0.414408
G1 X154.071 Y159.151 E.91806
;WIDTH:0.429106
G1 X153.843 Y159.143 E.00805
G1 X153.677 Y158.987 E.00805
;WIDTH:0.414408
G1 X134.572 Y139.882 E.91806
;WIDTH:0.429106
G1 X134.416 Y139.716 E.00805
G1 X134.409 Y139.488 E.00805
;WIDTH:0.414408
G1 X134.409 Y112.469 E.91806
;WIDTH:0.429106
G1 X134.416 Y112.241 E.00805
M73 Q0 S208
G1 X134.572 Y112.075 E.00805
;WIDTH:0.414408
G1 X153.677 Y92.97 E.91806
;WIDTH:0.429106
G1 X153.843 Y92.814 E.00805
G1 X154.071 Y92.806 E.00805
;WIDTH:0.414408
G1 X181.09 Y92.806 E.91806
;WIDTH:0.429106
G1 X181.318 Y92.814 E.00805
G1 X181.484 Y92.97 E.00805
;WIDTH:0.414408
G1 X200.589 Y112.075 E.91806
;WIDTH:0.429106
G1 X200.745 Y112.241 E.00805
G1 X200.745 Y112.321 E.00283
G1 X200.753 Y112.469 E.00523
;WIDTH:0.414408
G1 X200.753 Y139.355 E.91353
M204 S1000
G1 E-1 F2400
G1 X200.327 Y112.338 F10800
G1 E1 F1500
M204 S800
G1 F1200
G1 X200.381 Y112.469 E.00483
G1 X200.381 Y139.488 E.91806
;WIDTH:0.417224
G1 X200.349 Y139.595 E.00384
G1 X200.327 Y139.619 E.00111
;WIDTH:0.414408
G1 X181.221 Y158.725 E.91806
G1 X181.09 Y158.779 E.00483
G1 X154.071 Y158.779 E.91806
G1 X153.94 Y158.725 E.00483
G1 X134.834 Y139.619 E.91806
G1 X134.78 Y139.488 E.00483
G1 X134.78 Y112.469 E.91806
G1 X134.834 Y112.338 E.00483
G1 X153.94 Y93.232 E.91806
G1 X154.071 Y93.178 E.00483
G1 X181.09 Y93.178 E.91806
G1 X181.221 Y93.232 E.00483
G1 X200.284 Y112.295 E.91602
M204 S1000
G1 X200.469 Y112.338 F10800
; stop printing object OV-PAM_3_patterns_1f.stl id:0 copy 0
;LAYER_CHANGE
;Z:0.4
;HEIGHT:0.2
;BEFORE_LAYER_CHANGE
G92 E0.0
;0.4


M73 P0 R204
G1 E-1 F2400
G1 Z.4 F720
;AFTER_LAYER_CHANGE
;0.4
G1 X204.11 Y111.262 F10800
G1 E1 F1500
;TYPE:Skirt/Brim
;WIDTH:0.42
G1 F1988.97
G1 X204.35 Y112.147 E.03164
G1 X204.35 Y139.81 E.95408
G1 X203.956 Y141.393 E.05627
G1 X203.36 Y142.198 E.03452
G1 X183.8 Y161.758 E.95408
G1 X182.402 Y162.599 E.05627
G1 X181.419 Y162.747 E.03429
G1 X77.408 Y162.901 E3.58732
G1 X75.825 Y162.507 E.05627
G1 X75.02 Y161.912 E.03452
G1 X55.459 Y142.351 E.95408
G1 X54.618 Y140.953 E.05627
G1 X54.47 Y139.963 E.03452
G1 X54.47 Y112.301 E.95408
G1 X54.91 Y110.634 E.05946
G1 X92.615 Y44.195 E2.63473
G1 X93.164 Y43.474 E.03126
G1 X112.724 Y23.914 E.95408
G1 X114.122 Y23.073 E.05627
G1 X115.112 Y22.925 E.03452
G1 X142.775 Y22.925 E.95408
G1 X144.358 Y23.319 E.05627
G1 X145.163 Y23.914 E.03452
G1 X164.724 Y43.474 E.95408
G1 X165.253 Y44.162 E.02993
G1 X203.89 Y110.446 E2.64618
G1 X204.095 Y111.204 E.02705
; printing object OV-PAM_3_patterns_1f.stl id:2 copy 0
G1 E-1 F2400
G1 X162.125 Y73.124 F10800
G1 E1 F1500
M204 S800
;TYPE:External perimeter
;WIDTH:0.42146
G1 X162.125 Y73.202 E.00273
;WIDTH:0.436437
G1 X162.117 Y73.435 E.00836
G1 X161.959 Y73.604 E.00836
;WIDTH:0.421459
G1 X142.854 Y92.708 E.93544
;WIDTH:0.436436
G1 X142.685 Y92.867 E.00836
G1 X142.453 Y92.875 E.00836
;WIDTH:0.42146
G1 X115.435 Y92.875 E.93544
;WIDTH:0.436437
G1 X115.203 Y92.867 E.00836
G1 X115.033 Y92.708 E.00836
;WIDTH:0.421459
G1 X95.929 Y73.604 E.93544
;WIDTH:0.436437
G1 X95.77 Y73.435 E.00836
G1 X95.763 Y73.202 E.00836
;WIDTH:0.42146
G1 X95.763 Y46.185 E.93544
;WIDTH:0.436437
G1 X95.77 Y45.953 E.00836
G1 X95.929 Y45.783 E.00836
;WIDTH:0.421459
G1 X115.033 Y26.679 E.93544
;WIDTH:0.436437
G1 X115.203 Y26.52 E.00836
G1 X115.435 Y26.512 E.00836
;WIDTH:0.42146
G1 X142.453 Y26.512 E.93544
;WIDTH:0.436436
G1 X142.685 Y26.52 E.00836
G1 X142.854 Y26.679 E.00836
;WIDTH:0.421459
G1 X161.959 Y45.783 E.93544
;WIDTH:0.436437
G1 X162.117 Y45.953 E.00836
G1 X162.117 Y46.034 E.00293
G1 X162.125 Y46.185 E.00543
;WIDTH:0.42146
G1 X162.125 Y73.064 E.93064
M204 S1000
G1 E-1 F2400
G1 X161.687 Y46.047 F10800
G1 E1 F1500
M204 S800
;WIDTH:0.421459
M73 P1 R204
G1 X161.746 Y46.185 E.00518
G1 X161.746 Y73.202 E.93544
;WIDTH:0.424329
G1 X161.713 Y73.312 E.00399
M73 Q1 S208
G1 X161.691 Y73.336 E.00115
;WIDTH:0.421459
G1 X142.586 Y92.441 E.93544
G1 X142.453 Y92.496 E.00502
G1 X115.435 Y92.496 E.93544
G1 X115.301 Y92.441 E.00502
G1 X96.197 Y73.336 E.93544
G1 X96.141 Y73.202 E.00502
G1 X96.141 Y46.185 E.93544
G1 X96.197 Y46.051 E.00502
G1 X115.301 Y26.946 E.93544
G1 X115.435 Y26.891 E.00502
G1 X142.453 Y26.891 E.93544
G1 X142.586 Y26.946 E.00502
G1 X161.645 Y46.005 E.93319
M204 S1000
G1 X161.837 Y46.046 F10800
; stop printing object OV-PAM_3_patterns_1f.stl id:2 copy 0
; printing object OV-PAM_3_patterns_1f.stl id:1 copy 0
G1 E-1 F2400
G1 X124.42 Y139.562 F10800
G1 E1 F1500
M204 S800
;WIDTH:0.42146
G1 X124.42 Y139.641 E.00275
;WIDTH:0.436437
G1 X124.413 Y139.873 E.00836
G1 X124.254 Y140.042 E.00836
;WIDTH:0.421459
G1 X105.15 Y159.147 E.93544
;WIDTH:0.436436
G1 X104.98 Y159.306 E.00836
G1 X104.748 Y159.313 E.00836
;WIDTH:0.42146
G1 X77.73 Y159.313 E.93544
;WIDTH:0.436437
G1 X77.498 Y159.306 E.00836
G1 X77.329 Y159.147 E.00836
;WIDTH:0.421459
G1 X58.224 Y140.042 E.93544
;WIDTH:0.436437
G1 X58.065 Y139.873 E.00836
G1 X58.058 Y139.641 E.00836
;WIDTH:0.42146
G1 X58.058 Y112.623 E.93544
;WIDTH:0.436437
G1 X58.065 Y112.391 E.00836
G1 X58.224 Y112.222 E.00836
;WIDTH:0.421459
G1 X77.329 Y93.117 E.93544
;WIDTH:0.436437
G1 X77.498 Y92.958 E.00836
G1 X77.73 Y92.951 E.00836
;WIDTH:0.42146
G1 X104.748 Y92.951 E.93544
;WIDTH:0.436436
G1 X104.98 Y92.958 E.00836
G1 X105.15 Y93.117 E.00836
;WIDTH:0.421459
G1 X124.254 Y112.222 E.93544
;WIDTH:0.436437
G1 X124.413 Y112.391 E.00836
M73 Q1 S207
G1 X124.413 Y112.473 E.00293
G1 X124.42 Y112.623 E.00543
;WIDTH:0.42146
G1 X124.42 Y139.502 E.93062
M204 S1000
G1 E-1 F2400
G1 X123.983 Y112.486 F10800
G1 E1 F1500
M204 S800
;WIDTH:0.421459
G1 X124.042 Y112.623 E.00518
G1 X124.042 Y139.641 E.93544
;WIDTH:0.424329
G1 X124.009 Y139.75 E.00399
G1 X123.986 Y139.775 E.00115
;WIDTH:0.421459
G1 X104.882 Y158.879 E.93544
G1 X104.748 Y158.935 E.00502
G1 X77.73 Y158.935 E.93544
G1 X77.596 Y158.879 E.00502
G1 X58.492 Y139.775 E.93544
G1 X58.437 Y139.641 E.00502
G1 X58.437 Y112.623 E.93544
G1 X58.492 Y112.489 E.00502
G1 X77.596 Y93.385 E.93544
G1 X77.73 Y93.329 E.00502
G1 X104.748 Y93.329 E.93544
G1 X104.882 Y93.385 E.00502
G1 X123.94 Y112.443 E.93319
M204 S1000
G1 X124.132 Y112.484 F10800
; stop printing object OV-PAM_3_patterns_1f.stl id:1 copy 0
; printing object OV-PAM_3_patterns_1f.stl id:0 copy 0
G1 E-1 F2400
G1 X200.762 Y139.403 F10800
G1 E1 F1500
M204 S800
;WIDTH:0.42146
G1 X200.762 Y139.487 E.00292
;WIDTH:0.436437
G1 X200.754 Y139.719 E.00836
G1 X200.595 Y139.889 E.00836
;WIDTH:0.421459
G1 X181.491 Y158.993 E.93544
;WIDTH:0.436436
G1 X181.322 Y159.152 E.00836
G1 X181.09 Y159.16 E.00836
;WIDTH:0.42146
G1 X154.072 Y159.16 E.93544
;WIDTH:0.436437
G1 X153.84 Y159.152 E.00836
G1 X153.67 Y158.993 E.00836
;WIDTH:0.421459
G1 X134.566 Y139.889 E.93544
;WIDTH:0.436437
G1 X134.407 Y139.719 E.00836
G1 X134.399 Y139.487 E.00836
;WIDTH:0.42146
G1 X134.399 Y112.47 E.93544
;WIDTH:0.436437
G1 X134.407 Y112.238 E.00836
G1 X134.566 Y112.068 E.00836
;WIDTH:0.421459
G1 X153.67 Y92.964 E.93544
;WIDTH:0.436437
G1 X153.84 Y92.805 E.00836
G1 X154.072 Y92.797 E.00836
;WIDTH:0.42146
G1 X181.09 Y92.797 E.93544
;WIDTH:0.436436
G1 X181.322 Y92.805 E.00836
M73 P1 R203
G1 X181.491 Y92.964 E.00836
;WIDTH:0.421459
G1 X200.595 Y112.068 E.93544
;WIDTH:0.436437
G1 X200.754 Y112.238 E.00836
G1 X200.754 Y112.319 E.00293
G1 X200.762 Y112.47 E.00543
;WIDTH:0.42146
G1 X200.762 Y139.343 E.93045
M204 S1000
G1 E-1 F2400
G1 X200.324 Y112.332 F10800
G1 E1 F1500
M204 S800
;WIDTH:0.421459
G1 X200.383 Y112.47 E.00518
G1 X200.383 Y139.487 E.93544
;WIDTH:0.424329
G1 X200.35 Y139.597 E.00399
G1 X200.328 Y139.621 E.00115
;WIDTH:0.421459
G1 X181.223 Y158.726 E.93544
G1 X181.09 Y158.781 E.00502
G1 X154.072 Y158.781 E.93544
G1 X153.938 Y158.726 E.00502
G1 X134.833 Y139.621 E.93544
G1 X134.778 Y139.487 E.00502
G1 X134.778 Y112.47 E.93544
G1 X134.833 Y112.336 E.00502
G1 X153.938 Y93.231 E.93544
G1 X154.072 Y93.176 E.00502
G1 X181.09 Y93.176 E.93544
G1 X181.223 Y93.231 E.00502
G1 X200.282 Y112.29 E.93319
M204 S1000
G1 X200.474 Y112.331 F10800
; stop printing object OV-PAM_3_patterns_1f.stl id:0 copy 0
;LAYER_CHANGE
;Z:0.6
;HEIGHT:0.2
;BEFORE_LAYER_CHANGE
G92 E0.0
;0.6


G1 E-1 F2400
G1 Z.6 F720
;AFTER_LAYER_CHANGE
;0.6
G1 X204.109 Y111.256 F10800
G1 E1 F1500
;TYPE:Skirt/Brim
;WIDTH:0.42
G1 F1988.97
G1 X204.35 Y112.147 E.03185
G1 X204.35 Y139.81 E.95408
G1 X203.956 Y141.393 E.05627
G1 X203.36 Y142.198 E.03452
G1 X183.8 Y161.758 E.95408
G1 X182.402 Y162.599 E.05627
G1 X181.419 Y162.747 E.03429
G1 X77.408 Y162.901 E3.58732
G1 X75.825 Y162.507 E.05627
G1 X75.02 Y161.912 E.03452
G1 X55.459 Y142.351 E.95408
G1 X54.618 Y140.953 E.05627
G1 X54.47 Y139.963 E.03452
G1 X54.47 Y112.301 E.95408
G1 X54.91 Y110.634 E.05946
G1 X92.615 Y44.195 E2.63473
G1 X93.164 Y43.474 E.03126
G1 X112.724 Y23.914 E.95408
G1 X114.122 Y23.073 E.05627
G1 X115.112 Y22.925 E.03452
G1 X142.775 Y22.925 E.95408
G1 X144.358 Y23.319 E.05627
G1 X145.163 Y23.914 E.03452
G1 X164.724 Y43.474 E.95408
G1 X165.253 Y44.162 E.02993
G1 X203.89 Y110.446 E2.64618
G1 X204.093 Y111.198 E.02684
; printing object OV-PAM_3_patterns_1f.stl id:2 copy 0
G1 E-1 F2400
G1 X162.125 Y73.11 F10800
G1 E1 F1500
M204 S800
;TYPE:External perimeter
;WIDTH:0.42146
G1 X162.125 Y73.202 E.00322
;WIDTH:0.436437
