; generated by PrusaSlicer 2.5.2+win64 on 2023-10-26 at 05:53:06 UTC


;
;
; 

; external perimeters extrusion width = 0.50mm
; perimeters extrusion width = 0.50mm
; infill extrusion width = 0.50mm
; solid infill extrusion width = 0.50mm
; top infill extrusion width = 0.50mm
; first layer extrusion width = 0.50mm

M73 P0 R27
M73 Q0 S27
M201 X1000 Y1000 Z200 E5000 ; sets maximum accelerations, mm/sec^2
M203 X200 Y200 Z12 E120 ; sets maximum feedrates, mm / sec
M204 P1250 R1250 T1250 ; sets acceleration (P, T) and retract acceleration (R), mm/sec^2
M205 X8.00 Y8.00 Z0.40 E4.50 ; sets the jerk limits, mm/sec
M205 S0 T0 ; sets the minimum extruding and travel feed rate, mm/sec
M107
;TYPE:Custom
M862.3 P "MK3S" ; printer model check
M862.1 P0.4 ; nozzle diameter check
M115 U3.12.2 ; tell printer latest fw version
G90 ; use absolute coordinates
M83 ; extruder relative mode
M104 S240 ; set extruder temp
M140 S60 ; set bed temp
M190 S60 ; wait for bed temp
M109 S240 ; wait for extruder temp
G28 W ; home all without mesh bed level
G80 ; mesh bed leveling

G1 Z0.2 F720
G1 Y-3 F1000 ; go outside print area
G92 E0
G1 X60 E9 F1000 ; intro line
G1 X100 E12.5 F1000 ; intro line

G92 E0
M221 S95

; Don't change E values below. Excessive value can damage the printer.
M907 E430 ; set extruder motor current
G21 ; set units to millimeters
G90 ; use absolute coordinates
M83 ; use relative distances for extrusion
M900 K0 ; Filament gcode
M107
;LAYER_CHANGE
;Z:0.2
;HEIGHT:0.2
;BEFORE_LAYER_CHANGE
G92 E0.0
;0.2


G1 E-1 F2400
G1 Z.2 F720
;AFTER_LAYER_CHANGE
;0.2
G1 X89.364 Y88.807 F4200
G1 E1 F1500
M204 S300
;TYPE:Skirt/Brim
;WIDTH:0.5
G1 F1200
G1 X108.807 Y69.364 E1.14957
G1 X110.219 Y68.509 E.06902
G1 X111.251 Y68.351 E.04365
G1 X138.749 Y68.351 E1.14957
G1 X140.352 Y68.745 E.06902
G1 X141.193 Y69.364 E.04365
G1 X160.636 Y88.807 E1.14957
G1 X161.491 Y90.219 E.06902
M73 P0 R26
M73 Q0 S26
G1 X161.649 Y91.251 E.04365
G1 X161.649 Y118.749 E1.14957
G1 X161.255 Y120.352 E.06902
G1 X160.636 Y121.193 E.04365
G1 X141.193 Y140.636 E1.14957
G1 X139.781 Y141.491 E.06902
G1 X138.749 Y141.649 E.04365
G1 X111.251 Y141.649 E1.14957
G1 X109.648 Y141.255 E.06902
M73 P1 R26
M73 Q1 S26
G1 X108.807 Y140.636 E.04365
G1 X89.364 Y121.193 E1.14957
G1 X88.509 Y119.781 E.06902
G1 X88.351 Y118.749 E.04365
G1 X88.351 Y91.251 E1.14957
G1 X88.745 Y89.648 E.06902
G1 X89.328 Y88.855 E.04114
; printing object OV-PAM_rotation_1F.stl id:0 copy 0
G1 E-1 F2400
G1 X157.936 Y118.596 F4200
G1 E1 F1500
;TYPE:External perimeter
;WIDTH:0.562703
G1 F1200
G1 X157.932 Y118.641 E.00212
G1 X157.869 Y118.718 E.00475
G1 X138.641 Y137.932 E1.29231
G1 X111.359 Y137.932 E1.29703
G1 X92.068 Y118.641 E1.29703
G1 X92.068 Y91.359 E1.29703
G1 X111.359 Y72.068 E1.29703
G1 X138.641 Y72.068 E1.29703
G1 X157.932 Y91.359 E1.29703
G1 X157.942 Y118.537 E1.29208
G1 X157.976 Y118.616 F4200
; stop printing object OV-PAM_rotation_1F.stl id:0 copy 0
;LAYER_CHANGE
;Z:0.4
;HEIGHT:0.2
;BEFORE_LAYER_CHANGE
G92 E0.0
;0.4


G1 E-1 F2400
G1 Z.4 F720
;AFTER_LAYER_CHANGE
;0.4
G1 X161.487 Y119.408 F4200
G1 E1 F1500
;TYPE:Skirt/Brim
;WIDTH:0.5
G1 F1200
G1 X161.255 Y120.352 E.04061
G1 X160.636 Y121.193 E.04365
M73 P2 R26
M73 Q2 S26
G1 X141.193 Y140.636 E1.14957
G1 X139.781 Y141.491 E.06902
G1 X138.749 Y141.649 E.04365
G1 X111.251 Y141.649 E1.14957
G1 X109.648 Y141.255 E.06902
G1 X108.807 Y140.636 E.04365
G1 X89.364 Y121.193 E1.14957
G1 X88.509 Y119.781 E.06902
G1 X88.351 Y118.749 E.04365
G1 X88.351 Y91.251 E1.14957
G1 X88.745 Y89.648 E.06902
G1 X89.364 Y88.807 E.04365
G1 X108.807 Y69.364 E1.14957
G1 X110.219 Y68.509 E.06902
G1 X111.251 Y68.351 E.04365
G1 X138.749 Y68.351 E1.14957
G1 X140.352 Y68.745 E.06902
G1 X141.193 Y69.364 E.04365
G1 X160.636 Y88.807 E1.14957
G1 X161.491 Y90.219 E.06902
G1 X161.649 Y91.251 E.04365
G1 X161.649 Y118.749 E1.14957
G1 X161.501 Y119.35 E.0259
; printing object OV-PAM_rotation_1F.stl id:0 copy 0
G1 E-1 F2400
G1 X158.098 Y118.658 F4200
G1 X158.1 Y118.632
G1 X157.934 Y118.622
G1 E1 F1500
;TYPE:External perimeter
;WIDTH:0.562703
G1 F1200
G1 X157.869 Y118.718 E.00551
G1 X138.641 Y137.932 E1.29231
G1 X111.359 Y137.932 E1.29703
G1 X92.068 Y118.641 E1.29703
G1 X92.068 Y91.359 E1.29703
M73 P3 R26
M73 Q3 S26
G1 X111.359 Y72.068 E1.29703
G1 X138.641 Y72.068 E1.29703
G1 X157.932 Y91.359 E1.29703
G1 X157.94 Y118.563 E1.29331
G1 X158.015 Y118.705 F4200
; stop printing object OV-PAM_rotation_1F.stl id:0 copy 0
;LAYER_CHANGE
;Z:0.6
;HEIGHT:0.2
;BEFORE_LAYER_CHANGE
G92 E0.0
;0.6


G1 E-1 F2400
G1 Z.6 F720
;AFTER_LAYER_CHANGE
;0.6
G1 X161.481 Y119.433 F4200
G1 E1 F1500
;TYPE:Skirt/Brim
;WIDTH:0.5
G1 F1200
G1 X161.255 Y120.352 E.03954
G1 X160.636 Y121.193 E.04365
G1 X141.193 Y140.636 E1.14957
G1 X139.781 Y141.491 E.06902
G1 X138.749 Y141.649 E.04365
G1 X111.251 Y141.649 E1.14957
G1 X109.648 Y141.255 E.06902
G1 X108.807 Y140.636 E.04365
G1 X89.364 Y121.193 E1.14957
G1 X88.509 Y119.781 E.06902
G1 X88.351 Y118.749 E.04365
G1 X88.351 Y91.251 E1.14957
G1 X88.745 Y89.648 E.06902
G1 X89.364 Y88.807 E.04365
G1 X108.807 Y69.364 E1.14957
G1 X110.219 Y68.509 E.06902
G1 X111.251 Y68.351 E.04365
G1 X138.749 Y68.351 E1.14957
G1 X140.352 Y68.745 E.06902
M73 P4 R26
M73 Q4 S26
G1 X141.193 Y69.364 E.04365
G1 X160.636 Y88.807 E1.14957
G1 X161.491 Y90.219 E.06902
G1 X161.649 Y91.251 E.04365
G1 X161.649 Y118.749 E1.14957
G1 X161.495 Y119.375 E.02697
; printing object OV-PAM_rotation_1F.stl id:0 copy 0
G1 E-1 F2400
G1 X158.096 Y118.689 F4200
G1 X158.095 Y118.708
G1 X158.048 Y118.762
G1 X157.923 Y118.652
G1 E1 F1500
;TYPE:External perimeter
;WIDTH:0.562703
G1 F1200
G1 X138.641 Y137.932 E1.29637
G1 X111.359 Y137.932 E1.29703
G1 X92.068 Y118.641 E1.29703
G1 X92.068 Y91.359 E1.29703
M73 P4 R25
M73 Q4 S25
G1 X111.359 Y72.068 E1.29703
G1 X138.641 Y72.068 E1.29703
G1 X157.932 Y91.359 E1.29703
G1 X157.937 Y118.595 E1.29486
G1 X158.167 Y118.969 F4200
; stop printing object OV-PAM_rotation_1F.stl id:0 copy 0
;LAYER_CHANGE
;Z:0.8
;HEIGHT:0.2
;BEFORE_LAYER_CHANGE
G92 E0.0
;0.8


G1 E-1 F2400
G1 Z.8 F720
;AFTER_LAYER_CHANGE
;0.8
; printing object OV-PAM_rotation_1F.stl id:0 copy 0
G1 X157.889 Y118.693 F4200
G1 E1 F1500
G1 F1200
G1 X138.641 Y137.932 E1.29385
G1 X111.359 Y137.932 E1.29703
G1 X92.068 Y118.641 E1.29703
M73 P5 R25
M73 Q5 S25
G1 X92.068 Y91.359 E1.29703
G1 X111.359 Y72.068 E1.29703
G1 X138.641 Y72.068 E1.29703
G1 X157.932 Y91.359 E1.29703
G1 X157.942 Y118.541 E1.29231
G1 X157.927 Y118.647 E.00504
G1 X158.089 Y119.039 F4200
; stop printing object OV-PAM_rotation_1F.stl id:0 copy 0
;LAYER_CHANGE
;Z:1
;HEIGHT:0.2
;BEFORE_LAYER_CHANGE
G92 E0.0
;1


G1 E-1 F2400
G1 Z1 F720
;AFTER_LAYER_CHANGE
;1
; printing object OV-PAM_rotation_1F.stl id:0 copy 0
G1 X157.847 Y118.739 F4200
G1 E1 F1500
G1 F1200
G1 X138.641 Y137.932 E1.29088
G1 X111.359 Y137.932 E1.29703
G1 X92.068 Y118.641 E1.29703
G1 X92.068 Y91.359 E1.29703
G1 X111.359 Y72.068 E1.29703
G1 X138.641 Y72.068 E1.29703
M73 P6 R25
M73 Q6 S25
G1 X157.932 Y91.359 E1.29703
G1 X157.942 Y118.541 E1.29231
G1 X157.932 Y118.641 E.00475
G1 X157.888 Y118.695 E.00332
G1 X157.994 Y119.112 F4200
; stop printing object OV-PAM_rotation_1F.stl id:0 copy 0
;LAYER_CHANGE
;Z:1.2
;HEIGHT:0.2
;BEFORE_LAYER_CHANGE
G92 E0.0
;1.2


G1 E-1 F2400
G1 Z1.2 F720
;AFTER_LAYER_CHANGE
;1.2
; printing object OV-PAM_rotation_1F.stl id:0 copy 0
G1 X157.769 Y118.773 F4200
G1 E1 F1500
;WIDTH:0.627654
G1 F1200
G1 X138.627 Y137.9 E1.44723
G1 X111.373 Y137.9 E1.45767
G1 X92.1 Y118.627 E1.45767
G1 X92.1 Y91.373 E1.45767
G1 X111.373 Y72.1 E1.45767
G1 X138.627 Y72.1 E1.45767
G1 X157.9 Y91.373 E1.45767
G1 X157.911 Y118.516 E1.45168
G1 X157.9 Y118.627 E.00601
G1 X157.812 Y118.731 E.00725
G1 X157.909 Y119.148 F4200
; stop printing object OV-PAM_rotation_1F.stl id:0 copy 0
;LAYER_CHANGE
;Z:1.4
;HEIGHT:0.2
;BEFORE_LAYER_CHANGE
G92 E0.0
;1.4


G1 E-1 F2400
G1 Z1.4 F720
;AFTER_LAYER_CHANGE
;1.4
; printing object OV-PAM_rotation_1F.stl id:0 copy 0
G1 X157.608 Y118.762 F4200
G1 E1 F1500
;WIDTH:0.712273
G1 F1120.485
G1 X138.676 Y137.695 E1.63921
G1 X138.576 Y137.777 E.00794
M73 P7 R25
M73 Q7 S25
G1 X111.552 Y137.789 E1.65448
G1 X111.423 Y137.776 E.00794
G1 X92.305 Y118.676 E1.65448
G1 X92.223 Y118.576 E.00794
G1 X92.211 Y91.552 E1.65448
G1 X92.224 Y91.423 E.00794
G1 X111.324 Y72.305 E1.65448
G1 X111.424 Y72.223 E.00794
G1 X138.448 Y72.211 E1.65448
G1 X138.577 Y72.224 E.00794
G1 X157.695 Y91.324 E1.65448
G1 X157.777 Y91.424 E.00794
G1 X157.789 Y118.448 E1.65448
G1 X157.776 Y118.577 E.00794
G1 X157.651 Y118.72 E.01162
G1 X157.745 Y119.138 F4200
; stop printing object OV-PAM_rotation_1F.stl id:0 copy 0
;LAYER_CHANGE
;Z:1.6
;HEIGHT:0.2
;BEFORE_LAYER_CHANGE
G92 E0.0
;1.6


G1 E-1 F2400
G1 Z1.6 F720
;AFTER_LAYER_CHANGE
;1.6
; printing object OV-PAM_rotation_1F.stl id:0 copy 0
G1 X157.443 Y118.718 F4200
G1 E1 F1500
;WIDTH:0.686413
G1 F1165.514
G1 X157.378 Y118.764 E.00473
G1 X138.609 Y137.533 E1.56225
;WIDTH:0.761315
G1 F1043.995
G1 X138.404 Y137.672 E.01627
G1 X138.272 Y137.646 E.00889
;WIDTH:0.686414
G1 F1165.512
G1 X138.162 Y137.627 E.00655
G1 X111.619 Y137.627 E1.56226
;WIDTH:0.761311
G1 F1044
G1 X111.375 Y137.581 E.01627
G1 X111.3 Y137.468 E.00889
;WIDTH:0.686413
G1 F1165.514
G1 X111.236 Y137.378 E.00655
G1 X92.467 Y118.609 E1.56225
;WIDTH:0.761315
G1 F1043.995
G1 X92.328 Y118.404 E.01627
G1 X92.354 Y118.272 E.00889
;WIDTH:0.686414
G1 F1165.512
G1 X92.373 Y118.162 E.00655
G1 X92.373 Y91.619 E1.56226
;WIDTH:0.761311
G1 F1044
M73 P8 R25
M73 Q8 S25
G1 X92.419 Y91.375 E.01627
G1 X92.532 Y91.3 E.00889
;WIDTH:0.686413
G1 F1165.514
G1 X92.622 Y91.236 E.00655
G1 X111.391 Y72.467 E1.56225
;WIDTH:0.761315
G1 F1043.995
M73 P8 R24
M73 Q8 S24
G1 X111.596 Y72.328 E.01627
G1 X111.728 Y72.354 E.00889
;WIDTH:0.686414
G1 F1165.512
G1 X111.838 Y72.373 E.00655
G1 X138.381 Y72.373 E1.56226
;WIDTH:0.761311
G1 F1044
G1 X138.625 Y72.419 E.01627
G1 X138.7 Y72.532 E.00889
;WIDTH:0.686413
G1 F1165.514
G1 X138.764 Y72.622 E.00655
G1 X157.533 Y91.391 E1.56225
;WIDTH:0.778403
G1 F1019.738
G1 X157.672 Y91.596 E.01666
;WIDTH:0.761315
G1 F1043.995
G1 X157.646 Y91.728 E.00889
;WIDTH:0.686414
G1 F1165.512
G1 X157.627 Y91.838 E.00655
G1 X157.627 Y118.381 E1.56226
;WIDTH:0.761311
G1 F1044
G1 X157.581 Y118.625 E.01627
G1 X157.492 Y118.683 E.00698
G1 X157.463 Y118.796 F4200
; stop printing object OV-PAM_rotation_1F.stl id:0 copy 0
;LAYER_CHANGE
;Z:1.8
;HEIGHT:0.2
;BEFORE_LAYER_CHANGE
G92 E0.0
;1.8


G1 E-1 F2400
G1 Z1.8 F720
;AFTER_LAYER_CHANGE
;1.8
; printing object OV-PAM_rotation_1F.stl id:0 copy 0
G1 X157.41 Y118.777 F4200
G1 E1 F1500
;WIDTH:0.796818
G1 F994.83
G1 X157.345 Y118.794 E.00465
;WIDTH:0.723214
G1 F1102.465
G1 X157.086 Y118.845 E.0164
G1 X156.986 Y118.926 E.008
G1 X138.403 Y137.509 E1.63527
G1 X138.327 Y137.559 E.00565
;WIDTH:0.796818
G1 F994.83
G1 X138.176 Y137.659 E.01251
G1 X138.117 Y137.625 E.00465
;WIDTH:0.723215
G1 F1102.463
G1 X137.899 Y137.478 E.0164
G1 X137.771 Y137.465 E.008
G1 X111.49 Y137.465 E1.63528
G1 X111.401 Y137.447 E.00565
;WIDTH:0.796818
G1 F994.83
G1 X111.223 Y137.41 E.01251
G1 X111.206 Y137.345 E.00465
;WIDTH:0.723214
G1 F1102.465
G1 X111.155 Y137.086 E.0164
G1 X111.074 Y136.986 E.008
G1 X92.491 Y118.403 E1.63527
G1 X92.441 Y118.327 E.00565
;WIDTH:0.796818
G1 F994.83
G1 X92.341 Y118.176 E.01251
;WIDTH:0.796818
G1 X92.375 Y118.117 E.00465
;WIDTH:0.723215
G1 F1102.463
G1 X92.522 Y117.899 E.0164
G1 X92.535 Y117.771 E.008
G1 X92.535 Y91.49 E1.63528
G1 X92.553 Y91.401 E.00565
;WIDTH:0.796818
G1 F994.83
G1 X92.59 Y91.223 E.01251
G1 X92.655 Y91.206 E.00465
;WIDTH:0.723214
G1 F1102.465
G1 X92.914 Y91.155 E.0164
G1 X93.014 Y91.074 E.008
G1 X111.597 Y72.491 E1.63527
G1 X111.673 Y72.441 E.00565
;WIDTH:0.796818
G1 F994.83
G1 X111.824 Y72.341 E.01251
G1 X111.883 Y72.375 E.00465
;WIDTH:0.723215
G1 F1102.463
G1 X112.101 Y72.522 E.0164
G1 X112.229 Y72.535 E.008
G1 X138.51 Y72.535 E1.63528
G1 X138.599 Y72.553 E.00565
;WIDTH:0.796818
G1 F994.83
G1 X138.777 Y72.59 E.01251
G1 X138.794 Y72.655 E.00465
;WIDTH:0.723214
G1 F1102.465
G1 X138.845 Y72.914 E.0164
G1 X138.926 Y73.014 E.008
G1 X157.509 Y91.597 E1.63527
G1 X157.559 Y91.673 E.00565
;WIDTH:0.796818
M73 P9 R24
M73 Q9 S24
G1 F994.83
G1 X157.659 Y91.824 E.01251
G1 X157.625 Y91.883 E.00465
;WIDTH:0.723215
G1 F1102.463
G1 X157.478 Y92.101 E.0164
G1 X157.465 Y92.229 E.008
G1 X157.465 Y118.51 E1.63528
G1 X157.447 Y118.599 E.00565
;WIDTH:0.796818
G1 F994.83
G1 X157.422 Y118.718 E.00838
; stop printing object OV-PAM_rotation_1F.stl id:0 copy 0
;LAYER_CHANGE
;Z:2
;HEIGHT:0.2
;BEFORE_LAYER_CHANGE
G92 E0.0
;2


G1 E-1 F2400
G1 Z2 F720
;AFTER_LAYER_CHANGE
;2
; printing object OV-PAM_rotation_1F.stl id:0 copy 0
G1 X157.159 Y118.957 F4200
G1 E1 F1500
;WIDTH:0.723214
G1 F1102.465
G1 X156.981 Y118.994 E.01129
G1 X156.695 Y119.007 E.01784
G1 X156.595 Y119.088 E.008
G1 X138.174 Y137.509 E1.62101
G1 X138.098 Y137.559 E.00565
;WIDTH:0.796819
G1 F994.829
G1 X137.947 Y137.659 E.01251
G1 X137.871 Y137.609 E.00626
;WIDTH:0.723215
G1 F1102.463
G1 X137.719 Y137.509 E.01129
G1 X137.507 Y137.316 E.01784
G1 X137.379 Y137.303 E.008
G1 X111.328 Y137.303 E1.62102
G1 X111.239 Y137.285 E.00565
;WIDTH:0.796818
G1 F994.83
G1 X111.061 Y137.248 E.01251
G1 X111.043 Y137.159 E.00626
;WIDTH:0.723214
G1 F1102.465
G1 X111.006 Y136.981 E.01129
G1 X110.993 Y136.695 E.01784
G1 X110.912 Y136.595 E.008
G1 X92.491 Y118.174 E1.62101
G1 X92.441 Y118.098 E.00565
;WIDTH:0.796818
G1 F994.83
G1 X92.341 Y117.947 E.01251
;WIDTH:0.796819
G1 X92.391 Y117.871 E.00626
;WIDTH:0.723215
G1 F1102.463
G1 X92.491 Y117.719 E.01129
G1 X92.684 Y117.507 E.01784
G1 X92.697 Y117.379 E.008
G1 X92.697 Y91.328 E1.62102
G1 X92.715 Y91.239 E.00565
;WIDTH:0.796818
G1 F994.83
G1 X92.752 Y91.061 E.01251
G1 X92.841 Y91.043 E.00626
;WIDTH:0.723214
G1 F1102.465
G1 X93.019 Y91.006 E.01129
G1 X93.305 Y90.993 E.01784
G1 X93.405 Y90.912 E.008
G1 X111.826 Y72.491 E1.62101
G1 X111.902 Y72.441 E.00565
;WIDTH:0.796819
G1 F994.829
G1 X112.053 Y72.341 E.01251
G1 X112.129 Y72.391 E.00626
;WIDTH:0.723215
G1 F1102.463
G1 X112.281 Y72.491 E.01129
G1 X112.493 Y72.684 E.01784
G1 X112.621 Y72.697 E.008
G1 X138.672 Y72.697 E1.62102
G1 X138.761 Y72.715 E.00565
;WIDTH:0.796818
G1 F994.83
G1 X138.939 Y72.752 E.01251
G1 X138.957 Y72.841 E.00626
;WIDTH:0.723214
G1 F1102.465
G1 X138.994 Y73.019 E.01129
G1 X139.007 Y73.305 E.01784
G1 X139.088 Y73.405 E.008
G1 X157.509 Y91.826 E1.62101
G1 X157.559 Y91.902 E.00565
;WIDTH:0.796819
G1 F994.829
G1 X157.659 Y92.053 E.01251
G1 X157.609 Y92.129 E.00626
;WIDTH:0.723215
G1 F1102.463
G1 X157.509 Y92.281 E.01129
G1 X157.316 Y92.493 E.01784
G1 X157.303 Y92.621 E.008
G1 X157.303 Y118.672 E1.62102
G1 X157.285 Y118.761 E.00565
;WIDTH:0.796818
G1 F994.83
G1 X157.248 Y118.939 E.01251
G1 X157.218 Y118.945 E.00212
G1 X157.149 Y119.138 F4200
; stop printing object OV-PAM_rotation_1F.stl id:0 copy 0
;LAYER_CHANGE
;Z:2.2
;HEIGHT:0.2
;BEFORE_LAYER_CHANGE
G92 E0.0
;2.2


G1 E-1 F2400
G1 Z2.2 F720
;AFTER_LAYER_CHANGE
;2.2
; printing object OV-PAM_rotation_1F.stl id:0 copy 0
G1 X156.861 Y119.147 F4200
G1 E1 F1500
;WIDTH:0.723214
G1 F1102.465
G1 X156.304 Y119.169 E.03471
G1 X156.204 Y119.25 E.008
G1 X137.945 Y137.509 E1.60676
G1 X137.869 Y137.559 E.00565
;WIDTH:0.796817
G1 F994.831
G1 X137.717 Y137.659 E.01251
G1 X137.642 Y137.609 E.00626
;WIDTH:0.723215
G1 F1102.463
G1 X137.49 Y137.509 E.01129
G1 X137.116 Y137.154 E.0321
G1 X136.988 Y137.141 E.008
G1 X111.166 Y137.141 E1.60676
G1 X111.077 Y137.123 E.00565
;WIDTH:0.796818
M73 P10 R24
M73 Q10 S24
G1 F994.83
G1 X110.899 Y137.086 E.01251
G1 X110.881 Y136.997 E.00626
;WIDTH:0.723214
G1 F1102.465
G1 X110.844 Y136.819 E.01129
G1 X110.831 Y136.304 E.0321
G1 X110.75 Y136.204 E.008
G1 X92.491 Y117.945 E1.60676
G1 X92.441 Y117.869 E.00565
;WIDTH:0.796817
G1 F994.831
G1 X92.341 Y117.717 E.01251
G1 X92.391 Y117.642 E.00626
;WIDTH:0.723213
G1 F1102.466
G1 X92.491 Y117.49 E.01129
;WIDTH:0.723215
G1 X92.846 Y117.116 E.0321
G1 X92.859 Y116.988 E.008
G1 X92.859 Y91.166 E1.60676
G1 X92.877 Y91.077 E.00565
;WIDTH:0.796818
G1 F994.83
G1 X92.914 Y90.899 E.01251
G1 X93.003 Y90.881 E.00626
;WIDTH:0.723214
G1 F1102.465
